/* XPM */
static char * collectible_xpm[] = {
"62 61 3168 2",
"  	c #C8C8B1",
". 	c #212320",
"+ 	c #1A1D1F",
"@ 	c #1A1D1E",
"# 	c #1C1D1F",
"$ 	c #1E1F20",
"% 	c #43463D",
"& 	c #4D5F32",
"* 	c #87AB5A",
"= 	c #A6CE82",
"- 	c #AACE88",
"; 	c #AACE8A",
"> 	c #A3C089",
", 	c #89A577",
"' 	c #4D5E41",
") 	c #949587",
"! 	c #848279",
"~ 	c #35362B",
"{ 	c #34422B",
"] 	c #4A5A3C",
"^ 	c #5C6E4E",
"/ 	c #6A7B5A",
"( 	c #5F6B51",
"_ 	c #181B17",
": 	c #1B1819",
"< 	c #2D3025",
"[ 	c #3F4933",
"} 	c #444E38",
"| 	c #546540",
"1 	c #647A4C",
"2 	c #6D8652",
"3 	c #738E56",
"4 	c #76925B",
"5 	c #789660",
"6 	c #72905C",
"7 	c #3D4B37",
"8 	c #2D2D2B",
"9 	c #2A2928",
"0 	c #262725",
"a 	c #242523",
"b 	c #272424",
"c 	c #242123",
"d 	c #242124",
"e 	c #252125",
"f 	c #2F3831",
"g 	c #445543",
"h 	c #3D4A3F",
"i 	c #556942",
"j 	c #7E9D5D",
"k 	c #7C9761",
"l 	c #4B5B45",
"m 	c #4D514C",
"n 	c #ADAEA0",
"o 	c #DCDDCB",
"p 	c #DCDCC3",
"q 	c #909182",
"r 	c #202B2B",
"s 	c #1C272B",
"t 	c #1B2529",
"u 	c #1B242A",
"v 	c #192127",
"w 	c #A6A49C",
"x 	c #374338",
"y 	c #809C76",
"z 	c #6F9663",
"A 	c #51784B",
"B 	c #405C41",
"C 	c #3C483A",
"D 	c #414F33",
"E 	c #7D9252",
"F 	c #8FAC52",
"G 	c #B9D182",
"H 	c #D4E5A3",
"I 	c #D4E6A2",
"J 	c #D3E8AA",
"K 	c #D1EEA9",
"L 	c #BDD29B",
"M 	c #2B2B25",
"N 	c #2B221E",
"O 	c #A0B97C",
"P 	c #C1EB96",
"Q 	c #CEF2A6",
"R 	c #D4F7AB",
"S 	c #D8F6B2",
"T 	c #D3F0AC",
"U 	c #687C4D",
"V 	c #3A3F26",
"W 	c #92A974",
"X 	c #C5EA9A",
"Y 	c #C4EB95",
"Z 	c #C5ED91",
"` 	c #C6F091",
" .	c #C9F392",
"..	c #CAF492",
"+.	c #CAF594",
"@.	c #CAF595",
"#.	c #C7F28E",
"$.	c #A7CF74",
"%.	c #839D55",
"&.	c #5C703A",
"*.	c #A0C071",
"=.	c #A3C974",
"-.	c #9FC275",
";.	c #8DAF67",
">.	c #6D854E",
",.	c #414F28",
"'.	c #4C6335",
").	c #85AA61",
"!.	c #759A52",
"~.	c #A0C677",
"{.	c #CAEE90",
"].	c #CBEA94",
"^.	c #B9DA8B",
"/.	c #869C6E",
"(.	c #2C3026",
"_.	c #282A2B",
":.	c #373B2D",
"<.	c #46593D",
"[.	c #537848",
"}.	c #80AF62",
"|.	c #89BA69",
"1.	c #8BBD6A",
"2.	c #7CAE69",
"3.	c #283124",
"4.	c #516B4D",
"5.	c #B7E195",
"6.	c #BBE98F",
"7.	c #B1E385",
"8.	c #96C774",
"9.	c #95B46C",
"0.	c #98B66D",
"a.	c #9CBC62",
"b.	c #AABD60",
"c.	c #B7C476",
"d.	c #D4E2A2",
"e.	c #D6E4A6",
"f.	c #D5EAA7",
"g.	c #D3EFA5",
"h.	c #CBE4A1",
"i.	c #4E553D",
"j.	c #4B4B37",
"k.	c #C9E59C",
"l.	c #D3FAA1",
"m.	c #D9F8A9",
"n.	c #DAF9AA",
"o.	c #D9F8B0",
"p.	c #D9F7AD",
"q.	c #B5D884",
"r.	c #88AC59",
"s.	c #A0BF76",
"t.	c #C9EE96",
"u.	c #C9EE91",
"v.	c #CAF092",
"w.	c #CDF396",
"x.	c #CEF498",
"y.	c #CFF599",
"z.	c #D0F69C",
"A.	c #D1F69C",
"B.	c #D1F798",
"C.	c #C9F493",
"D.	c #C2EA87",
"E.	c #B1D97B",
"F.	c #C9F28E",
"G.	c #CFF393",
"H.	c #CFF199",
"I.	c #CAEF90",
"J.	c #AAD277",
"K.	c #7E9E4D",
"L.	c #7F9E4E",
"M.	c #ADD271",
"N.	c #B3D877",
"O.	c #B7DB81",
"P.	c #D1EE92",
"Q.	c #D5EF96",
"R.	c #CDEC90",
"S.	c #C9E897",
"T.	c #7D9066",
"U.	c #1C1D1E",
"V.	c #485F3B",
"W.	c #5F8749",
"X.	c #739C53",
"Y.	c #C3F487",
"Z.	c #BCED81",
"`.	c #B7EF7E",
" +	c #9ED677",
".+	c #41543B",
"++	c #618653",
"@+	c #B0DE82",
"#+	c #C4EB8F",
"$+	c #C7EC8B",
"%+	c #C1E983",
"&+	c #B9E27B",
"*+	c #AFD870",
"=+	c #A5CC65",
"-+	c #9FC158",
";+	c #A2C062",
">+	c #BDD889",
",+	c #C7E193",
"'+	c #D2EE9F",
")+	c #D3F29F",
"!+	c #D0F49A",
"~+	c #BDDA8D",
"{+	c #8EA863",
"]+	c #D2F2A0",
"^+	c #D6F8A2",
"/+	c #D8F7A6",
"(+	c #D9F7A7",
"_+	c #D8F7A9",
":+	c #D8F9A6",
"<+	c #BFE482",
"[+	c #B1D96F",
"}+	c #B5D978",
"|+	c #BBDD7E",
"1+	c #B9DA7A",
"2+	c #BADB7C",
"3+	c #C2E588",
"4+	c #D0F396",
"5+	c #D2F69A",
"6+	c #D4F79D",
"7+	c #D3F79A",
"8+	c #D0F998",
"9+	c #CBF68E",
"0+	c #C9F38C",
"a+	c #CBF28F",
"b+	c #CEF296",
"c+	c #D0F198",
"d+	c #CEEF95",
"e+	c #AACD78",
"f+	c #7EA14B",
"g+	c #8AAC54",
"h+	c #9EBF62",
"i+	c #BCDD7F",
"j+	c #C5E48B",
"k+	c #D1EB95",
"l+	c #DCF098",
"m+	c #D4EC96",
"n+	c #CEEC93",
"o+	c #A8BF7F",
"p+	c #242720",
"q+	c #5B7A41",
"r+	c #76A751",
"s+	c #A8D37E",
"t+	c #BDE984",
"u+	c #C1EA83",
"v+	c #C6EE8F",
"w+	c #A8D082",
"x+	c #5B6D5C",
"y+	c #556E54",
"z+	c #99B87D",
"A+	c #C1E294",
"B+	c #C9EC93",
"C+	c #CBF08F",
"D+	c #C3E881",
"E+	c #B8DE76",
"F+	c #AED56D",
"G+	c #A4CC63",
"H+	c #9DC35C",
"I+	c #9ABF5A",
"J+	c #9ABF5C",
"K+	c #C6E791",
"L+	c #D4F59E",
"M+	c #D3F699",
"N+	c #D2F699",
"O+	c #D3F69C",
"P+	c #D6F8A1",
"Q+	c #D7F7A4",
"R+	c #D8F8A4",
"S+	c #D5F7A1",
"T+	c #D3F79B",
"U+	c #BFE381",
"V+	c #B4D974",
"W+	c #B4D975",
"X+	c #B6D875",
"Y+	c #B4D574",
"Z+	c #B2D273",
"`+	c #B1D273",
" @	c #B7DB7C",
".@	c #C9ED8E",
"+@	c #D0F495",
"@@	c #D3F697",
"#@	c #D1F697",
"$@	c #D0F694",
"%@	c #CEF491",
"&@	c #C9EE8F",
"*@	c #C3E78D",
"=@	c #C8EB92",
"-@	c #CBED94",
";@	c #B5D87E",
">@	c #9FC268",
",@	c #98BB60",
"'@	c #95B85D",
")@	c #B5D67B",
"!@	c #C2E287",
"~@	c #C7E48D",
"{@	c #D4EA96",
"]@	c #DCEF9D",
"^@	c #D6ED97",
"/@	c #C9E091",
"(@	c #586841",
"_@	c #688947",
":@	c #96C26C",
"<@	c #C3EE8F",
"[@	c #BEE988",
"}@	c #BCE583",
"|@	c #C2E68D",
"1@	c #AACC83",
"2@	c #708764",
"3@	c #1E222D",
"4@	c #445247",
"5@	c #98B580",
"6@	c #BEDF8E",
"7@	c #CBED8F",
"8@	c #C2E782",
"9@	c #B8DF76",
"0@	c #B0D86F",
"a@	c #AAD36A",
"b@	c #A1CA62",
"c@	c #9DC65F",
"d@	c #9AC15E",
"e@	c #C2E28E",
"f@	c #D6F7A1",
"g@	c #D5F89B",
"h@	c #D5F89C",
"i@	c #D5F89E",
"j@	c #D6F7A2",
"k@	c #CBEB97",
"l@	c #C4E68A",
"m@	c #BFE282",
"n@	c #B0D570",
"o@	c #B3D773",
"p@	c #B3D775",
"q@	c #B1D371",
"r@	c #AFD070",
"s@	c #ADCD6F",
"t@	c #ABCD6E",
"u@	c #A7CB6B",
"v@	c #A9CD6D",
"w@	c #B0D574",
"x@	c #B9DE7D",
"y@	c #BEE583",
"z@	c #C3EA89",
"A@	c #C4EA8A",
"B@	c #BEE486",
"C@	c #A1C76D",
"D@	c #96BC64",
"E@	c #97C066",
"F@	c #ADD378",
"G@	c #A1C56A",
"H@	c #99BC5F",
"I@	c #96B85B",
"J@	c #97B85D",
"K@	c #A6C76D",
"L@	c #B8DB80",
"M@	c #B0D27A",
"N@	c #9CBE67",
"O@	c #B0CC79",
"P@	c #C1DC84",
"Q@	c #BDDB84",
"R@	c #8BAB64",
"S@	c #759A50",
"T@	c #ABD37B",
"U@	c #B7E17E",
"V@	c #ADD879",
"W@	c #A5CF78",
"X@	c #99BE79",
"Y@	c #81A26C",
"Z@	c #587251",
"`@	c #1E2825",
" #	c #29342D",
".#	c #4D6043",
"+#	c #869F64",
"@#	c #A0B66E",
"##	c #B2D176",
"$#	c #B2DA72",
"%#	c #AED86E",
"&#	c #AAD46B",
"*#	c #A7D067",
"=#	c #9FC663",
"-#	c #9AC063",
";#	c #B9DB88",
">#	c #D7F9A4",
",#	c #D6F9A0",
"'#	c #D6F99F",
")#	c #D7F9A0",
"!#	c #D7F7A1",
"~#	c #D6F6A0",
"{#	c #D7F7A5",
"]#	c #AFCF7B",
"^#	c #9CBE5E",
"/#	c #A6C866",
"(#	c #A5C765",
"_#	c #A7CA68",
":#	c #ACCD6D",
"<#	c #ABCC6D",
"[#	c #A9CB6C",
"}#	c #AACB6E",
"|#	c #A8CC6E",
"1#	c #A7CC6F",
"2#	c #A7CC70",
"3#	c #A4CA6F",
"4#	c #9EC369",
"5#	c #9AC667",
"6#	c #A2C76B",
"7#	c #A9D275",
"8#	c #9DC66A",
"9#	c #94BE64",
"0#	c #91BD64",
"a#	c #95BC63",
"b#	c #91B55B",
"c#	c #94B75B",
"d#	c #95B75C",
"e#	c #96B75D",
"f#	c #96B75F",
"g#	c #95B85F",
"h#	c #97B963",
"i#	c #97BA63",
"j#	c #97BA65",
"k#	c #9CBF6A",
"l#	c #9EC36C",
"m#	c #8CB062",
"n#	c #8FB664",
"o#	c #A6D170",
"p#	c #A3CF6C",
"q#	c #9BC769",
"r#	c #98BF6D",
"s#	c #80996A",
"t#	c #65735A",
"u#	c #3B4135",
"v#	c #9CC282",
"w#	c #83A46A",
"x#	c #6F8757",
"y#	c #4B5A31",
"z#	c #758149",
"A#	c #93A958",
"B#	c #A5CB6A",
"C#	c #AAD46C",
"D#	c #A9D26C",
"E#	c #A2C96B",
"F#	c #99BF65",
"G#	c #B2D481",
"H#	c #D8FAA6",
"I#	c #D8F9A5",
"J#	c #D7F9A5",
"K#	c #D8F7A2",
"L#	c #D6F6A4",
"M#	c #BCDC87",
"N#	c #9FC161",
"O#	c #A4C767",
"P#	c #A2C566",
"Q#	c #9ABE5F",
"R#	c #9BBF62",
"S#	c #A4C669",
"T#	c #A9CA6D",
"U#	c #ABCC6F",
"V#	c #ACCF73",
"W#	c #ADD075",
"X#	c #ABD175",
"Y#	c #A0C76D",
"Z#	c #9AC167",
"`#	c #9DC469",
" $	c #C3E187",
".$	c #CAEB8F",
"+$	c #C3E689",
"@$	c #B1D67A",
"#$	c #A0CA73",
"$$	c #91B75F",
"%$	c #8DB058",
"&$	c #92B55C",
"*$	c #94B55E",
"=$	c #95B55E",
"-$	c #94B45F",
";$	c #92B55E",
">$	c #93B65F",
",$	c #95B864",
"'$	c #96B965",
")$	c #9ABE67",
"!$	c #9FC469",
"~$	c #96BA66",
"{$	c #A7CF73",
"]$	c #A6D16E",
"^$	c #A6D068",
"/$	c #9FC96E",
"($	c #8EAF6C",
"_$	c #768468",
":$	c #595E50",
"<$	c #252420",
"[$	c #CCF2A1",
"}$	c #CFF59E",
"|$	c #CCF49B",
"1$	c #BEE78E",
"2$	c #A1C871",
"3$	c #829F4F",
"4$	c #8CAA57",
"5$	c #9EC665",
"6$	c #ADD770",
"7$	c #B2DC75",
"8$	c #B3DD78",
"9$	c #A8D16F",
"0$	c #AFCF7E",
"a$	c #DDF8AA",
"b$	c #DCF8AD",
"c$	c #D5F0A7",
"d$	c #DAF7A9",
"e$	c #D9F7A4",
"f$	c #D0EFA1",
"g$	c #B5D880",
"h$	c #9ABE61",
"i$	c #9FC467",
"j$	c #9DC367",
"k$	c #97BC62",
"l$	c #95BA60",
"m$	c #9BC164",
"n$	c #A3C768",
"o$	c #A8CB6D",
"p$	c #B7D683",
"q$	c #BADC87",
"r$	c #ADD579",
"s$	c #97C064",
"t$	c #ABCC75",
"u$	c #E3F8A2",
"v$	c #E4F8A0",
"w$	c #E1F8A0",
"x$	c #D8F39B",
"y$	c #DBF5A3",
"z$	c #9EBE6C",
"A$	c #8AAE57",
"B$	c #90B35C",
"C$	c #91B45E",
"D$	c #91B35F",
"E$	c #90B25D",
"F$	c #8EB25C",
"G$	c #8FB561",
"H$	c #91B965",
"I$	c #95BA66",
"J$	c #9BC067",
"K$	c #A3C967",
"L$	c #A9D06F",
"M$	c #ABD471",
"N$	c #ACD671",
"O$	c #ADD672",
"P$	c #ABD277",
"Q$	c #96B86F",
"R$	c #738764",
"S$	c #2F3128",
"T$	c #20181C",
"U$	c #CAEEA3",
"V$	c #CEF2A0",
"W$	c #CFF59A",
"X$	c #CFF595",
"Y$	c #CCF393",
"Z$	c #AFD97B",
"`$	c #84A353",
" %	c #9FC567",
".%	c #B7E07A",
"+%	c #BAE77A",
"@%	c #BCE97C",
"#%	c #BDE77C",
"$%	c #A4CB72",
"%%	c #BCD995",
"&%	c #C2DEA0",
"*%	c #9DB97C",
"=%	c #C0DD99",
"-%	c #C4E49B",
";%	c #C5E59B",
">%	c #A2C375",
",%	c #98BD64",
"'%	c #93B95E",
")%	c #94BC61",
"!%	c #96BE62",
"~%	c #96BD63",
"{%	c #9ABF65",
"]%	c #9EC266",
"^%	c #A4C76C",
"/%	c #ABCE77",
"(%	c #C8E698",
"_%	c #C9E999",
":%	c #AFD67F",
"<%	c #99C369",
"[%	c #95BF65",
"}%	c #A4C770",
"|%	c #E2F7A2",
"1%	c #E5F7A0",
"2%	c #E3F9A2",
"3%	c #DBF59E",
"4%	c #E1F8A9",
"5%	c #B4D283",
"6%	c #8AAE59",
"7%	c #8FB25D",
"8%	c #8FB25E",
"9%	c #8FB15D",
"0%	c #8EB05C",
"a%	c #93B463",
"b%	c #BFDD93",
"c%	c #C5E094",
"d%	c #A6C776",
"e%	c #98BF65",
"f%	c #A7CD6B",
"g%	c #ACD371",
"h%	c #ABD470",
"i%	c #ADD772",
"j%	c #B0D875",
"k%	c #B3D97E",
"l%	c #AAD27D",
"m%	c #A9CD82",
"n%	c #789262",
"o%	c #373F2C",
"p%	c #B2D498",
"q%	c #B7DD93",
"r%	c #C5EA9D",
"s%	c #CAED9C",
"t%	c #C9EC97",
"u%	c #C3E98E",
"v%	c #9EC46B",
"w%	c #A9CF72",
"x%	c #B3DC78",
"y%	c #BAE67C",
"z%	c #BEE97F",
"A%	c #BEE881",
"B%	c #ACD479",
"C%	c #8CAF5E",
"D%	c #8CAF60",
"E%	c #8DB162",
"F%	c #8DB160",
"G%	c #8FB361",
"H%	c #90B462",
"I%	c #91B563",
"J%	c #96BB63",
"K%	c #90B95D",
"L%	c #93BC62",
"M%	c #94BC63",
"N%	c #95BC64",
"O%	c #97BD65",
"P%	c #98BD67",
"Q%	c #9BBF66",
"R%	c #9EC168",
"S%	c #A9CB77",
"T%	c #CFEEA2",
"U%	c #CEEDA0",
"V%	c #B3D984",
"W%	c #99C16B",
"X%	c #95BD67",
"Y%	c #95BA64",
"Z%	c #CBE490",
"`%	c #E0F5A3",
" &	c #DEF5A5",
".&	c #BDD687",
"+&	c #C2DE90",
"@&	c #A8C97A",
"#&	c #8AAE5B",
"$&	c #8EB25E",
"%&	c #8DB05C",
"&&	c #8BAF5B",
"*&	c #ACCA82",
"=&	c #DCF4AE",
"-&	c #D9EFA4",
";&	c #CCE99A",
">&	c #9CC06A",
",&	c #A3CA6C",
"'&	c #ACD373",
")&	c #AAD373",
"!&	c #ABD474",
"~&	c #B3DA7B",
"{&	c #BDE489",
"]&	c #BBE289",
"^&	c #B7E286",
"/&	c #B1DF84",
"(&	c #92BC7C",
"_&	c #99AF9C",
":&	c #ABCB9E",
"<&	c #ACD190",
"[&	c #B2D48E",
"}&	c #AFD189",
"|&	c #B0D47F",
"1&	c #A0C56F",
"2&	c #9CC169",
"3&	c #ACD374",
"4&	c #B8E17E",
"5&	c #BFE884",
"6&	c #5E3923",
"7&	c #5A361F",
"8&	c #5A351E",
"9&	c #91B562",
"0&	c #92B662",
"a&	c #92B761",
"b&	c #92B762",
"c&	c #94B966",
"d&	c #92B960",
"e&	c #8FB65D",
"f&	c #94BB63",
"g&	c #94BB64",
"h&	c #95BC65",
"i&	c #95BC66",
"j&	c #98BC67",
"k&	c #98BD65",
"l&	c #9ABE65",
"m&	c #A3C571",
"n&	c #CAE99D",
"o&	c #C7E79A",
"p&	c #A8CD79",
"q&	c #96BD67",
"r&	c #94BB65",
"s&	c #90B761",
"t&	c #94B662",
"u&	c #5E3B23",
"v&	c #59351D",
"w&	c #59351E",
"x&	c #5D3922",
"y&	c #88AD5C",
"z&	c #88AE5C",
"A&	c #8DB35F",
"B&	c #8DB25F",
"C&	c #8BAF5C",
"D&	c #88AD5A",
"E&	c #A8C97D",
"F&	c #D6F3A7",
"G&	c #D9F1A4",
"H&	c #D5F0A2",
"I&	c #A3C573",
"J&	c #9BC26B",
"K&	c #A2C96F",
"L&	c #A0C76E",
"M&	c #9AC269",
"N&	c #AAD179",
"O&	c #BCE38B",
"P&	c #B9E189",
"Q&	c #B7E188",
"R&	c #B7E288",
"S&	c #9DCD81",
"T&	c #262B31",
"U&	c #3C4844",
"V&	c #6B8461",
"W&	c #82A366",
"X&	c #8CB262",
"Y&	c #8BB258",
"Z&	c #8CB359",
"`&	c #93B862",
" *	c #9DC46A",
".*	c #9FC76A",
"+*	c #5D3721",
"@*	c #806F5F",
"#*	c #7A6855",
"$*	c #796653",
"%*	c #58341C",
"&*	c #542D15",
"**	c #542C15",
"=*	c #59331B",
"-*	c #8EB55F",
";*	c #532C15",
">*	c #532C14",
",*	c #AECF81",
"'*	c #5E3C25",
")*	c #786553",
"!*	c #796754",
"~*	c #7F6F5E",
"{*	c #58331C",
"]*	c #89B05E",
"^*	c #8EB562",
"/*	c #8CB05D",
"(*	c #8AB05D",
"_*	c #8FB562",
":*	c #B4D686",
"<*	c #C4DF91",
"[*	c #BAD889",
"}*	c #93B665",
"|*	c #96BC68",
"1*	c #94BB66",
"2*	c #91B864",
"3*	c #96BD6C",
"4*	c #B3DA89",
"5*	c #B6DE8B",
"6*	c #B7E08D",
"7*	c #A8D184",
"8*	c #77A464",
"9*	c #17161F",
"0*	c #303F2B",
"a*	c #668554",
"b*	c #759B51",
"c*	c #8AB35A",
"d*	c #8AB358",
"e*	c #8BB459",
"f*	c #91B85F",
"g*	c #91B960",
"h*	c #90B860",
"i*	c #66452F",
"j*	c #867867",
"k*	c #806F5C",
"l*	c #7F6E5C",
"m*	c #5C3820",
"n*	c #705436",
"o*	c #6F5133",
"p*	c #715335",
"q*	c #705334",
"r*	c #83694C",
"s*	c #6F5033",
"t*	c #705235",
"u*	c #6F5234",
"v*	c #765B3D",
"w*	c #5D3820",
"x*	c #7F6548",
"y*	c #6E5033",
"z*	c #62402B",
"A*	c #7E6D5C",
"B*	c #857767",
"C*	c #603C26",
"D*	c #8BB462",
"E*	c #8EB662",
"F*	c #8EB560",
"G*	c #90B461",
"H*	c #8EB561",
"I*	c #8EB75F",
"J*	c #8FB860",
"K*	c #90B862",
"L*	c #93B966",
"M*	c #91BA66",
"N*	c #8EB762",
"O*	c #86AE63",
"P*	c #81A860",
"Q*	c #84AB64",
"R*	c #85AB69",
"S*	c #799E63",
"T*	c #64885B",
"U*	c #181E25",
"V*	c #6E925D",
"W*	c #81AC60",
"X*	c #85AE5D",
"Y*	c #8CB75C",
"Z*	c #8EB85D",
"`*	c #91B961",
" =	c #91B862",
".=	c #90B961",
"+=	c #694A34",
"@=	c #94897B",
"#=	c #8A7C6B",
"$=	c #613C25",
"%=	c #7C6043",
"&=	c #82694C",
"*=	c #836A4D",
"==	c #877052",
"-=	c #67462C",
";=	c #8F785B",
">=	c #82694B",
",=	c #836A4C",
"'=	c #82684B",
")=	c #897357",
"!=	c #65442A",
"~=	c #877054",
"{=	c #81684B",
"]=	c #63422D",
"^=	c #897B6B",
"/=	c #93887B",
"(=	c #8FB661",
"_=	c #90B562",
":=	c #8CB562",
"<=	c #8DB663",
"[=	c #8DB562",
"}=	c #90B865",
"|=	c #8EB664",
"1=	c #8EB665",
"2=	c #89B363",
"3=	c #85AE62",
"4=	c #80A661",
"5=	c #75995B",
"6=	c #59734F",
"7=	c #172228",
"8=	c #729865",
"9=	c #85AF61",
"0=	c #86AF5E",
"a=	c #89B15C",
"b=	c #8CB35E",
"c=	c #8BB25D",
"d=	c #95BD68",
"e=	c #92BD6B",
"f=	c #6B4C38",
"g=	c #998F81",
"h=	c #938676",
"i=	c #623F2A",
"j=	c #806649",
"k=	c #856C4E",
"l=	c #856C4F",
"m=	c #8F785D",
"n=	c #6A492E",
"o=	c #937D62",
"p=	c #846B4D",
"q=	c #846C4E",
"r=	c #67472C",
"s=	c #8B7558",
"t=	c #846A4D",
"u=	c #836B4E",
"v=	c #65442E",
"w=	c #918576",
"x=	c #988E81",
"y=	c #64442F",
"z=	c #8AB161",
"A=	c #8CB363",
"B=	c #8CB461",
"C=	c #8BB362",
"D=	c #8BB262",
"E=	c #8CB263",
"F=	c #8AB061",
"G=	c #8AB063",
"H=	c #89B063",
"I=	c #89AE63",
"J=	c #88AE61",
"K=	c #8DB664",
"L=	c #8CB665",
"M=	c #8BB665",
"N=	c #88B263",
"O=	c #86B063",
"P=	c #85AF67",
"Q=	c #82AA69",
"R=	c #6F9060",
"S=	c #18232B",
"T=	c #6E9269",
"U=	c #789F5F",
"V=	c #8AB261",
"W=	c #81A855",
"X=	c #99C16E",
"Y=	c #95BF6F",
"Z=	c #6D4F3A",
"`=	c #9F9588",
" -	c #948778",
".-	c #643F2A",
"+-	c #8C7759",
"@-	c #8E795C",
"#-	c #988167",
"$-	c #75583C",
"%-	c #917B5F",
"&-	c #8C7659",
"*-	c #8D785C",
"=-	c #8D785B",
"--	c #907A5E",
";-	c #6A4B2F",
">-	c #8E775A",
",-	c #8B7658",
"'-	c #8D775B",
")-	c #65442F",
"!-	c #928677",
"~-	c #9E9488",
"{-	c #664731",
"]-	c #88B262",
"^-	c #92B96C",
"/-	c #BFDC99",
"(-	c #C8DF9E",
"_-	c #BAD390",
":-	c #82A45C",
"<-	c #86A95F",
"[-	c #B0D287",
"}-	c #B1D58B",
"|-	c #8CB46B",
"1-	c #79A55A",
"2-	c #88B162",
"3-	c #8BB566",
"4-	c #88B265",
"5-	c #85B064",
"6-	c #85B063",
"7-	c #84AD65",
"8-	c #81A966",
"9-	c #729562",
"0-	c #19232D",
"a-	c #60845E",
"b-	c #779D5C",
"c-	c #8CB468",
"d-	c #90BA62",
"e-	c #8AB45C",
"f-	c #85AF59",
"g-	c #8CB45F",
"h-	c #95BD6B",
"i-	c #92BB6B",
"j-	c #6B4C37",
"k-	c #A1978A",
"l-	c #9B9082",
"m-	c #9B9182",
"n-	c #633F2A",
"o-	c #988267",
"p-	c #968064",
"q-	c #8E785C",
"r-	c #927C61",
"s-	c #6A4B30",
"t-	c #8F795C",
"u-	c #978B7E",
"v-	c #988B7E",
"w-	c #9F968A",
"x-	c #674832",
"y-	c #83AE60",
"z-	c #83AF5F",
"A-	c #ADCF8C",
"B-	c #D9EFB6",
"C-	c #DEECB5",
"D-	c #DEEFB6",
"E-	c #91AC6D",
"F-	c #98B470",
"G-	c #D0EDA1",
"H-	c #CDEB99",
"I-	c #C0E291",
"J-	c #79A156",
"K-	c #8AB367",
"L-	c #87B265",
"M-	c #85B066",
"N-	c #82AD65",
"O-	c #81AB65",
"P-	c #7FA965",
"Q-	c #719564",
"R-	c #17212C",
"S-	c #648A5D",
"T-	c #93BD6F",
"U-	c #97C06A",
"V-	c #94BF61",
"W-	c #8DBA5C",
"X-	c #88B35A",
"Y-	c #87B05A",
"Z-	c #8BB361",
"`-	c #8DB566",
" ;	c #6C4C37",
".;	c #A2988C",
"+;	c #A1978B",
"@;	c #64412B",
"#;	c #846A4C",
"$;	c #958064",
"%;	c #9C876C",
"&;	c #75563A",
"*;	c #988367",
"=;	c #957F64",
"-;	c #947F64",
";;	c #958065",
">;	c #6B4D32",
",;	c #968164",
"';	c #947F63",
");	c #674731",
"!;	c #A0968A",
"~;	c #A09589",
"{;	c #81AC5E",
"];	c #80AB5B",
"^;	c #AAC986",
"/;	c #D9EBB5",
"(;	c #DEEAB9",
"_;	c #DBEDB6",
":;	c #93B06F",
"<;	c #8FAD6B",
"[;	c #CBEAA0",
"};	c #C9EA99",
"|;	c #BADD8E",
"1;	c #82AB60",
"2;	c #86B164",
"3;	c #84AE64",
"4;	c #82AB65",
"5;	c #7FA966",
"6;	c #7EA866",
"7;	c #7CA765",
"8;	c #6D9263",
"9;	c #171F2C",
"0;	c #6E9562",
"a;	c #97C370",
"b;	c #93BC67",
"c;	c #91BA63",
"d;	c #8BB75E",
"e;	c #88B15B",
"f;	c #86AE5B",
"g;	c #88B05E",
"h;	c #89B162",
"i;	c #A3998D",
"j;	c #A09789",
"k;	c #A09689",
"l;	c #633F29",
"m;	c #958166",
"n;	c #978165",
"o;	c #968165",
"p;	c #9A866A",
"q;	c #958165",
"r;	c #968267",
"s;	c #6C4C31",
"t;	c #978267",
"u;	c #948065",
"v;	c #948064",
"w;	c #664631",
"x;	c #9F9488",
"y;	c #6A4B36",
"z;	c #7FA95B",
"A;	c #7FAA5A",
"B;	c #83A95F",
"C;	c #A2BD81",
"D;	c #C3DAA5",
"E;	c #A7C186",
"F;	c #84A761",
"G;	c #81A660",
"H;	c #8BAE6A",
"I;	c #90B56F",
"J;	c #83AA60",
"K;	c #83AC61",
"L;	c #85AF63",
"M;	c #84AD62",
"N;	c #82AA63",
"O;	c #79A060",
"P;	c #779E63",
"Q;	c #779F65",
"R;	c #769E64",
"S;	c #668A5D",
"T;	c #171F2B",
"U;	c #61875E",
"V;	c #7BA661",
"W;	c #7FA85D",
"X;	c #84AC5C",
"Y;	c #85AD5D",
"Z;	c #88AE5E",
"`;	c #86AD5D",
" >	c #A2998C",
".>	c #633E27",
"+>	c #967F63",
"@>	c #978065",
"#>	c #998468",
"$>	c #735439",
"%>	c #988468",
"&>	c #957F63",
"*>	c #694A2F",
"=>	c #947E62",
"->	c #9E9487",
";>	c #694934",
">>	c #80AA5C",
",>	c #83AD5D",
"'>	c #83AD5E",
")>	c #84AB61",
"!>	c #83AB5F",
"~>	c #81A85E",
"{>	c #7DA45E",
"]>	c #789F5A",
"^>	c #799F59",
"/>	c #7FA65C",
"(>	c #84AC61",
"_>	c #84AC63",
":>	c #84AA62",
"<>	c #799E61",
"[>	c #6E8F63",
"}>	c #6F8D65",
"|>	c #6C8C62",
"1>	c #698A5F",
"2>	c #5B775A",
"3>	c #181F2C",
"4>	c #517656",
"5>	c #658F57",
"6>	c #7AA25E",
"7>	c #7FA759",
"8>	c #83AB5C",
"9>	c #87AD5F",
"0>	c #88AE60",
"a>	c #88AE5F",
"b>	c #87AE5F",
"c>	c #66442D",
"d>	c #A1988B",
"e>	c #988D7E",
"f>	c #603A23",
"g>	c #917A5C",
"h>	c #917A5D",
"i>	c #907A5C",
"j>	c #735438",
"k>	c #90795B",
"l>	c #91795D",
"m>	c #90795D",
"n>	c #8E785B",
"o>	c #978367",
"p>	c #69492E",
"q>	c #978266",
"r>	c #8F795B",
"s>	c #978C7D",
"t>	c #7FAA5B",
"u>	c #83AD5C",
"v>	c #84AC5E",
"w>	c #84AC5F",
"x>	c #83AB5E",
"y>	c #81A95C",
"z>	c #7FA65B",
"A>	c #7DA55B",
"B>	c #7DA559",
"C>	c #7FA75C",
"D>	c #82AA62",
"E>	c #82A961",
"F>	c #789A62",
"G>	c #6C8B63",
"H>	c #688260",
"I>	c #627C5A",
"J>	c #5E7756",
"K>	c #4C5C4B",
"L>	c #171F32",
"M>	c #4A6658",
"N>	c #547856",
"O>	c #658C53",
"P>	c #779F59",
"Q>	c #85AC61",
"R>	c #88AF60",
"S>	c #88B061",
"T>	c #87AE61",
"U>	c #86AF60",
"V>	c #64412A",
"W>	c #978C7C",
"X>	c #5F3921",
"Y>	c #7E6346",
"Z>	c #90795C",
"`>	c #68482D",
" ,	c #968B7B",
".,	c #80A95B",
"+,	c #84AC5D",
"@,	c #83AD5B",
"#,	c #81AD5B",
"$,	c #81AB5E",
"%,	c #82A95F",
"&,	c #82A95E",
"*,	c #80A75C",
"=,	c #7FA65D",
"-,	c #7EA55D",
";,	c #80A55E",
">,	c #81A761",
",,	c #81A963",
"',	c #80A962",
"),	c #7DA460",
"!,	c #779E5E",
"~,	c #72985A",
"{,	c #678653",
"],	c #202A39",
"^,	c #3B4F47",
"/,	c #4A6A4E",
"(,	c #698F58",
"_,	c #79A25D",
":,	c #7AA25A",
"<,	c #87AF62",
"[,	c #87AF61",
"},	c #86AF61",
"|,	c #623E28",
"1,	c #9C9384",
"2,	c #8F8270",
"3,	c #5B361E",
"4,	c #7D6245",
"5,	c #917B5E",
"6,	c #957F62",
"7,	c #6D4D31",
"8,	c #968065",
"9,	c #8F785C",
"0,	c #66462A",
"a,	c #907A5D",
"b,	c #64412C",
"c,	c #8D816F",
"d,	c #9A9183",
"e,	c #7EA75C",
"f,	c #80A75D",
"g,	c #7EA75D",
"h,	c #7EA95E",
"i,	c #80AA5E",
"j,	c #82A960",
"k,	c #81A85F",
"l,	c #80A65F",
"m,	c #7FA65F",
"n,	c #80A660",
"o,	c #80A862",
"p,	c #7FA861",
"q,	c #7EA762",
"r,	c #7DA661",
"s,	c #7AA35F",
"t,	c #79A25F",
"u,	c #729C58",
"v,	c #678C4F",
"w,	c #364A43",
"x,	c #5F8359",
"y,	c #699159",
"z,	c #7AA361",
"A,	c #79A35A",
"B,	c #7DA55C",
"C,	c #85AD63",
"D,	c #85AE61",
"E,	c #623D27",
"F,	c #8E8270",
"G,	c #59331C",
"H,	c #785A3E",
"I,	c #846B4E",
"J,	c #8A7254",
"K,	c #8C7357",
"L,	c #846A4E",
"M,	c #836A4E",
"N,	c #836B4F",
"O,	c #8D755A",
"P,	c #623F24",
"Q,	c #8C7458",
"R,	c #83694D",
"S,	c #64432D",
"T,	c #8D806F",
"U,	c #674732",
"V,	c #7CA15F",
"W,	c #7EA45F",
"X,	c #7AA45D",
"Y,	c #7BA65E",
"Z,	c #81AA5F",
"`,	c #81AA60",
" '	c #81A861",
".'	c #7FA760",
"+'	c #7DA660",
"@'	c #7EA761",
"#'	c #7DA860",
"$'	c #7DA761",
"%'	c #7CA561",
"&'	c #7BA461",
"*'	c #78A15F",
"='	c #6F9658",
"-'	c #638051",
";'	c #2E4438",
">'	c #719D66",
",'	c #739F5C",
"''	c #78A35E",
")'	c #78A35C",
"!'	c #81AB60",
"~'	c #613C26",
"{'	c #968B7C",
"]'	c #887A69",
"^'	c #887B69",
"/'	c #562E15",
"('	c #76583D",
"_'	c #886F52",
":'	c #623C23",
"<'	c #897256",
"['	c #8B7459",
"}'	c #5C361C",
"|'	c #897054",
"1'	c #82694D",
"2'	c #613D29",
"3'	c #867968",
"4'	c #867868",
"5'	c #63402B",
"6'	c #789D5A",
"7'	c #85B062",
"8'	c #87B862",
"9'	c #7EAA5D",
"0'	c #7CA45D",
"a'	c #80A761",
"b'	c #80AA63",
"c'	c #7EAA63",
"d'	c #7CA860",
"e'	c #7AA45F",
"f'	c #7BA460",
"g'	c #7CA662",
"h'	c #78A35F",
"i'	c #77A15E",
"j'	c #77A05E",
"k'	c #79A15F",
"l'	c #78A060",
"m'	c #6F955B",
"n'	c #638059",
"o'	c #273C35",
"p'	c #6F9A68",
"q'	c #729D5D",
"r'	c #77A25E",
"s'	c #78A25C",
"t'	c #79A261",
"u'	c #79A162",
"v'	c #7AA360",
"w'	c #5F3923",
"x'	c #918374",
"y'	c #887A68",
"z'	c #81674B",
"A'	c #866D50",
"B'	c #5D381E",
"C'	c #876F53",
"D'	c #7B6043",
"E'	c #7A5F43",
"F'	c #7A5E42",
"G'	c #7A5E43",
"H'	c #795D43",
"I'	c #897156",
"J'	c #58331A",
"K'	c #897155",
"L'	c #81684C",
"M'	c #603C28",
"N'	c #8F8273",
"O'	c #603E29",
"P'	c #7AA05A",
"Q'	c #8AB962",
"R'	c #95C866",
"S'	c #91BE6A",
"T'	c #7B9F60",
"U'	c #7BA662",
"V'	c #79A761",
"W'	c #7BA961",
"X'	c #7AA861",
"Y'	c #79A661",
"Z'	c #7BA764",
"`'	c #76A15E",
" )	c #739D5D",
".)	c #759E5D",
"+)	c #779F5D",
"@)	c #79A063",
"#)	c #769C65",
"$)	c #6C8D6A",
"%)	c #243834",
"&)	c #6B9665",
"*)	c #77A263",
"=)	c #79A361",
"-)	c #759F5F",
";)	c #79A062",
">)	c #78A061",
",)	c #78A063",
"')	c #78A062",
"))	c #759C5E",
"!)	c #5B351E",
"~)	c #552E15",
"{)	c #75583D",
"])	c #775A3E",
"^)	c #76573D",
"/)	c #77583D",
"()	c #76593D",
"_)	c #806648",
":)	c #705136",
"<)	c #5E3A25",
"[)	c #5D3923",
"})	c #5D3A24",
"|)	c #5A3721",
"1)	c #5B3822",
"2)	c #7B5F45",
"3)	c #563218",
"4)	c #76593C",
"5)	c #75583E",
"6)	c #725439",
"7)	c #715339",
"8)	c #715338",
"9)	c #6F5036",
"0)	c #5D3822",
"a)	c #5B3720",
"b)	c #7BA15C",
"c)	c #84AF61",
"d)	c #99C570",
"e)	c #92BD70",
"f)	c #719858",
"g)	c #74995E",
"h)	c #7AA665",
"i)	c #78A463",
"j)	c #7AA561",
"k)	c #7CA863",
"l)	c #7BA864",
"m)	c #79A664",
"n)	c #74A160",
"o)	c #739D5F",
"p)	c #719A60",
"q)	c #6F9661",
"r)	c #7A9F67",
"s)	c #7CA16A",
"t)	c #698B60",
"u)	c #628164",
"v)	c #213632",
"w)	c #689362",
"x)	c #76A264",
"y)	c #77A064",
"z)	c #638B56",
"A)	c #6F955F",
"B)	c #779F62",
"C)	c #779E61",
"D)	c #729B5E",
"E)	c #5A341D",
"F)	c #978B7C",
"G)	c #958A7A",
"H)	c #552D15",
"I)	c #8F816F",
"J)	c #8F816E",
"K)	c #58331B",
"L)	c #542E15",
"M)	c #532B14",
"N)	c #563019",
"O)	c #948979",
"P)	c #968A7B",
"Q)	c #5F3C25",
"R)	c #7AA05C",
"S)	c #7AA45C",
"T)	c #81AA62",
"U)	c #7BA35F",
"V)	c #719A5A",
"W)	c #71995C",
"X)	c #79A464",
"Y)	c #759F63",
"Z)	c #729C60",
"`)	c #78A464",
" !	c #739F60",
".!	c #749E60",
"+!	c #729B66",
"@!	c #4E6F4F",
"#!	c #709168",
"$!	c #7EA36F",
"%!	c #60825F",
"&!	c #4B6452",
"*!	c #203532",
"=!	c #639268",
"-!	c #6E9960",
";!	c #5C8157",
">!	c #62855A",
",!	c #749A5F",
"'!	c #769E60",
")!	c #739C5D",
"!!	c #719C5D",
"~!	c #5F3A24",
"{!	c #897D6B",
"]!	c #7E6F5D",
"^!	c #7D6E5D",
"/!	c #62422A",
"(!	c #613F29",
"_!	c #603F29",
":!	c #7B6D5C",
"<!	c #7A6957",
"[!	c #5F3D24",
"}!	c #6B4F31",
"|!	c #62442D",
"1!	c #63442D",
"2!	c #62452D",
"3!	c #542E16",
"4!	c #7C6C5C",
"5!	c #7D6E5C",
"6!	c #887C6A",
"7!	c #5D3A23",
"8!	c #75A05C",
"9!	c #76A05D",
"0!	c #75A05E",
"a!	c #749F5E",
"b!	c #729C5E",
"c!	c #74A061",
"d!	c #709B5F",
"e!	c #6F9A5F",
"f!	c #719D62",
"g!	c #719D63",
"h!	c #6F9B61",
"i!	c #719B61",
"j!	c #749E61",
"k!	c #75A06C",
"l!	c #3B5C4A",
"m!	c #496450",
"n!	c #779A71",
"o!	c #678D66",
"p!	c #4F6F5A",
"q!	c #1F3435",
"r!	c #5E8D69",
"s!	c #64925E",
"t!	c #659060",
"u!	c #59825B",
"v!	c #60885A",
"w!	c #689159",
"x!	c #6F9A5C",
"y!	c #709B5B",
"z!	c #719D5C",
"A!	c #5F3B25",
"B!	c #867A68",
"C!	c #7C6D5B",
"D!	c #7C6C5B",
"E!	c #64462C",
"F!	c #725637",
"G!	c #715637",
"H!	c #735638",
"I!	c #715638",
"J!	c #765B3C",
"K!	c #6A4E30",
"L!	c #726351",
"M!	c #81715F",
"N!	c #6F604E",
"O!	c #522B14",
"P!	c #522C14",
"Q!	c #755A3B",
"R!	c #6E5235",
"S!	c #7B6A5A",
"T!	c #7B6B5A",
"U!	c #857867",
"V!	c #5C3721",
"W!	c #749F5D",
"X!	c #749E5D",
"Y!	c #739D5E",
"Z!	c #719D5E",
"`!	c #6F9C5F",
" ~	c #6F9B5F",
".~	c #6E9A5F",
"+~	c #6F9B62",
"@~	c #6D9A62",
"#~	c #6B995D",
"$~	c #6F9C67",
"%~	c #385747",
"&~	c #354F45",
"*~	c #6A8C6B",
"=~	c #6B926B",
"-~	c #557762",
";~	c #21373A",
">~	c #598969",
",~	c #5F905F",
"'~	c #5C8C5F",
")~	c #56855D",
"!~	c #5B865A",
"~~	c #62885A",
"{~	c #6A945D",
"]~	c #6E9A5C",
"^~	c #6F9E5C",
"/~	c #603D27",
"(~	c #827363",
"_~	c #766653",
":~	c #63452B",
"<~	c #6D5033",
"[~	c #6D5132",
"}~	c #755B3B",
"|~	c #70604F",
"1~	c #6F604F",
"2~	c #74593A",
"3~	c #746552",
"4~	c #746452",
"5~	c #807262",
"6~	c #59341F",
"7~	c #709B5C",
"8~	c #719D5D",
"9~	c #719C5E",
"0~	c #6E9B60",
"a~	c #6D9A60",
"b~	c #6D9A61",
"c~	c #6E9B62",
"d~	c #6B9B61",
"e~	c #67975E",
"f~	c #689562",
"g~	c #3C5C4C",
"h~	c #304C47",
"i~	c #597C63",
"j~	c #66916B",
"k~	c #547863",
"l~	c #1F393B",
"m~	c #508566",
"n~	c #54875F",
"o~	c #517B60",
"p~	c #39594A",
"q~	c #30453D",
"r~	c #384E3F",
"s~	c #5C8158",
"t~	c #67945C",
"u~	c #6C9C5D",
"v~	c #5D3823",
"w~	c #71624F",
"x~	c #62432A",
"y~	c #6C5033",
"z~	c #6C5031",
"A~	c #6C4F31",
"B~	c #6A4D30",
"C~	c #695443",
"D~	c #68523F",
"E~	c #7B6A56",
"F~	c #695543",
"G~	c #72583A",
"H~	c #716250",
"I~	c #70614E",
"J~	c #7A6C5B",
"K~	c #542E19",
"L~	c #6B975C",
"M~	c #709D5E",
"N~	c #709D5D",
"O~	c #709D5F",
"P~	c #6F9C5E",
"Q~	c #6C995E",
"R~	c #6B985F",
"S~	c #6A9860",
"T~	c #6B9962",
"U~	c #6C9A65",
"V~	c #6A9963",
"W~	c #679660",
"X~	c #618E62",
"Y~	c #3A5F50",
"Z~	c #2F4E4C",
"`~	c #496E5B",
" {	c #64916E",
".{	c #557A66",
"+{	c #1C3939",
"@{	c #427B62",
"#{	c #3E7059",
"${	c #294546",
"%{	c #1A253D",
"&{	c #466054",
"*{	c #88AE7D",
"={	c #89B578",
"-{	c #6D9C5E",
";{	c #66955D",
">{	c #57321A",
",{	c #766754",
"'{	c #70614D",
"){	c #502A13",
"!{	c #614228",
"~{	c #694D30",
"{{	c #624127",
"]{	c #6A4E31",
"^{	c #725839",
"/{	c #6B4F32",
"({	c #4F2913",
"_{	c #6F604D",
":{	c #756654",
"<{	c #522B17",
"[{	c #6C975F",
"}{	c #709C60",
"|{	c #699660",
"1{	c #66925E",
"2{	c #648F5F",
"3{	c #669063",
"4{	c #669565",
"5{	c #659465",
"6{	c #527E5E",
"7{	c #375F54",
"8{	c #305452",
"9{	c #3E6458",
"0{	c #5B866B",
"a{	c #476B5B",
"b{	c #1E3A3B",
"c{	c #3C7364",
"d{	c #315250",
"e{	c #212C40",
"f{	c #456261",
"g{	c #709C79",
"h{	c #91C57F",
"i{	c #94C77B",
"j{	c #86B96E",
"k{	c #5D8D5C",
"l{	c #512A14",
"m{	c #73624D",
"n{	c #6C5943",
"o{	c #6D5944",
"p{	c #4E2912",
"q{	c #603E24",
"r{	c #684B2F",
"s{	c #614127",
"t{	c #694C30",
"u{	c #674B2F",
"v{	c #4D2812",
"w{	c #6C5844",
"x{	c #6B5843",
"y{	c #72614D",
"z{	c #502914",
"A{	c #68905C",
"B{	c #719C5F",
"C{	c #6C995F",
"D{	c #6A9660",
"E{	c #6A955F",
"F{	c #68935E",
"G{	c #65905F",
"H{	c #648F60",
"I{	c #618B5F",
"J{	c #59815C",
"K{	c #577E5F",
"L{	c #598261",
"M{	c #567D62",
"N{	c #22433E",
"O{	c #315C5A",
"P{	c #315C5C",
"Q{	c #345E58",
"R{	c #3F6A60",
"S{	c #406258",
"T{	c #192935",
"U{	c #253F46",
"V{	c #172038",
"W{	c #334D4C",
"X{	c #629474",
"Y{	c #72AA7D",
"Z{	c #82B67C",
"`{	c #8CBF7B",
" ]	c #85B875",
".]	c #5B8562",
"+]	c #4F2813",
"@]	c #75624E",
"#]	c #6C5843",
"$]	c #6C5742",
"%]	c #603D24",
"&]	c #664A2E",
"*]	c #4E2913",
"=]	c #6B5742",
"-]	c #74624E",
";]	c #4E2713",
">]	c #628D5D",
",]	c #69955F",
"']	c #69945E",
")]	c #689360",
"!]	c #689161",
"~]	c #669061",
"{]	c #658E60",
"]]	c #628D61",
"^]	c #5E8A60",
"/]	c #59855E",
"(]	c #537F5F",
"_]	c #517D61",
":]	c #51805E",
"<]	c #4A7661",
"[]	c #25454C",
"}]	c #325D5F",
"|]	c #305F5C",
"1]	c #2F5F58",
"2]	c #346459",
"3]	c #426A5F",
"4]	c #10121E",
"5]	c #111323",
"6]	c #1D2E37",
"7]	c #517E71",
"8]	c #5E9376",
"9]	c #629C75",
"0]	c #6C9F79",
"a]	c #6A9F6D",
"b]	c #7EB374",
"c]	c #49735A",
"d]	c #4E2813",
"e]	c #684C30",
"f]	c #725739",
"g]	c #674A2E",
"h]	c #618B5E",
"i]	c #669062",
"j]	c #668F61",
"k]	c #688F64",
"l]	c #668D63",
"m]	c #648E63",
"n]	c #628D62",
"o]	c #5F8964",
"p]	c #5E8865",
"q]	c #588262",
"r]	c #517D62",
"s]	c #4D7B5F",
"t]	c #4B7D5D",
"u]	c #417260",
"v]	c #21474A",
"w]	c #305F5D",
"x]	c #31615B",
"y]	c #2E615B",
"z]	c #30625A",
"A]	c #38695F",
"B]	c #101120",
"C]	c #131E28",
"D]	c #3E625D",
"E]	c #4D7F6F",
"F]	c #4F846E",
"G]	c #4F876D",
"H]	c #4F8069",
"I]	c #4F8264",
"J]	c #76A679",
"K]	c #2F4B42",
"L]	c #4E2712",
"M]	c #5A3722",
"N]	c #57331E",
"O]	c #56321D",
"P]	c #5F3C23",
"Q]	c #5F3C24",
"R]	c #56321C",
"S]	c #57331D",
"T]	c #5E8861",
"U]	c #618B63",
"V]	c #638C65",
"W]	c #648B67",
"X]	c #628A64",
"Y]	c #5E8A67",
"Z]	c #405D49",
"`]	c #33473D",
" ^	c #364B41",
".^	c #3C5349",
"+^	c #3E5D50",
"@^	c #436C5C",
"#^	c #477861",
"$^	c #3E695F",
"%^	c #1C4146",
"&^	c #2D5C5A",
"*^	c #305E59",
"=^	c #34605D",
"-^	c #2E5A58",
";^	c #254B4C",
">^	c #0F1124",
",^	c #243D40",
"'^	c #3E6C62",
")^	c #417667",
"!^	c #427869",
"~^	c #417468",
"{^	c #417166",
"]^	c #457767",
"^^	c #517764",
"/^	c #122131",
"(^	c #847866",
"_^	c #827564",
":^	c #847765",
"<^	c #4F2A13",
"[^	c #4E2812",
"}^	c #847665",
"|^	c #827463",
"1^	c #827563",
"2^	c #847865",
"3^	c #4E2613",
"4^	c #547A62",
"5^	c #5A8266",
"6^	c #5C8665",
"7^	c #5D8764",
"8^	c #5C8763",
"9^	c #578366",
"0^	c #213536",
"a^	c #303F3B",
"b^	c #404F48",
"c^	c #2D3C35",
"d^	c #151F1E",
"e^	c #11121B",
"f^	c #1B292F",
"g^	c #1A3138",
"h^	c #1E434C",
"i^	c #265555",
"j^	c #265551",
"k^	c #264D4F",
"l^	c #15343F",
"m^	c #0E283B",
"n^	c #0C1123",
"o^	c #2B4D4D",
"p^	c #36665E",
"q^	c #376C63",
"r^	c #3A6E65",
"s^	c #396A65",
"t^	c #376966",
"u^	c #356765",
"v^	c #1C3640",
"w^	c #101B2E",
"x^	c #766753",
"y^	c #7A6B57",
"z^	c #7C6E5A",
"A^	c #7E6F5C",
"B^	c #80715F",
"C^	c #817461",
"D^	c #857866",
"E^	c #897C6B",
"F^	c #897C6C",
"G^	c #8A7D6C",
"H^	c #8A7D6D",
"I^	c #887B6A",
"J^	c #867A69",
"K^	c #857968",
"L^	c #837765",
"M^	c #7E705E",
"N^	c #7C6E5C",
"O^	c #7A6C5A",
"P^	c #6F5F4D",
"Q^	c #293B46",
"R^	c #273A44",
"S^	c #30494A",
"T^	c #36544D",
"U^	c #3D5C55",
"V^	c #324F48",
"W^	c #324433",
"X^	c #BDDC9D",
"Y^	c #C9E9A4",
"Z^	c #C5E7A2",
"`^	c #B1DA9A",
" /	c #50644D",
"./	c #131523",
"+/	c #121B30",
"@/	c #1E3C4B",
"#/	c #285358",
"$/	c #235254",
"%/	c #1C404B",
"&/	c #0E2139",
"*/	c #0F2038",
"=/	c #091222",
"-/	c #2B5251",
";/	c #2F625D",
">/	c #326663",
",/	c #346865",
"'/	c #326664",
")/	c #316665",
"!/	c #336064",
"~/	c #1D2F40",
"{/	c #1F3438",
"]/	c #4F2713",
"^/	c #634D39",
"//	c #634C38",
"(/	c #76644F",
"_/	c #67523E",
":/	c #65503B",
"</	c #66513D",
"[/	c #67523D",
"}/	c #685340",
"|/	c #695441",
"1/	c #695442",
"2/	c #6A5543",
"3/	c #695644",
"4/	c #685442",
"5/	c #685341",
"6/	c #675341",
"7/	c #4F2B15",
"8/	c #76634F",
"9/	c #634C37",
"0/	c #634D38",
"a/	c #29383E",
"b/	c #2D4142",
"c/	c #1C2C36",
"d/	c #172531",
"e/	c #16202E",
"f/	c #151727",
"g/	c #394C33",
"h/	c #CBEF9F",
"i/	c #D4F79F",
"j/	c #D1F79F",
"k/	c #CBF69E",
"l/	c #BAE097",
"m/	c #6D8665",
"n/	c #14212F",
"o/	c #0F1929",
"p/	c #182E3B",
"q/	c #163041",
"r/	c #102236",
"s/	c #0B1D2D",
"t/	c #0A1927",
"u/	c #0B1124",
"v/	c #2A5455",
"w/	c #2C635D",
"x/	c #2D6161",
"y/	c #306364",
"z/	c #336565",
"A/	c #336564",
"B/	c #326064",
"C/	c #1A2F3F",
"D/	c #294747",
"E/	c #405E53",
"F/	c #6CA273",
"G/	c #76AF7B",
"H/	c #70A775",
"I/	c #5D8A62",
"J/	c #1B2C2B",
"K/	c #1B2D24",
"L/	c #BBDE94",
"M/	c #D3F99D",
"N/	c #D4F89F",
"O/	c #D1F599",
"P/	c #C9EE94",
"Q/	c #ADD78F",
"R/	c #648464",
"S/	c #0F1A23",
"T/	c #0A0E23",
"U/	c #0E1D30",
"V/	c #456956",
"W/	c #497155",
"X/	c #2E4B45",
"Y/	c #080F22",
"Z/	c #285355",
"`/	c #295F5B",
" (	c #2B5E5F",
".(	c #306365",
"+(	c #306765",
"@(	c #2D6562",
"#(	c #2A5D60",
"$(	c #1A3443",
"%(	c #29484D",
"&(	c #366664",
"*(	c #356863",
"=(	c #386B60",
"-(	c #2C4F4C",
";(	c #182531",
">(	c #16222F",
",(	c #192F38",
"'(	c #284F59",
")(	c #255D61",
"!(	c #275C61",
"~(	c #26555C",
"{(	c #214C50",
"](	c #40735B",
"^(	c #4E865F",
"/(	c #548560",
"((	c #53805D",
"_(	c #51805C",
":(	c #578660",
"<(	c #55865D",
"[(	c #55855E",
"}(	c #56855E",
"|(	c #56845E",
"1(	c #56835D",
"2(	c #56825F",
"3(	c #53805C",
"4(	c #517F5D",
"5(	c #4F7D5D",
"6(	c #48785A",
"7(	c #46775C",
"8(	c #43775C",
"9(	c #3F6F5C",
"0(	c #213B44",
"a(	c #385B50",
"b(	c #66A46C",
"c(	c #78B873",
"d(	c #7BBB73",
"e(	c #75B86F",
"f(	c #466C4F",
"g(	c #1B2829",
"h(	c #89A76B",
"i(	c #BFE48E",
"j(	c #C6EB91",
"k(	c #C6EA8E",
"l(	c #C2E58B",
"m(	c #B4DC88",
"n(	c #9CC784",
"o(	c #364842",
"p(	c #090B24",
"q(	c #223A37",
"r(	c #558267",
"s(	c #4C7958",
"t(	c #496B61",
"u(	c #050F23",
"v(	c #234E51",
"w(	c #265656",
"x(	c #20424E",
"y(	c #244655",
"z(	c #285158",
"A(	c #29585D",
"B(	c #29545E",
"C(	c #173448",
"D(	c #22484E",
"E(	c #295F5D",
"F(	c #2F605F",
"G(	c #315B5B",
"H(	c #1A393A",
"I(	c #284236",
"J(	c #2B4733",
"K(	c #1F372F",
"L(	c #224C4D",
"M(	c #285E64",
"N(	c #2B5F65",
"O(	c #244F56",
"P(	c #153039",
"Q(	c #3F6A5B",
"R(	c #4F8464",
"S(	c #568763",
"T(	c #57865D",
"U(	c #588760",
"V(	c #56855F",
"W(	c #53825C",
"X(	c #55825E",
"Y(	c #568360",
"Z(	c #55825F",
"`(	c #527F5C",
" _	c #517E5B",
"._	c #527F5E",
"+_	c #4D7C5E",
"@_	c #47765C",
"#_	c #44765D",
"$_	c #42745D",
"%_	c #3F705D",
"&_	c #213F42",
"*_	c #2B4344",
"=_	c #5B8F66",
"-_	c #6FAB70",
";_	c #73B371",
">_	c #6DB36A",
",_	c #598A60",
"'_	c #1D2930",
")_	c #56714D",
"!_	c #A2C97C",
"~_	c #A7CF7A",
"{_	c #ADD57F",
"]_	c #AAD27E",
"^_	c #A6CE81",
"/_	c #9BC77F",
"(_	c #59755F",
"__	c #0B0F20",
":_	c #355443",
"<_	c #588666",
"[_	c #517F5E",
"}_	c #507465",
"|_	c #060B22",
"1_	c #132933",
"2_	c #11212A",
"3_	c #101C26",
"4_	c #0C1922",
"5_	c #0F1C22",
"6_	c #0F1A22",
"7_	c #0F2031",
"8_	c #152D42",
"9_	c #254D52",
"0_	c #275C5A",
"a_	c #285757",
"b_	c #1E3E47",
"c_	c #5E8664",
"d_	c #87BD79",
"e_	c #8AC276",
"f_	c #78A870",
"g_	c #305648",
"h_	c #295C61",
"i_	c #2C5B62",
"j_	c #203C4A",
"k_	c #152336",
"l_	c #1B2C33",
"m_	c #243C3A",
"n_	c #395A4C",
"o_	c #548264",
"p_	c #558361",
"q_	c #538160",
"r_	c #52815F",
"s_	c #517E60",
"t_	c #527E62",
"u_	c #507D60",
"v_	c #4D7B5E",
"w_	c #4C7B5E",
"x_	c #4D7A5E",
"y_	c #4A7960",
"z_	c #457660",
"A_	c #44765F",
"B_	c #41725D",
"C_	c #3B735E",
"D_	c #37695E",
"E_	c #0D2028",
"F_	c #44685D",
"G_	c #5E9474",
"H_	c #64A074",
"I_	c #60A26E",
"J_	c #609672",
"K_	c #1F3534",
"L_	c #192C29",
"M_	c #7FA372",
"N_	c #93BF7A",
"O_	c #91BB77",
"P_	c #8CB572",
"Q_	c #87B576",
"R_	c #668C70",
"S_	c #122528",
"T_	c #456A54",
"U_	c #598764",
"V_	c #528062",
"W_	c #4B7263",
"X_	c #090D23",
"Y_	c #142124",
"Z_	c #607958",
"`_	c #90B084",
" :	c #8DAE7A",
".:	c #9EC389",
"+:	c #9ABC83",
"@:	c #769A6B",
"#:	c #192A27",
"$:	c #15272F",
"%:	c #22434F",
"&:	c #16313C",
"*:	c #203C3C",
"=:	c #91C28C",
"-:	c #93C975",
";:	c #8FC56D",
">:	c #89BB79",
",:	c #49715C",
"':	c #254F57",
"):	c #1C3746",
"!:	c #1B3844",
"~:	c #2C5751",
"{:	c #2A544B",
"]:	c #284945",
"^:	c #2F4F46",
"/:	c #4C7C60",
"(:	c #4E7D5F",
"_:	c #4E7D5E",
"::	c #4C7A5F",
"<:	c #4B795F",
"[:	c #4A775E",
"}:	c #48765C",
"|:	c #457259",
"1:	c #44715A",
"2:	c #45725B",
"3:	c #44745E",
"4:	c #407260",
"5:	c #3F725E",
"6:	c #3C6E5E",
"7:	c #345B54",
"8:	c #33544F",
"9:	c #0E1623",
"0:	c #121B2A",
"a:	c #233F42",
"b:	c #345C54",
"c:	c #3B6659",
"d:	c #3B675C",
"e:	c #213D41",
"f:	c #1E333F",
"g:	c #2E5042",
"h:	c #67956D",
"i:	c #72A570",
"j:	c #72A46D",
"k:	c #75A06B",
"l:	c #6D9A6C",
"m:	c #5A8369",
"n:	c #213D3B",
"o:	c #49725C",
"p:	c #588567",
"q:	c #4B7A65",
"r:	c #366258",
"s:	c #1B2C35",
"t:	c #8BA87B",
"u:	c #C5E49D",
"v:	c #C2E597",
"w:	c #C5EA95",
"x:	c #BEE58C",
"y:	c #BEE68C",
"z:	c #B2DF8A",
"A:	c #5D8458",
"B:	c #172324",
"C:	c #131E2E",
"D:	c #365248",
"E:	c #7AAA83",
"F:	c #99CD8A",
"G:	c #92C775",
"H:	c #90C276",
"I:	c #75A470",
"J:	c #406756",
"K:	c #183341",
"L:	c #172F40",
"M:	c #33605D",
"N:	c #3A7362",
"O:	c #38725E",
"P:	c #376E5F",
"Q:	c #386859",
"R:	c #3E7459",
"S:	c #46795E",
"T:	c #4D7C5F",
"U:	c #46785E",
"V:	c #46755D",
"W:	c #43725A",
"X:	c #417058",
"Y:	c #406D56",
"Z:	c #3D6957",
"`:	c #3E6A59",
" <	c #3B6A5A",
".<	c #396A5C",
"+<	c #36695A",
"@<	c #2F5653",
"#<	c #0B0F28",
"$<	c #0E0B24",
"%<	c #0A0C1E",
"&<	c #0D111C",
"*<	c #151E1E",
"=<	c #131E20",
"-<	c #121C2B",
";<	c #162432",
"><	c #102331",
",<	c #193241",
"'<	c #204347",
")<	c #31594D",
"!<	c #5E8C68",
"~<	c #609364",
"{<	c #5D8D61",
"]<	c #598666",
"^<	c #456E5E",
"/<	c #224142",
"(<	c #386258",
"_<	c #427063",
":<	c #396E64",
"<<	c #34615F",
"[<	c #487765",
"}<	c #8CB980",
"|<	c #AFD88E",
"1<	c #B7E092",
"2<	c #BBE491",
"3<	c #BBE591",
"4<	c #C5EE98",
"5<	c #C6E98F",
"6<	c #8FB779",
"7<	c #16252C",
"8<	c #101527",
"9<	c #47614A",
"0<	c #94C683",
"a<	c #93C576",
"b<	c #88BA6F",
"c<	c #81AF74",
"d<	c #68946D",
"e<	c #466B5D",
"f<	c #192C3E",
"g<	c #2A4E55",
"h<	c #3A7867",
"i<	c #38735F",
"j<	c #38725D",
"k<	c #36705F",
"l<	c #356759",
"m<	c #3C6E58",
"n<	c #386153",
"o<	c #396155",
"p<	c #417761",
"q<	c #45735D",
"r<	c #41705A",
"s<	c #3E6E59",
"t<	c #3F6D59",
"u<	c #3D6B5A",
"v<	c #3A6759",
"w<	c #396759",
"x<	c #37675A",
"y<	c #32645A",
"z<	c #203B45",
"A<	c #141A34",
"B<	c #556C5D",
"C<	c #89AE82",
"D<	c #90B97E",
"E<	c #95C17E",
"F<	c #8FBC7A",
"G<	c #82AC73",
"H<	c #466446",
"I<	c #15262E",
"J<	c #192234",
"K<	c #142135",
"L<	c #182C3B",
"M<	c #36574C",
"N<	c #4D795E",
"O<	c #507C60",
"P<	c #497461",
"Q<	c #355F59",
"R<	c #23474D",
"S<	c #33625F",
"T<	c #376A60",
"U<	c #336D5F",
"V<	c #315F5D",
"W<	c #457F6D",
"X<	c #508F72",
"Y<	c #57926F",
"Z<	c #579268",
"`<	c #5E9869",
" [	c #669F6B",
".[	c #70A86E",
"+[	c #88B878",
"@[	c #7BA578",
"#[	c #1B2F3B",
"$[	c #213B39",
"%[	c #5F8A69",
"&[	c #85BC79",
"*[	c #81B673",
"=[	c #7BAC72",
"-[	c #669169",
";[	c #5A836A",
">[	c #4A7065",
",[	c #122F3B",
"'[	c #34605F",
")[	c #3B7566",
"![	c #3C7564",
"~[	c #3C7464",
"{[	c #346A5C",
"][	c #214F4B",
"^[	c #274B47",
"/[	c #0F1E2E",
"([	c #111B2E",
"_[	c #122932",
":[	c #2C4E4B",
"<[	c #3C6159",
"[[	c #3E6E5D",
"}[	c #3B6F5A",
"|[	c #3E6C59",
"1[	c #3B6959",
"2[	c #396757",
"3[	c #376558",
"4[	c #356258",
"5[	c #2F5A59",
"6[	c #0E1D2F",
"7[	c #152332",
"8[	c #8BB28D",
"9[	c #A1CE86",
"0[	c #A3D183",
"a[	c #9FCF7B",
"b[	c #9ECE79",
"c[	c #9DCD79",
"d[	c #91C97A",
"e[	c #669765",
"f[	c #192A2E",
"g[	c #101529",
"h[	c #141A2D",
"i[	c #141E31",
"j[	c #162636",
"k[	c #1F313A",
"l[	c #1D353B",
"m[	c #1B3A45",
"n[	c #234451",
"o[	c #346460",
"p[	c #356560",
"q[	c #2D665E",
"r[	c #2B5B59",
"s[	c #447B70",
"t[	c #447D69",
"u[	c #4A8469",
"v[	c #4C8768",
"w[	c #4C866A",
"x[	c #4E8B68",
"y[	c #4E8E69",
"z[	c #4C8166",
"A[	c #1A3136",
"B[	c #4D7A66",
"C[	c #70AA77",
"D[	c #75AB72",
"E[	c #6FA172",
"F[	c #567E60",
"G[	c #557E68",
"H[	c #517D69",
"I[	c #487066",
"J[	c #1A3C44",
"K[	c #2F665E",
"L[	c #316A60",
"M[	c #346462",
"N[	c #2C5B5B",
"O[	c #274C51",
"P[	c #152B3C",
"Q[	c #091C28",
"R[	c #466A65",
"S[	c #376159",
"T[	c #183737",
"U[	c #0D202E",
"V[	c #163038",
"W[	c #3D6E5B",
"X[	c #3F6D5B",
"Y[	c #3A6856",
"Z[	c #396658",
"`[	c #325E5A",
" }	c #295257",
".}	c #1E3B46",
"+}	c #070F24",
"@}	c #081225",
"#}	c #78A387",
"$}	c #A0CF8A",
"%}	c #A0CF81",
"&}	c #9CCC79",
"*}	c #9ECE7A",
"=}	c #9DD178",
"-}	c #9AD37D",
";}	c #547956",
">}	c #101528",
",}	c #0D1426",
"'}	c #152033",
")}	c #172833",
"!}	c #3C5344",
"~}	c #48664B",
"{}	c #324D3F",
"]}	c #132E37",
"^}	c #2E5F5A",
"/}	c #265F58",
"(}	c #235252",
"_}	c #192C3B",
":}	c #325B61",
"<}	c #326566",
"[}	c #386D68",
"}}	c #367265",
"|}	c #377365",
"1}	c #377463",
"2}	c #387661",
"3}	c #376D60",
"4}	c #152E35",
"5}	c #55836D",
"6}	c #6EA472",
"7}	c #6CA079",
"8}	c #53816C",
"9}	c #446C62",
"0}	c #51796C",
"a}	c #4E7A6A",
"b}	c #436B65",
"c}	c #1F434B",
"d}	c #27605E",
"e}	c #28605E",
"f}	c #244D57",
"g}	c #13303F",
"h}	c #122137",
"i}	c #122336",
"j}	c #284E47",
"k}	c #5A9C75",
"l}	c #52976F",
"m}	c #41886D",
"n}	c #1D4C4A",
"o}	c #071C2D",
"p}	c #2B5753",
"q}	c #396E5D",
"r}	c #3C6C5A",
"s}	c #366355",
"t}	c #2F5B56",
"u}	c #285554",
"v}	c #265255",
"w}	c #22404C",
"x}	c #061027",
"y}	c #081125",
"z}	c #40635D",
"A}	c #649673",
"B}	c #71A875",
"C}	c #7CB276",
"D}	c #86B97B",
"E}	c #91C37D",
"F}	c #92C77B",
"G}	c #5E9462",
"H}	c #14212C",
"I}	c #0F152B",
"J}	c #3B5647",
"K}	c #74A171",
"L}	c #80B374",
"M}	c #75AA68",
"N}	c #619A65",
"O}	c #1E4132",
"P}	c #19383E",
"Q}	c #27585B",
"R}	c #215556",
"S}	c #133538",
"T}	c #070A18",
"U}	c #071422",
"V}	c #112736",
"W}	c #213D4B",
"X}	c #254755",
"Y}	c #264955",
"Z}	c #234652",
"`}	c #23404F",
" |	c #1D3846",
".|	c #18333D",
"+|	c #446D64",
"@|	c #517F65",
"#|	c #4B7463",
"$|	c #375F58",
"%|	c #436C65",
"&|	c #4D776B",
"*|	c #497666",
"=|	c #3E6863",
"-|	c #21464E",
";|	c #24585F",
">|	c #214D55",
",|	c #173343",
"'|	c #0F1D32",
")|	c #0A1129",
"!|	c #264747",
"~|	c #4E8A74",
"{|	c #5A9F74",
"]|	c #549A6E",
"^|	c #4E9475",
"/|	c #447F70",
"(|	c #102D3F",
"_|	c #0B2431",
":|	c #2F5957",
"<|	c #2E5A57",
"[|	c #244F50",
"}|	c #224D55",
"||	c #234F57",
"1|	c #245258",
"2|	c #254B54",
"3|	c #09192F",
"4|	c #09112B",
"5|	c #102633",
"6|	c #295A58",
"7|	c #347869",
"8|	c #377D67",
"9|	c #3B7D66",
"0|	c #407C63",
"a|	c #478064",
"b|	c #538C65",
"c|	c #528D6A",
"d|	c #1F3A39",
"e|	c #0C1926",
"f|	c #6C9572",
"g|	c #7BAE74",
"h|	c #7CB36C",
"i|	c #77AE67",
"j|	c #69A564",
"k|	c #4A7E61",
"l|	c #0D2030",
"m|	c #102E3E",
"n|	c #0E2333",
"o|	c #0A0B1C",
"p|	c #070A1F",
"q|	c #070A1A",
"r|	c #080B19",
"s|	c #091225",
"t|	c #101F34",
"u|	c #142438",
"v|	c #142539",
"w|	c #16273E",
"x|	c #1B3341",
"y|	c #294F51",
"z|	c #2F5856",
"A|	c #2E5954",
"B|	c #2F5854",
"C|	c #335C58",
"D|	c #3B655F",
"E|	c #477367",
"F|	c #457265",
"G|	c #3A6661",
"H|	c #20494E",
"I|	c #1B3E4C",
"J|	c #0E273A",
"K|	c #102B3E",
"L|	c #153445",
"M|	c #0C1F33",
"N|	c #274D49",
"O|	c #45876E",
"P|	c #4E916F",
"Q|	c #539672",
"R|	c #509271",
"S|	c #4C8E74",
"T|	c #2F5E63",
"U|	c #091B39",
"V|	c #03142B",
"W|	c #1C404F",
"X|	c #225556",
"Y|	c #225156",
"Z|	c #214F55",
"`|	c #225157",
" 1	c #245058",
".1	c #11293B",
"+1	c #0E1530",
"@1	c #0D1328",
"#1	c #112A33",
"$1	c #27605F",
"%1	c #297066",
"&1	c #2D7465",
"*1	c #317465",
"=1	c #347665",
"-1	c #2F6E61",
";1	c #2D6158",
">1	c #1D393E",
",1	c #263936",
"'1	c #73A370",
")1	c #73A86C",
"!1	c #79AE6D",
"~1	c #71A665",
"{1	c #67A363",
"]1	c #457C5E",
"^1	c #102239",
"/1	c #0D1833",
"(1	c #0D0C2A",
"_1	c #0D0A1E",
":1	c #0D0C25",
"<1	c #070F20",
"[1	c #142C31",
"}1	c #2A4C4A",
"|1	c #345E54",
"11	c #386455",
"21	c #284E4A",
"31	c #1E4148",
"41	c #2A5457",
"51	c #2C5957",
"61	c #2C5956",
"71	c #2D5956",
"81	c #305B58",
"91	c #315F5A",
"01	c #34615B",
"a1	c #36635D",
"b1	c #39655F",
"c1	c #34635F",
"d1	c #2E5E5D",
"e1	c #20434D",
"f1	c #0D2037",
"g1	c #194351",
"h1	c #1A515C",
"i1	c #1A4354",
"j1	c #133240",
"k1	c #2D6263",
"l1	c #276460",
"m1	c #347267",
"n1	c #43806E",
"o1	c #458272",
"p1	c #306469",
"q1	c #0A203C",
"r1	c #05102A",
"s1	c #204752",
"t1	c #225459",
"u1	c #1F5256",
"v1	c #1F5156",
"w1	c #215258",
"x1	c #1E5157",
"y1	c #1A414A",
"z1	c #1A3B43",
"A1	c #0D1F2D",
"B1	c #091023",
"C1	c #122D37",
"D1	c #235756",
"E1	c #2C6962",
"F1	c #2D6F65",
"G1	c #2C7063",
"H1	c #286560",
"I1	c #214850",
"J1	c #172F3D",
"K1	c #273B3C",
"L1	c #679370",
"M1	c #669B69",
"N1	c #6DA16D",
"O1	c #689D69",
"P1	c #5A936A",
"Q1	c #224944",
"R1	c #172C40",
"S1	c #2C4A5B",
"T1	c #193243",
"U1	c #081323",
"V1	c #0B0F25",
"W1	c #1B363E",
"X1	c #31605B",
"Y1	c #396F5D",
"Z1	c #40765C",
"`1	c #40765E",
" 2	c #3B725D",
".2	c #275552",
"+2	c #2C5A55",
"@2	c #2C5A56",
"#2	c #2E5957",
"$2	c #2E5C58",
"%2	c #305E5A",
"&2	c #2E5B5A",
"*2	c #2F5E5A",
"=2	c #183845",
"-2	c #0D253A",
";2	c #1C505B",
">2	c #195661",
",2	c #1B535D",
"'2	c #0B283A",
")2	c #1F4656",
"!2	c #245A65",
"~2	c #266065",
"{2	c #296168",
"]2	c #2E666A",
"^2	c #295B69",
"/2	c #0F2741",
"(2	c #041423",
"_2	c #1F4A51",
":2	c #23545B",
"<2	c #205459",
"[2	c #1F5557",
"}2	c #205558",
"|2	c #1E5256",
"12	c #23595B",
"22	c #225C59",
"32	c #1C454A",
"42	c #0B1728",
"52	c #081526",
"62	c #051925",
"72	c #17383B",
"82	c #204D4C",
"92	c #215452",
"02	c #1E4C51",
"a2	c #1A3B46",
"b2	c #17303E",
"c2	c #18303C",
"d2	c #41695F",
"e2	c #548768",
"f2	c #548C66",
"g2	c #568C69",
"h2	c #30554A",
"i2	c #0E2039",
"j2	c #2C505D",
"k2	c #2C5F65",
"l2	c #2C6165",
"m2	c #20414A",
"n2	c #061022",
"o2	c #294E52",
"p2	c #31645D",
"q2	c #396B60",
"r2	c #37695B",
"s2	c #3A6C60",
"t2	c #35665D",
"u2	c #2A5857",
"v2	c #2A5858",
"w2	c #295958",
"x2	c #2A5958",
"y2	c #2B5858",
"z2	c #2C5857",
"A2	c #2C5554",
"B2	c #2D5957",
"C2	c #2A5957",
"D2	c #2D5A59",
"E2	c #275458",
"F2	c #143149",
"G2	c #225760",
"H2	c #1A5561",
"I2	c #1A5362",
"J2	c #1A4457",
"K2	c #0B233B",
"L2	c #204457",
"M2	c #265968",
"N2	c #245A68",
"O2	c #265D6A",
"P2	c #205466",
"Q2	c #13344F",
"R2	c #031228",
"S2	c #1D4850",
"T2	c #22565B",
"U2	c #21565B",
"V2	c #21575B",
"W2	c #1E4F56",
"X2	c #1B4A52",
"Y2	c #23585E",
"Z2	c #1F575B",
"`2	c #205259",
" 3	c #153846",
".3	c #163648",
"+3	c #102D40",
"@3	c #0D273A",
"#3	c #0E2C3B",
"$3	c #1D4650",
"%3	c #1D4B51",
"&3	c #1F4A52",
"*3	c #183C46",
"=3	c #1A3E48",
"-3	c #224C4E",
";3	c #38685E",
">3	c #366358",
",3	c #2F4E50",
"'3	c #0A1A33",
")3	c #1E4056",
"!3	c #265362",
"~3	c #2D6066",
"{3	c #2E6867",
"]3	c #27555B",
"^3	c #040F20",
"/3	c #2C5557",
"(3	c #31615F",
"_3	c #27565A",
":3	c #27565D",
"<3	c #225052",
"[3	c #285657",
"}3	c #29575A",
"|3	c #29585B",
"13	c #285759",
"23	c #28595A",
"33	c #264F54",
"43	c #18333C",
"53	c #285055",
"63	c #285459",
"73	c #1E4756",
"83	c #122F48",
"93	c #112E40",
"03	c #205560",
"a3	c #1A5563",
"b3	c #195765",
"c3	c #175361",
"d3	c #102F45",
"e3	c #071A33",
"f3	c #244F61",
"g3	c #245867",
"h3	c #205462",
"i3	c #215464",
"j3	c #1A425A",
"k3	c #03102C",
"l3	c #1B3D49",
"m3	c #225559",
"n3	c #23585D",
"o3	c #21575C",
"p3	c #21545B",
"q3	c #245860",
"r3	c #20555E",
"s3	c #1F525E",
"t3	c #1E5461",
"u3	c #1A4F5E",
"v3	c #184C5D",
"w3	c #134358",
"x3	c #133F55",
"y3	c #0F3C50",
"z3	c #1C4F56",
"A3	c #1D565B",
"B3	c #1F585D",
"C3	c #205258",
"D3	c #1D5055",
"E3	c #1F5056",
"F3	c #1E4B52",
"G3	c #1A3C49",
"H3	c #081028",
"I3	c #1A2C43",
"J3	c #204D60",
"K3	c #265463",
"L3	c #2C6067",
"M3	c #2B6567",
"N3	c #295860",
"O3	c #040F23",
"P3	c #2C585B",
"Q3	c #2D5E62",
"R3	c #2B5D61",
"S3	c #275A60",
"T3	c #285860",
"U3	c #26525B",
"V3	c #244B53",
"W3	c #265458",
"X3	c #26585B",
"Y3	c #27595D",
"Z3	c #28585C",
"`3	c #254E57",
" 4	c #1C2D3D",
".4	c #23424C",
"+4	c #235258",
"@4	c #23515C",
"#4	c #1A4357",
"$4	c #112D49",
"%4	c #103145",
"&4	c #1E5463",
"*4	c #1B5665",
"=4	c #155664",
"-4	c #165363",
";4	c #09273E",
">4	c #0E1B34",
",4	c #274B61",
"'4	c #205263",
")4	c #1D5162",
"!4	c #1F5365",
"~4	c #17435C",
"{4	c #040E2B",
"]4	c #0E2231",
"^4	c #265159",
"/4	c #24585E",
"(4	c #24575F",
"_4	c #22565E",
":4	c #24535E",
"<4	c #1F535E",
"[4	c #1E5361",
"}4	c #1D5263",
"|4	c #1A5765",
"14	c #1B5967",
"24	c #155362",
"34	c #134962",
"44	c #0F3E54",
"54	c #1A4F57",
"64	c #1D595E",
"74	c #1E575D",
"84	c #21535B",
"94	c #1D5058",
"04	c #1A4D55",
"a4	c #1F4455",
"b4	c #060A23",
"c4	c #13273C",
"d4	c #215465",
"e4	c #225A64",
"f4	c #296066",
"g4	c #296366",
"h4	c #2A5B63",
"i4	c #040827",
"j4	c #2A4F57",
"k4	c #2E6066",
"l4	c #2E5E65",
"m4	c #2A5D63",
"n4	c #265961",
"o4	c #254B56",
"p4	c #0E2531",
"q4	c #24434C",
"r4	c #25565A",
"s4	c #2E6063",
"t4	c #2F6164",
"u4	c #275B5E",
"v4	c #234952",
"w4	c #091124",
"x4	c #1A2E3B",
"y4	c #254F58",
"z4	c #22505C",
"A4	c #174053",
"B4	c #132841",
"C4	c #0E2337",
"D4	c #1E5061",
"E4	c #195666",
"F4	c #185564",
"G4	c #1A5263",
"H4	c #082239",
"I4	c #020821",
"J4	c #153347",
"K4	c #215364",
"L4	c #235767",
"M4	c #1F5364",
"N4	c #1B4359",
"O4	c #020622",
"P4	c #081929",
"Q4	c #1F4851",
"R4	c #285B63",
"S4	c #245B63",
"T4	c #215962",
"U4	c #20505C",
"V4	c #1F4F61",
"W4	c #1B5362",
"X4	c #1B5C68",
"Y4	c #1C5E6A",
"Z4	c #1A5D68",
"`4	c #165467",
" 5	c #113B4F",
".5	c #1D4B56",
"+5	c #205961",
"@5	c #245C62",
"#5	c #296167",
"$5	c #245E63",
"%5	c #225B60",
"&5	c #21575F",
"*5	c #163245",
"=5	c #05031E",
"-5	c #0A1029",
";5	c #295667",
">5	c #2C636B",
",5	c #2E676D",
"'5	c #2E666B",
")5	c #284D58",
"!5	c #0B0622",
"~5	c #0D192F",
"{5	c #1A3246",
"]5	c #1F3949",
"^5	c #193342",
"/5	c #142A3B",
"(5	c #101B30",
"_5	c #0A0921",
":5	c #0F1D2C",
"<5	c #36646C",
"[5	c #36656D",
"}5	c #24575C",
"|5	c #1C3D48",
"15	c #09071C",
"25	c #0A1020",
"35	c #203A46",
"45	c #112E3D",
"55	c #04091B",
"65	c #050517",
"75	c #0F3043",
"85	c #134154",
"95	c #0F364B",
"05	c #030F2A",
"a5	c #06041B",
"b5	c #091F2F",
"c5	c #1E4658",
"d5	c #224B5E",
"e5	c #1D4457",
"f5	c #102C40",
"g5	c #05041A",
"h5	c #08111F",
"i5	c #16353D",
"j5	c #1D424C",
"k5	c #234753",
"l5	c #214752",
"m5	c #1D434F",
"n5	c #102939",
"o5	c #0C2337",
"p5	c #0E2C3F",
"q5	c #143849",
"r5	c #163B4C",
"s5	c #153B4A",
"t5	c #0F3445",
"u5	c #081C30",
"v5	c #0C2032",
"w5	c #133241",
"x5	c #1F4855",
"y5	c #275862",
"z5	c #255B65",
"A5	c #255863",
"B5	c #204B59",
"C5	c #051026",
"D5	c #05031C",
"E5	c #080422",
"F5	c #13293C",
"G5	c #244A56",
"H5	c #295060",
"I5	c #274B5A",
"J5	c #081325",
"K5	c #6D6A6A",
"L5	c #37373B",
"M5	c #0A0A25",
"N5	c #090926",
"O5	c #090923",
"P5	c #0A0923",
"Q5	c #070620",
"R5	c #08061A",
"S5	c #0A061A",
"T5	c #0A1226",
"U5	c #0E1A30",
"V5	c #0F1B32",
"W5	c #0B182E",
"X5	c #0C1029",
"Y5	c #0A0516",
"Z5	c #070416",
"`5	c #060618",
" 6	c #060516",
".6	c #070517",
"+6	c #070417",
"@6	c #06051A",
"#6	c #050822",
"$6	c #040A23",
"%6	c #060720",
"&6	c #06041C",
"*6	c #080617",
"=6	c #060718",
"-6	c #050819",
";6	c #05081C",
">6	c #04041A",
",6	c #050314",
"'6	c #070513",
")6	c #070615",
"!6	c #07071A",
"~6	c #07061C",
"{6	c #07081C",
"]6	c #0B041A",
"^6	c #09051A",
"/6	c #09051B",
"(6	c #09061D",
"_6	c #09071E",
":6	c #09061E",
"<6	c #08061C",
"[6	c #08061B",
"}6	c #08051F",
"|6	c #07081F",
"16	c #090D22",
"26	c #081126",
"36	c #07071E",
"46	c #080213",
"56	c #080318",
"66	c #09031F",
"76	c #080420",
"86	c #06041F",
"96	c #04021E",
"06	c #050219",
"a6	c #585656",
"  . + @ # $ % & * = - ; > , ' ) ! ~ { ] ^ / ( _ : < [ } | 1 2 3 4 5 6 7 8 9 0 a b c d e f g h i j k l m n o p q r s t u v w ",
"x y z A B C D E F G H I J K L M N O P Q R S T U V W X Y Z `  ...+.@.#.$.%.&.*.=.-.;.>.,.'.).!.~.{.].^./.(._.:.<.[.}.|.1.2.3.",
"4.5.6.7.8.9.0.a.b.c.d.e.f.g.h.i.j.k.l.m.n.o.p.q.r.s.t.u.v.w.x.y.z.A.B.C.D.E.F.G.H.I.J.K.L.M.N.O.P.Q.R.S.T.U.V.W.X.Y.Z.`. +.+",
"++@+#+$+%+&+*+=+-+;+>+,+'+)+!+~+{+]+^+/+(+_+:+<+[+}+|+1+2+3+4+5+6+6+7+8+9+0+a+b+c+d+e+f+g+h+i+j+k+l+m+n+o+p+q+r+s+t+u+v+w+x+",
"y+z+A+B+C+D+E+F+G+H+I+J+K+L+M+N+O+P+^+Q+R+S+T+U+V+W+X+Y+Z+`+ @.@+@@@#@$@%@a+&@*@=@-@;@>@,@'@)@!@~@{@]@^@/@(@_@:@<@[@}@|@1@2@",
"3@4@5@6@7@8@9@0@a@b@c@d@e@f@g@h@i@f@j@Q+k@l@m@n@o@p@q@r@s@t@u@v@w@x@y@z@A@B@C@D@E@F@G@H@I@J@K@L@M@N@O@P@Q@R@S@T@U@V@W@X@Y@Z@",
"`@ #.#+#@###$#%#&#*#=#-#;#>#,#'#)#!#~#{#]#^#/#(#_#:#<#[#}#}#|#1#2#3#4#5#6#7#8#9#0#a#b#c#d#e#f#g#h#i#j#k#l#m#n#o#p#q#r#s#t#u#",
"v#w#x#y#z#A#B#C#C#D#E#F#G#H#I#J#R+K#K#L#M#N#O#P#Q#R#S#T#}#U#V#W#X#Y#Z#`# $.$+$@$#$$$%$&$*$=$-$;$>$,$'$)$!$~${$]$^$/$($_$:$<$",
"[$}$|$1$2$3$4$5$6$7$8$9$0$a$b$c$d$e${#f$g$h$i$j$k$l$m$n$o$W#p$q$r$8#s$t$u$v$w$x$y$z$A$B$C$D$E$F$G$H$I$J$K$L$M$N$O$P$Q$R$S$T$",
"U$V$W$X$Y$Z$`$ %.%+%@%#%$%%%&%*%=%-%;%>%,%'%)%!%~%,%{%]%^%/%(%_%:%<%[%}%|%1%2%3%4%5%6%7%8%9%0%a%b%c%d%e%f%g%h%i%j%k%l%m%n%o%",
"p%q%r%s%t%u%v%w%x%y%z%A%B%C%D%E%F%G%H%I%J%K%L%M%N%O%P%Q%R%S%T%U%V%W%X%Y%Z%`% &.&+&@&#&$&$&%&&&*&=&-&;&>&,&'&)&!&~&{&]&^&/&(&",
"_&:&<&[&}&|&1&2&3&4&5&6&7&8&8&9&0&a&b&c&d&e&f&g&h&i&j&k&l&m&n&o&p&q&r&s&t&u&v&w&x&y&z&A&B&C&D&E&F&G&H&I&J&K&L&M&N&O&P&Q&R&S&",
"T&U&V&W&X&Y&Z&`& *.*+*@*#*$*%*&*&*&*&***=*-***;*>*>*>*>*>*>*,*>*>*>*>*>*>*'*)*!*~*{*]*^*A&/*(*_*:*<*[*}*|*i&1*2*3*4*5*6*7*8*",
"9*0*a*b*c*d*e*f*g*h*i*j*k*l*m*n*o*o*p*q*r*=*r*s*s*t*t*t*u*v*w*x*y*y*t*t*u*z*A*l*B*C*D*E*F*G$G*H*F*I*J*K*|*L*M*N*O*P*Q*R*S*T*",
"U*V*W*X*c*Y*Z*`* =.=+=@=#=#=$=%=&=*=*=r*==-=;=>=,=,=&=&='=)=!=~={=&=&=&='=]=^=^=/=]=D*^*(=G$_=H*H*:=<=[=L*L*}=|=1=2=3=4=5=6=",
"7=8=9=0=a=b=c=1*d=e=f=g=h=h=i=j=k=k=k=l=m=n=o=p=p=p=p=p=q=m=r=s=*=*=t=*=u=v=w=w=x=y=z=A=B=C=D=E=F=G=H=I=J=2=K=L=M=N=O=P=Q=R=",
"S=T=U=4=V=]*W=2*X=Y=Z=`= - -.-x*+-@-@-@-#-$-%-&-*-*-*-=-=---;->-,-'-'-'-'-)-!-!-~-{-9=]-^-/-(-_-:-<-[-}-|-1-2-3-4-5-6-7-8-9-",
"0-a-b-c-d-e-f-g-h-i-j-k-l-m-n-r*@-@-@-@-o-$-p-@-q-*-*-*-*-r-s-t-=-=-=-=-=-)-u-v-w-x-y-z-A-B-C-D-E-F-G-H-I-J-4-K-L-M-N-O-P-Q-",
"R-S-T-U-V-W-X-Y-Z-`- ;.;k-+;@;#;$;$;$;$;%;&;*;=;=;-;-;-;-;;;>;,;';';';';';);!;~;+;+={;];^;/;(;_;:;<;[;};|;1;2;O=3;4;5;6;7;8;",
"9;0;a;b;c;d;e;f;g;h; ;i;j;k;l;r*$;m;n;o;p;&;*;$;q;;;;;;;;;r;s;t;-;u;;;;;v;w;x;`=.;y;z;A;B;C;D;E;F;G;H;I;J;K;L;M;N;O;P;Q;R;S;",
"T;U;V;W;X;X;Y;Z;Z;`; ; >j;`=.>'=+>@>@>p-#>$>%>&>p-=;=;=;=;t;*>t;=>=;=;=;&>);->`=+;;>>>,>'>)>O*!>~>{>]>^>/>(>_>:><>[>}>|>1>2>",
"3>4>5>6>7>8>9>0>a>b>c>d>e>e>f>x*g>h>h>i>#>j>*;k>l>m>t-t-n>o>p>q>t-t-t-r>r>i*s>s>!;;>t>u>u>v>w>x>y>z>A>B>C>D>D>E>F>G>H>I>J>K>",
"L>M>N>O>P>Q>R>S>T>U>V>j;W>W>X>Y>g>g>g>i>,;j>q>i>Z>Z>t-t-t-t;`>q>r>r>t-r>r>v= , ,`=;>.,+,@,#,$,%,&,*,=,-,;,>,,,',),U=U=!,~,{,",
"],^,/,(,_,:,Q><,[,},|,1,2,2,3,4,5,g>i>i>6,7,8,9,q-q-q-q-n>p-0,o;a,r>r>r>r>b,c,c,d,;>e,f,g,h,i,%,j,k,l,m,n,n,o,p,q,r,s,t,u,v,",
"w,x,y,z,A,:,B,C,3=D,E,m-F,F,G,H,I,I,*=I,J,7,K,L,M,N,u=u=*=O,P,Q,R,*=*=*=*=S,T,T,g=U,V,W,X,Y,Z,`,D> '.'+'@'@'#'$'%'&'t,*'='-'",
";'>',''')'_,s,%'p,!'~'{']'^'/'('I,I,I,I,_':'<'*=*=*=R,R,R,['}'|'1'1'1'1'1'2'3'4'@=5'6'7'8'9'0'a'b'c'd'e'f'g'h'i'j'*'k'l'm'n'",
"o'p'q'r's't,t'u't,v'w'x'y'y'/'('I,I,L,z'A'B'C'D'E'F'G'G'H'I'J'K'1'L'1'L'L'M'j*j*N'O'P'Q'R'S'b-T'U'V'W'X'Y'Z'`' ).)+)O;@)#)$)",
"%)&)*)=)-);)>),)')))!)~)/'/'~){)])^)/)()_)&*:)<)[)})|)1)v&2)3)4)5)6)7)8)9)0)>*>*>*a)b)c)d)e)f)g)h)i)j)k)l)m)n)o)p)q)r)s)t)u)",
"v)w)x)y)z)A)B)>)C)D)E) ,F)G)H)H)H)H)H)&*&*****>*I)J)J)J)K)>*L)M)M)>*>*>*>*N)O)P)G)Q)R)S)T)U)V)W)X)Y)Z)*)`) ! !.!+!@!#!$!%!&!",
"*!=!-!q);!>!,!'!)!!!~!{!]!^!H)/!(!_!_!_!O'**u&>*:!>*>*<!M)[!>*}!|!1!|!2!|!3!4!5!6!7!8!9!0!a! )b!c!d!e!f!g!h!i!j!k!l!m!n!o!p!",
"q!r!s!t!u!v!w!x!y!z!A!B!C!D!&*E!F!G!H!I!J!>*K!>*L!M!M)N!O![!P!Q!R!R!R!R!R!M)S!T!U!V!W!0!X!Y!Y!Z!`! ~.~h!h!+~@~#~$~%~&~*~=~-~",
";~>~,~'~)~!~~~{~]~^~/~(~_~_~**:~y*<~<~[~}~>*K!M)|~N!O!1~O![!P!2~}!}!}!}!}!O!3~4~5~6~7~q'8~Z!9~`! ~0~a~b~c~@~d~e~f~g~h~i~j~k~",
"l~m~n~o~p~q~r~s~t~u~v~:!w~L!>*x~y~z~A~A~}~M)B~O!C~D~E~F~O![!P!G~}!}!}!}!}!O!H~I~J~K~L~M~N~O~P~ ~ ~Q~R~S~T~U~V~W~X~Y~Z~`~ {.{",
"+{@{#{${%{&{*{={-{;{>{,{'{'{){!{A~A~A~}!Q!M)~{{{O!O!O!O![!]{P!^{}!}!}!}!/{({_{_{:{<{[{O~M~}{e!.~-!R~|{1{2{3{4{5{6{7{8{9{0{a{",
"b{c{d{e{f{g{h{i{j{k{l{m{n{o{p{q{r{r{r{r{2~O!~{~{s{s{{{{{t{~{P!G~~{u{u{u{~{v{w{x{y{z{A{B{}{C{D{E{F{G{H{I{J{K{L{M{N{O{P{Q{R{S{",
"T{U{V{W{X{Y{Z{`{ ].]+]@]#]$]({%]u{u{u{&]G~O!~{~{~{~{~{~{~{~{P!^{u{u{u{u{u{*]=]x{-];]>],]'])]!]~]{]]]^]/](]_]:]<][]}]|]1]2]3]",
"4]5]6]7]8]9]0]a]b]c]d]-]x{=]*][!e]u{u{&]G~O!~{~{~{~{~{~{~{t{P!f]g]u{u{u{~{*]=]x{-];]h]i]j]k]l]m]n]o]p]q]r]s]t]u]v]w]x]y]z]A]",
"B]C]D]E]F]G]H]I]J]K]L]M]M]N]O][![![![![!2~O![![![![![![![![!P!f][!P]Q][![!R]S]N]S];]T]U]V]W]X]Y]Z]`] ^.^+^@^#^$^%^&^*^=^-^;^",
">^,^'^)^!^~^{^]^^^/^L](^_^_^:^<^[^*]O!O!O!O!O!O!O!O!O!O!O!O!O!O!O!O!({({({}^|^1^2^3^4^5^6^7^8^9^0^a^b^c^d^e^f^g^h^i^j^k^l^m^",
"n^o^p^q^r^s^t^u^v^w^d]N!N!_{x^({y^z^A^B^C^D^E^F^G^H^H^I^J^J^K^(^L^M^N^O^[^_~P^P^_{3^Q^R^S^T^U^V^W^X^Y^Z^`^ /./+/@/#/$/%/&/*/",
"=/-/;/>/,/'/)/!/~/{/]/^/////(/({_/:/</[/}/}/|/1/1/1/2/3/F~4/4/4/4/5/6/6/7/8/9///0/]/a/b/c/d/e/f/g/h/i/j/k/l/m/n/o/p/q/r/s/t/",
"u/v/w/x/y/z/A/B/C/D/]/]/]/]/]/]/]/]/]/]/]/]/]/]/]/]/]/;];];];];];];];];]L]L]]/]/]/]/E/F/G/H/I/J/K/L/M/N/O/P/Q/R/S/T/U/V/W/X/",
"Y/Z/`/ (.(+(@(#($(%(&(*(=(-(;(>(,('()(!(~({(](^(/(((_(:(<([(}(|(1(2(3(4(5(6(7(8(9(0(a(b(c(d(e(f(g(h(i(j(k(l(m(n(o(p(q(r(s(t(",
"u(v(w(x(y(z(A(B(C(D(E(F(G(H(I(J(K(L(M(N(O(P(Q(R(S(T(U(V([(W(X(Y(Z(`( _._+_@_#_$_%_&_*_=_-_;_>_,_'_)_!_~_{_]_^_/_(___:_<_[_}_",
"|_1_2_3_4_5_6_7_8_9_0_a_b_c_d_e_f_g_h_i_j_k_l_m_n_o_p_q_r_4(s_t_u_v_w_x_y_z_A_B_C_D_E_F_G_H_I_J_K_L_M_N_O_P_P_Q_R_S_T_U_V_W_",
"X_Y_Z_`_ :.:+:@:#:$:%:&:*:=:-:;:>:,:':):!:~:{:]:^:/:(:(:_:::<:[:}:|:1:2:3:4:5:6:7:8:9:0:a:b:c:d:e:f:g:h:i:j:k:l:m:n:o:p:q:r:",
"s:t:u:v:w:x:y:z:A:B:C:D:E:F:G:H:I:J:K:L:M:N:O:P:Q:R:S:T:/:U:V:W:X:Y:Z:`: <.<+<@<#<$<%<&<*<=<-<;<><,<'<)<!<~<{<]<^</<(<_<:<<<",
"[<}<|<1<2<3<4<5<6<7<8<9<0<a<b<c<d<e<f<g<h<i<j<k<l<m<n<X/o<p<q<r<s<t<u<v<w<x<y<z<A<B<C<D<E<F<G<H<I<J<K<L<M<N<O<P<Q<R<S<T<U<V<",
"W<X<Y<Z<`< [.[+[@[#[$[%[&[*[=[-[;[>[,['[)[![~[{[][^[/[([_[:[<[[[}[|[1[2[3[4[5[6[7[8[9[0[a[b[c[d[e[f[g[h[i[j[k[l[m[n[o[p[q[r[",
"'[s[t[u[v[w[x[y[z[A[B[C[D[E[F[G[H[I[J[K[L[M[N[O[P[Q[R[S[T[U[V[T<W[X[Y[Z[`[ }.}+}@}#}$}%}&}*}*}=}-};}>},}'})}!}~}{}]}5[^}/}(}",
"_}:}<}[}}}|}1}2}3}4}5}6}7}8}9}0}a}b}c}d}e}f}g}h}i}j}k}l}m}n}o}p}q}r}s}t}u}v}w}x}y}z}A}B}C}D}>:E}F}G}H}I}J}K}L}M}N}O}P}Q}R}S}",
"T}U}V}W}X}Y}Z}`} |.|+|@|#|$|%|&|*|=|-|;|>|,|'|)|!|~|{|]|^|/|(|_|:|<|[|}|||1|2|3|4|5|6|7|8|9|0|a|b|c|d|e|f|g|h|i|j|k|l|m|n|o|",
"p|q|r|s|t|u|v|w|x|y|z|A|B|C|D|E|F|G|H|I|J|K|L|M|N|O|P|Q|R|S|T|U|V|W|X|Y|Z|`| 1.1+1@1#1$1%1&1*1=1-1;1>1,1'1)1!1~1{1]1^1/1(1_1",
":1<1[1}1|111213141516171819101a1b1c1d1e1f1g1h1i1j1k1l1m1n1o1p1q1r1s1t1u1v1w1x1y1z1A1B1C1D1E1F1G1H1I1J1K1L1M1N1O1P1Q1R1S1T1U1",
"V1W1X1Y1Z1`1 2.251+2@261#2$2%2%2&2|]*2=2-2;2>2,2'2)2!2~2{2]2^2/2(2_2:2<2[2}2|212223242526272829202a2b2c2d2e2f2g2h2i2j2k2l2m2",
"n2o2p2q2r2s2t2.2u2v2w2x2y2z2A2B2C2D2E2F2(|G2H2I2J2K2L2M2N2O2P2Q2R2S2T2U2V2W2X2Y2Z2`2 3.3+3@3#3$3%3&3*3=3-3;3>3,3'3)3!3~3{3]3",
"^3/3(3d1_3:3~(<3[3}3|31323334353i^6373839303a3b3c3d3e3f3g3h3i3j3k3l3m3n3o3p3q3r3s3t3u3v3w3x3y3z3A3B3C3D3E3F3G3H3I3J3K3L3M3N3",
"O3P3Q3R3S3T3U3V3W3X3Y3Z3Q}`3 4.4+4@4#4$4%4&4*4=4-4;4>4,4'4)4!4~4{4]4^4/4(4_4:4<4[4}4|414243444546474p3849404a4b4c4d4e4f4g4h4",
"i4j4k4l4m4n4o4p4q4r4s4t4u4v4w4x4y4z4A4B4C4D4E4F4G4H4I4J4K4L4M4N4O4P4Q4(4R4S4T4U4V4W4X4Y4Z4`4 5.5+5@5#5$5%5&5*5=5-5;5>5,5'5)5",
"!5~5{5]5^5/5(5_5:52|<5[5}5|5152535%:4555657585859505a5b5c5d5e5f5g5h5i5j5k5l5m5n5o5p5q5r5s5t5u5v5w5x5y5z5A5B5C5D5E5F5G5H5I5J5",
"K5L5M5N5O5P5Q5R5S5T5U5V5W5X5S5Y5Z5`5 6.6+6@6#6$6%6&6 6*6=6-6;6>6,6'6)6!6~6{6R5]6^6/6(6_6:6<6[6[6}6|616J5263646566676869606a6"};
