/* XPM */
static char * enemy_xpm[] = {
"64 62 3811 2",
"  	c #E5E1C9",
". 	c #C8C8B1",
"+ 	c #212320",
"@ 	c #1A1D1F",
"# 	c #1A1D1E",
"$ 	c #1C1D1F",
"% 	c #1E1F20",
"& 	c #43463D",
"* 	c #4D5F32",
"= 	c #87AB5A",
"- 	c #A6CE82",
"; 	c #AACE88",
"> 	c #AACE8A",
", 	c #A3C089",
"' 	c #89A577",
") 	c #4D5E41",
"! 	c #949587",
"~ 	c #848279",
"{ 	c #35362B",
"] 	c #34422B",
"^ 	c #4A5A3C",
"/ 	c #5C6E4E",
"( 	c #6A7B5A",
"_ 	c #5F6B51",
": 	c #181B17",
"< 	c #1B1819",
"[ 	c #2D3025",
"} 	c #3F4933",
"| 	c #444E38",
"1 	c #546540",
"2 	c #647A4C",
"3 	c #6D8652",
"4 	c #738E56",
"5 	c #76925B",
"6 	c #789660",
"7 	c #72905C",
"8 	c #3D4B37",
"9 	c #2D2D2B",
"0 	c #2A2928",
"a 	c #262725",
"b 	c #242523",
"c 	c #272424",
"d 	c #242123",
"e 	c #242124",
"f 	c #252125",
"g 	c #2F3831",
"h 	c #445543",
"i 	c #3D4A3F",
"j 	c #556942",
"k 	c #7E9D5D",
"l 	c #7C9761",
"m 	c #4B5B45",
"n 	c #4D514C",
"o 	c #ADAEA0",
"p 	c #DCDDCB",
"q 	c #DCDCC3",
"r 	c #909182",
"s 	c #202B2B",
"t 	c #1C272B",
"u 	c #1B2529",
"v 	c #1B242A",
"w 	c #192127",
"x 	c #A6A49C",
"y 	c #DFDEC7",
"z 	c #68706D",
"A 	c #374338",
"B 	c #809C76",
"C 	c #6F9663",
"D 	c #51784B",
"E 	c #405C41",
"F 	c #3C483A",
"G 	c #414F33",
"H 	c #7D9252",
"I 	c #8FAC52",
"J 	c #B9D182",
"K 	c #D4E5A3",
"L 	c #D4E6A2",
"M 	c #D3E8AA",
"N 	c #D1EEA9",
"O 	c #BDD29B",
"P 	c #2B2B25",
"Q 	c #2B221E",
"R 	c #A0B97C",
"S 	c #C1EB96",
"T 	c #CEF2A6",
"U 	c #D4F7AB",
"V 	c #D8F6B2",
"W 	c #D3F0AC",
"X 	c #687C4D",
"Y 	c #3A3F26",
"Z 	c #92A974",
"` 	c #C5EA9A",
" .	c #C4EB95",
"..	c #C5ED91",
"+.	c #C6F091",
"@.	c #C9F392",
"#.	c #CAF492",
"$.	c #CAF594",
"%.	c #CAF595",
"&.	c #C7F28E",
"*.	c #A7CF74",
"=.	c #839D55",
"-.	c #5C703A",
";.	c #A0C071",
">.	c #A3C974",
",.	c #9FC275",
"'.	c #8DAF67",
").	c #6D854E",
"!.	c #414F28",
"~.	c #4C6335",
"{.	c #85AA61",
"].	c #759A52",
"^.	c #A0C677",
"/.	c #CAEE90",
"(.	c #CBEA94",
"_.	c #B9DA8B",
":.	c #869C6E",
"<.	c #2C3026",
"[.	c #282A2B",
"}.	c #373B2D",
"|.	c #46593D",
"1.	c #537848",
"2.	c #80AF62",
"3.	c #89BA69",
"4.	c #8BBD6A",
"5.	c #7CAE69",
"6.	c #283124",
"7.	c #413C35",
"8.	c #18273B",
"9.	c #516B4D",
"0.	c #B7E195",
"a.	c #BBE98F",
"b.	c #B1E385",
"c.	c #96C774",
"d.	c #95B46C",
"e.	c #98B66D",
"f.	c #9CBC62",
"g.	c #AABD60",
"h.	c #B7C476",
"i.	c #D4E2A2",
"j.	c #D6E4A6",
"k.	c #D5EAA7",
"l.	c #D3EFA5",
"m.	c #CBE4A1",
"n.	c #4E553D",
"o.	c #4B4B37",
"p.	c #C9E59C",
"q.	c #D3FAA1",
"r.	c #D9F8A9",
"s.	c #DAF9AA",
"t.	c #D9F8B0",
"u.	c #D9F7AD",
"v.	c #B5D884",
"w.	c #88AC59",
"x.	c #A0BF76",
"y.	c #C9EE96",
"z.	c #C9EE91",
"A.	c #CAF092",
"B.	c #CDF396",
"C.	c #CEF498",
"D.	c #CFF599",
"E.	c #D0F69C",
"F.	c #D1F69C",
"G.	c #D1F798",
"H.	c #C9F493",
"I.	c #C2EA87",
"J.	c #B1D97B",
"K.	c #C9F28E",
"L.	c #CFF393",
"M.	c #CFF199",
"N.	c #CAEF90",
"O.	c #AAD277",
"P.	c #7E9E4D",
"Q.	c #7F9E4E",
"R.	c #ADD271",
"S.	c #B3D877",
"T.	c #B7DB81",
"U.	c #D1EE92",
"V.	c #D5EF96",
"W.	c #CDEC90",
"X.	c #C9E897",
"Y.	c #7D9066",
"Z.	c #1C1D1E",
"`.	c #485F3B",
" +	c #5F8749",
".+	c #739C53",
"++	c #C3F487",
"@+	c #BCED81",
"#+	c #B7EF7E",
"$+	c #9ED677",
"%+	c #41543B",
"&+	c #171118",
"*+	c #172033",
"=+	c #618653",
"-+	c #B0DE82",
";+	c #C4EB8F",
">+	c #C7EC8B",
",+	c #C1E983",
"'+	c #B9E27B",
")+	c #AFD870",
"!+	c #A5CC65",
"~+	c #9FC158",
"{+	c #A2C062",
"]+	c #BDD889",
"^+	c #C7E193",
"/+	c #D2EE9F",
"(+	c #D3F29F",
"_+	c #D0F49A",
":+	c #BDDA8D",
"<+	c #8EA863",
"[+	c #D2F2A0",
"}+	c #D6F8A2",
"|+	c #D8F7A6",
"1+	c #D9F7A7",
"2+	c #D8F7A9",
"3+	c #D8F9A6",
"4+	c #BFE482",
"5+	c #B1D96F",
"6+	c #B5D978",
"7+	c #BBDD7E",
"8+	c #B9DA7A",
"9+	c #BADB7C",
"0+	c #C2E588",
"a+	c #D0F396",
"b+	c #D2F69A",
"c+	c #D4F79D",
"d+	c #D3F79A",
"e+	c #D0F998",
"f+	c #CBF68E",
"g+	c #C9F38C",
"h+	c #CBF28F",
"i+	c #CEF296",
"j+	c #D0F198",
"k+	c #CEEF95",
"l+	c #AACD78",
"m+	c #7EA14B",
"n+	c #8AAC54",
"o+	c #9EBF62",
"p+	c #BCDD7F",
"q+	c #C5E48B",
"r+	c #D1EB95",
"s+	c #DCF098",
"t+	c #D4EC96",
"u+	c #CEEC93",
"v+	c #A8BF7F",
"w+	c #242720",
"x+	c #5B7A41",
"y+	c #76A751",
"z+	c #A8D37E",
"A+	c #BDE984",
"B+	c #C1EA83",
"C+	c #C6EE8F",
"D+	c #A8D082",
"E+	c #5B6D5C",
"F+	c #171016",
"G+	c #151C30",
"H+	c #556E54",
"I+	c #99B87D",
"J+	c #C1E294",
"K+	c #C9EC93",
"L+	c #CBF08F",
"M+	c #C3E881",
"N+	c #B8DE76",
"O+	c #AED56D",
"P+	c #A4CC63",
"Q+	c #9DC35C",
"R+	c #9ABF5A",
"S+	c #9ABF5C",
"T+	c #C6E791",
"U+	c #D4F59E",
"V+	c #D3F699",
"W+	c #D2F699",
"X+	c #D3F69C",
"Y+	c #D6F8A1",
"Z+	c #D7F7A4",
"`+	c #D8F8A4",
" @	c #D5F7A1",
".@	c #D3F79B",
"+@	c #BFE381",
"@@	c #B4D974",
"#@	c #B4D975",
"$@	c #B6D875",
"%@	c #887F7C",
"&@	c #8F6867",
"*@	c #7B7176",
"=@	c #B7DB7C",
"-@	c #C9ED8E",
";@	c #D0F495",
">@	c #D3F697",
",@	c #D1F697",
"'@	c #696A70",
")@	c #CEF491",
"!@	c #C9EE8F",
"~@	c #C3E78D",
"{@	c #C8EB92",
"]@	c #CBED94",
"^@	c #B5D87E",
"/@	c #9FC268",
"(@	c #98BB60",
"_@	c #95B85D",
":@	c #B5D67B",
"<@	c #C2E287",
"[@	c #C7E48D",
"}@	c #D4EA96",
"|@	c #DCEF9D",
"1@	c #D6ED97",
"2@	c #C9E091",
"3@	c #586841",
"4@	c #688947",
"5@	c #96C26C",
"6@	c #C3EE8F",
"7@	c #BEE988",
"8@	c #BCE583",
"9@	c #C2E68D",
"0@	c #AACC83",
"a@	c #708764",
"b@	c #161115",
"c@	c #161E32",
"d@	c #1E222D",
"e@	c #445247",
"f@	c #98B580",
"g@	c #BEDF8E",
"h@	c #CBED8F",
"i@	c #C2E782",
"j@	c #B8DF76",
"k@	c #B0D86F",
"l@	c #AAD36A",
"m@	c #A1CA62",
"n@	c #9DC65F",
"o@	c #9AC15E",
"p@	c #C2E28E",
"q@	c #D6F7A1",
"r@	c #D5F89B",
"s@	c #D5F89C",
"t@	c #D5F89E",
"u@	c #D6F7A2",
"v@	c #CBEB97",
"w@	c #C4E68A",
"x@	c #BFE282",
"y@	c #B0D570",
"z@	c #B3D773",
"A@	c #B3D775",
"B@	c #B1D371",
"C@	c #3D3849",
"D@	c #C28570",
"E@	c #9F706C",
"F@	c #646A6E",
"G@	c #493749",
"H@	c #57575E",
"I@	c #B9DE7D",
"J@	c #514758",
"K@	c #83585A",
"L@	c #6F5E67",
"M@	c #BEE486",
"N@	c #A1C76D",
"O@	c #96BC64",
"P@	c #97C066",
"Q@	c #ADD378",
"R@	c #A1C56A",
"S@	c #99BC5F",
"T@	c #96B85B",
"U@	c #97B85D",
"V@	c #A6C76D",
"W@	c #B8DB80",
"X@	c #B0D27A",
"Y@	c #9CBE67",
"Z@	c #B0CC79",
"`@	c #C1DC84",
" #	c #BDDB84",
".#	c #8BAB64",
"+#	c #759A50",
"@#	c #ABD37B",
"##	c #B7E17E",
"$#	c #ADD879",
"%#	c #A5CF78",
"&#	c #99BE79",
"*#	c #81A26C",
"=#	c #587251",
"-#	c #131317",
";#	c #344647",
">#	c #1E2825",
",#	c #29342D",
"'#	c #4D6043",
")#	c #869F64",
"!#	c #A0B66E",
"~#	c #B2D176",
"{#	c #B2DA72",
"]#	c #AED86E",
"^#	c #AAD46B",
"/#	c #A7D067",
"(#	c #9FC663",
"_#	c #9AC063",
":#	c #B9DB88",
"<#	c #D7F9A4",
"[#	c #D6F9A0",
"}#	c #D6F99F",
"|#	c #D7F9A0",
"1#	c #D7F7A1",
"2#	c #D6F6A0",
"3#	c #D7F7A5",
"4#	c #AFCF7B",
"5#	c #665F62",
"6#	c #2F273C",
"7#	c #A5C765",
"8#	c #A7CA68",
"9#	c #ACCD6D",
"0#	c #5D606B",
"a#	c #2A1D36",
"b#	c #C0876E",
"c#	c #C3886E",
"d#	c #582837",
"e#	c #AA7065",
"f#	c #383248",
"g#	c #5E5870",
"h#	c #3E3E4B",
"i#	c #A06C59",
"j#	c #A7685A",
"k#	c #523141",
"l#	c #9DC66A",
"m#	c #94BE64",
"n#	c #91BD64",
"o#	c #95BC63",
"p#	c #91B55B",
"q#	c #94B75B",
"r#	c #95B75C",
"s#	c #96B75D",
"t#	c #96B75F",
"u#	c #95B85F",
"v#	c #97B963",
"w#	c #97BA63",
"x#	c #97BA65",
"y#	c #9CBF6A",
"z#	c #9EC36C",
"A#	c #8CB062",
"B#	c #8FB664",
"C#	c #A6D170",
"D#	c #A3CF6C",
"E#	c #9BC769",
"F#	c #98BF6D",
"G#	c #80996A",
"H#	c #65735A",
"I#	c #3B4135",
"J#	c #191A22",
"K#	c #9BBD83",
"L#	c #9CC282",
"M#	c #83A46A",
"N#	c #6F8757",
"O#	c #4B5A31",
"P#	c #758149",
"Q#	c #93A958",
"R#	c #A5CB6A",
"S#	c #AAD46C",
"T#	c #A9D26C",
"U#	c #A2C96B",
"V#	c #99BF65",
"W#	c #B2D481",
"X#	c #D8FAA6",
"Y#	c #D8F9A5",
"Z#	c #D7F9A5",
"`#	c #D8F7A2",
" $	c #D6F6A4",
".$	c #3F3C4C",
"+$	c #986E5A",
"@$	c #C18766",
"#$	c #754D55",
"$$	c #372F3E",
"%$	c #423D46",
"&$	c #2D2536",
"*$	c #3A1E37",
"=$	c #BE826B",
"-$	c #C88C6D",
";$	c #C2876E",
">$	c #B67965",
",$	c #55313D",
"'$	c #794951",
")$	c #2B2536",
"!$	c #AC7D63",
"~$	c #C27E67",
"{$	c #593544",
"]$	c #3A3B47",
"^$	c #B1D67A",
"/$	c #A0CA73",
"($	c #91B75F",
"_$	c #8DB058",
":$	c #92B55C",
"<$	c #94B55E",
"[$	c #95B55E",
"}$	c #94B45F",
"|$	c #92B55E",
"1$	c #93B65F",
"2$	c #95B864",
"3$	c #96B965",
"4$	c #9ABE67",
"5$	c #9FC469",
"6$	c #96BA66",
"7$	c #A7CF73",
"8$	c #A6D16E",
"9$	c #A6D068",
"0$	c #9FC96E",
"a$	c #8EAF6C",
"b$	c #768468",
"c$	c #595E50",
"d$	c #252420",
"e$	c #343939",
"f$	c #C6EBAD",
"g$	c #CCF2A1",
"h$	c #CFF59E",
"i$	c #CCF49B",
"j$	c #BEE78E",
"k$	c #A1C871",
"l$	c #829F4F",
"m$	c #8CAA57",
"n$	c #9EC665",
"o$	c #ADD770",
"p$	c #B2DC75",
"q$	c #B3DD78",
"r$	c #A8D16F",
"s$	c #AFCF7E",
"t$	c #DDF8AA",
"u$	c #DCF8AD",
"v$	c #D5F0A7",
"w$	c #DAF7A9",
"x$	c #D9F7A4",
"y$	c #D0EFA1",
"z$	c #5D6072",
"A$	c #743B3F",
"B$	c #C1806B",
"C$	c #CE9375",
"D$	c #AD6056",
"E$	c #B16C5F",
"F$	c #B57464",
"G$	c #9E5653",
"H$	c #C17E69",
"I$	c #E2A382",
"J$	c #CC9074",
"K$	c #CB9272",
"L$	c #C68B6F",
"M$	c #A55C53",
"N$	c #C5866C",
"O$	c #D89B77",
"P$	c #BA7663",
"Q$	c #863F49",
"R$	c #1A1126",
"S$	c #D8F39B",
"T$	c #DBF5A3",
"U$	c #9EBE6C",
"V$	c #8AAE57",
"W$	c #90B35C",
"X$	c #91B45E",
"Y$	c #91B35F",
"Z$	c #90B25D",
"`$	c #8EB25C",
" %	c #8FB561",
".%	c #91B965",
"+%	c #95BA66",
"@%	c #9BC067",
"#%	c #A3C967",
"$%	c #A9D06F",
"%%	c #ABD471",
"&%	c #ACD671",
"*%	c #ADD672",
"=%	c #ABD277",
"-%	c #96B86F",
";%	c #738764",
">%	c #2F3128",
",%	c #20181C",
"'%	c #595F5E",
")%	c #BCE0AD",
"!%	c #CAEEA3",
"~%	c #CEF2A0",
"{%	c #CFF59A",
"]%	c #CFF595",
"^%	c #CCF393",
"/%	c #AFD97B",
"(%	c #84A353",
"_%	c #9FC567",
":%	c #B7E07A",
"<%	c #BAE77A",
"[%	c #BCE97C",
"}%	c #BDE77C",
"|%	c #A4CB72",
"1%	c #BCD995",
"2%	c #C2DEA0",
"3%	c #9DB97C",
"4%	c #C0DD99",
"5%	c #C4E49B",
"6%	c #C5E59B",
"7%	c #A2C375",
"8%	c #2B2738",
"9%	c #56323D",
"0%	c #9A5953",
"a%	c #CD9174",
"b%	c #CD906F",
"c%	c #CC9172",
"d%	c #CA8E71",
"e%	c #CB8E6F",
"f%	c #CC9173",
"g%	c #CA9174",
"h%	c #D39C7E",
"i%	c #CB9276",
"j%	c #CF9073",
"k%	c #D09677",
"l%	c #CA8B70",
"m%	c #CB8D6F",
"n%	c #A06056",
"o%	c #4C2531",
"p%	c #2C2536",
"q%	c #E1F8A9",
"r%	c #B4D283",
"s%	c #8AAE59",
"t%	c #8FB25D",
"u%	c #8FB25E",
"v%	c #8FB15D",
"w%	c #8EB05C",
"x%	c #93B463",
"y%	c #BFDD93",
"z%	c #C5E094",
"A%	c #A6C776",
"B%	c #98BF65",
"C%	c #A7CD6B",
"D%	c #ACD371",
"E%	c #ABD470",
"F%	c #ADD772",
"G%	c #B0D875",
"H%	c #B3D97E",
"I%	c #AAD27D",
"J%	c #A9CD82",
"K%	c #789262",
"L%	c #373F2C",
"M%	c #232224",
"N%	c #8EAB94",
"O%	c #B2D498",
"P%	c #B7DD93",
"Q%	c #C5EA9D",
"R%	c #CAED9C",
"S%	c #C9EC97",
"T%	c #C3E98E",
"U%	c #9EC46B",
"V%	c #A9CF72",
"W%	c #B3DC78",
"X%	c #BAE67C",
"Y%	c #BEE97F",
"Z%	c #BEE881",
"`%	c #ACD479",
" &	c #8CAF5E",
".&	c #8CAF60",
"+&	c #8DB162",
"@&	c #8DB160",
"#&	c #8FB361",
"$&	c #90B462",
"%&	c #48364C",
"&&	c #764A4C",
"*&	c #A86C5E",
"=&	c #D28F72",
"-&	c #CE9071",
";&	c #CC8C6F",
">&	c #D09577",
",&	c #D29A7D",
"'&	c #D1987A",
")&	c #CC9477",
"!&	c #CC9478",
"~&	c #EAB793",
"{&	c #CA9176",
"]&	c #D8A284",
"^&	c #D69F7F",
"/&	c #CB9174",
"(&	c #C98F73",
"_&	c #CB8E72",
":&	c #CD8D72",
"<&	c #9F564F",
"[&	c #77464C",
"}&	c #755E64",
"|&	c #66656B",
"1&	c #8AAE5B",
"2&	c #8EB25E",
"3&	c #8DB05C",
"4&	c #8BAF5B",
"5&	c #ACCA82",
"6&	c #DCF4AE",
"7&	c #D9EFA4",
"8&	c #CCE99A",
"9&	c #9CC06A",
"0&	c #A3CA6C",
"a&	c #ACD373",
"b&	c #AAD373",
"c&	c #ABD474",
"d&	c #B3DA7B",
"e&	c #BDE489",
"f&	c #BBE289",
"g&	c #B7E286",
"h&	c #B1DF84",
"i&	c #92BC7C",
"j&	c #283125",
"k&	c #3F4A50",
"l&	c #99AF9C",
"m&	c #ABCB9E",
"n&	c #ACD190",
"o&	c #B2D48E",
"p&	c #AFD189",
"q&	c #B0D47F",
"r&	c #A0C56F",
"s&	c #9CC169",
"t&	c #ACD374",
"u&	c #B8E17E",
"v&	c #BFE884",
"w&	c #BEE683",
"x&	c #AED378",
"y&	c #94B863",
"z&	c #776B70",
"A&	c #8F555A",
"B&	c #542B40",
"C&	c #413945",
"D&	c #4A4652",
"E&	c #976557",
"F&	c #C5826B",
"G&	c #C98A6E",
"H&	c #CD8D71",
"I&	c #D09173",
"J&	c #CD9074",
"K&	c #D79F81",
"L&	c #E0AB89",
"M&	c #DFAA88",
"N&	c #D79E82",
"O&	c #E0AD8B",
"P&	c #CF967A",
"Q&	c #D39B7E",
"R&	c #DCA785",
"S&	c #CD9477",
"T&	c #C99174",
"U&	c #CA9275",
"V&	c #CB9377",
"W&	c #BF7C68",
"X&	c #BC7766",
"Y&	c #9F645A",
"Z&	c #794645",
"`&	c #743D44",
" *	c #723E44",
".*	c #9F6963",
"+*	c #3B3141",
"@*	c #88AD5A",
"#*	c #A8C97D",
"$*	c #D6F3A7",
"%*	c #D9F1A4",
"&*	c #D5F0A2",
"**	c #A3C573",
"=*	c #9BC26B",
"-*	c #A2C96F",
";*	c #A0C76E",
">*	c #9AC269",
",*	c #AAD179",
"'*	c #BCE38B",
")*	c #B9E189",
"!*	c #B7E188",
"~*	c #B7E288",
"{*	c #9DCD81",
"]*	c #40573B",
"^*	c #66675B",
"/*	c #262B31",
"(*	c #3C4844",
"_*	c #6B8461",
":*	c #82A366",
"<*	c #8CB262",
"[*	c #8BB258",
"}*	c #8CB359",
"|*	c #93B862",
"1*	c #9DC46A",
"2*	c #9FC76A",
"3*	c #A2C86A",
"4*	c #9FC467",
"5*	c #99BF64",
"6*	c #797B87",
"7*	c #402233",
"8*	c #874E51",
"9*	c #A1655E",
"0*	c #966055",
"a*	c #99695C",
"b*	c #CD8E71",
"c*	c #C88A6F",
"d*	c #CA8D70",
"e*	c #CD9072",
"f*	c #D29577",
"g*	c #CF9578",
"h*	c #D49C7C",
"i*	c #DEA886",
"j*	c #E1AA87",
"k*	c #DDAA87",
"l*	c #DEAA85",
"m*	c #DAA382",
"n*	c #D9A380",
"o*	c #D69F7C",
"p*	c #C99073",
"q*	c #C99375",
"r*	c #CB9476",
"s*	c #CC9578",
"t*	c #CD9377",
"u*	c #C98B71",
"v*	c #C7876E",
"w*	c #C0826A",
"x*	c #BD836A",
"y*	c #AD645E",
"z*	c #8D4A51",
"A*	c #372F3F",
"B*	c #8AB05D",
"C*	c #8FB562",
"D*	c #B4D686",
"E*	c #C4DF91",
"F*	c #BAD889",
"G*	c #93B665",
"H*	c #96BC68",
"I*	c #95BC66",
"J*	c #94BB66",
"K*	c #91B864",
"L*	c #96BD6C",
"M*	c #B3DA89",
"N*	c #B6DE8B",
"O*	c #B7E08D",
"P*	c #A8D184",
"Q*	c #77A464",
"R*	c #3D5D40",
"S*	c #989684",
"T*	c #17161F",
"U*	c #303F2B",
"V*	c #668554",
"W*	c #759B51",
"X*	c #8AB35A",
"Y*	c #8AB358",
"Z*	c #8BB459",
"`*	c #91B85F",
" =	c #91B960",
".=	c #90B860",
"+=	c #91B65E",
"@=	c #94BA62",
"#=	c #94BB63",
"$=	c #94BB64",
"%=	c #5F5E68",
"&=	c #47293C",
"*=	c #8D5451",
"==	c #C1846E",
"-=	c #CB9176",
";=	c #C98C72",
">=	c #CF9275",
",=	c #CD9375",
"'=	c #D7997B",
")=	c #E7AC85",
"!=	c #DDA582",
"~=	c #DAA280",
"{=	c #DDA583",
"]=	c #E0AE8A",
"^=	c #DEA983",
"/=	c #DFA986",
"(=	c #D29779",
"_=	c #DAA480",
":=	c #D49B7B",
"<=	c #C89073",
"[=	c #CA9375",
"}=	c #CD9578",
"|=	c #CE9376",
"1=	c #CE9273",
"2=	c #C98C73",
"3=	c #AE6F61",
"4=	c #723C4C",
"5=	c #685963",
"6=	c #90B461",
"7=	c #8EB561",
"8=	c #8EB560",
"9=	c #8EB75F",
"0=	c #8FB860",
"a=	c #90B862",
"b=	c #93B966",
"c=	c #91BA66",
"d=	c #8EB762",
"e=	c #86AE63",
"f=	c #81A860",
"g=	c #84AB64",
"h=	c #85AB69",
"i=	c #799E63",
"j=	c #64885B",
"k=	c #384C37",
"l=	c #423F3C",
"m=	c #181E25",
"n=	c #6E925D",
"o=	c #81AC60",
"p=	c #85AE5D",
"q=	c #8CB75C",
"r=	c #8EB85D",
"s=	c #91B961",
"t=	c #91B862",
"u=	c #90B961",
"v=	c #8FB861",
"w=	c #89B25C",
"x=	c #8EB562",
"y=	c #8FB563",
"z=	c #7D838A",
"A=	c #452B3C",
"B=	c #945852",
"C=	c #C8866C",
"D=	c #CC9275",
"E=	c #CB8F74",
"F=	c #CC9175",
"G=	c #CE9276",
"H=	c #CC9377",
"I=	c #E1A984",
"J=	c #DEA784",
"K=	c #D89F7C",
"L=	c #D59D80",
"M=	c #CB9277",
"N=	c #D19779",
"O=	c #D7A17E",
"P=	c #D19A79",
"Q=	c #C99074",
"R=	c #C89074",
"S=	c #C79075",
"T=	c #C99277",
"U=	c #CA9277",
"V=	c #CC9376",
"W=	c #CD9376",
"X=	c #CD9679",
"Y=	c #B37164",
"Z=	c #8C4E57",
"`=	c #492F42",
" -	c #90B562",
".-	c #8CB562",
"+-	c #8DB663",
"@-	c #8DB562",
"#-	c #90B865",
"$-	c #8EB664",
"%-	c #8EB665",
"&-	c #89B363",
"*-	c #85AE62",
"=-	c #80A661",
"--	c #75995B",
";-	c #59734F",
">-	c #1A1F17",
",-	c #232022",
"'-	c #172228",
")-	c #729865",
"!-	c #85AF61",
"~-	c #86AF5E",
"{-	c #89B15C",
"]-	c #8CB35E",
"^-	c #8BB25D",
"/-	c #95BD68",
"(-	c #92BD6B",
"_-	c #90BB68",
":-	c #7BA459",
"<-	c #83AC5E",
"[-	c #798490",
"}-	c #42263A",
"|-	c #9D5E59",
"1-	c #C68669",
"2-	c #CC8D6E",
"3-	c #CB8F73",
"4-	c #C98C71",
"5-	c #C98D72",
"6-	c #CF8F73",
"7-	c #CF9579",
"8-	c #C4856E",
"9-	c #D49A7C",
"0-	c #D39C7A",
"a-	c #CE9779",
"b-	c #D0977A",
"c-	c #C99076",
"d-	c #D8A687",
"e-	c #CA8F76",
"f-	c #CB9275",
"g-	c #C78E73",
"h-	c #C68F73",
"i-	c #C68E73",
"j-	c #C68F74",
"k-	c #C78D73",
"l-	c #CA9074",
"m-	c #CE9477",
"n-	c #CE9377",
"o-	c #C58770",
"p-	c #873F4A",
"q-	c #502F42",
"r-	c #8BB262",
"s-	c #8CB263",
"t-	c #8AB061",
"u-	c #8AB063",
"v-	c #89B063",
"w-	c #89AE63",
"x-	c #88AE61",
"y-	c #8DB664",
"z-	c #8CB665",
"A-	c #8BB665",
"B-	c #88B263",
"C-	c #86B063",
"D-	c #85AF67",
"E-	c #82AA69",
"F-	c #6F9060",
"G-	c #1F251C",
"H-	c #211F22",
"I-	c #18232B",
"J-	c #6E9269",
"K-	c #789F5F",
"L-	c #8AB261",
"M-	c #89B05E",
"N-	c #81A855",
"O-	c #99C16E",
"P-	c #95BF6F",
"Q-	c #93BE6D",
"R-	c #83AC63",
"S-	c #4B4F56",
"T-	c #4D2F45",
"U-	c #84464C",
"V-	c #B6695E",
"W-	c #C0846E",
"X-	c #CB8F72",
"Y-	c #C78A73",
"Z-	c #C5846D",
"`-	c #C3876F",
" ;	c #C3816B",
".;	c #C4826A",
"+;	c #C78B72",
"@;	c #BB7967",
"#;	c #D49D7E",
"$;	c #D29D7C",
"%;	c #CE987A",
"&;	c #CF987A",
"*;	c #D2A285",
"=;	c #D0A084",
"-;	c #CE997B",
";;	c #C99173",
">;	c #C78E72",
",;	c #BC846D",
"';	c #CFAB95",
");	c #CB9D88",
"!;	c #CD957B",
"~;	c #D7A786",
"{;	c #C78A71",
"];	c #C88E75",
"^;	c #CB9375",
"/;	c #AC6C60",
"(;	c #853F4B",
"_;	c #684E59",
":;	c #17162C",
"<;	c #82A45C",
"[;	c #86A95F",
"};	c #B0D287",
"|;	c #B1D58B",
"1;	c #8CB46B",
"2;	c #79A55A",
"3;	c #88B162",
"4;	c #8BB566",
"5;	c #88B265",
"6;	c #85B064",
"7;	c #85B063",
"8;	c #84AD65",
"9;	c #81A966",
"0;	c #729562",
"a;	c #1E241C",
"b;	c #1F1E21",
"c;	c #19232D",
"d;	c #60845E",
"e;	c #779D5C",
"f;	c #8CB468",
"g;	c #90BA62",
"h;	c #8AB45C",
"i;	c #85AF59",
"j;	c #8CB45F",
"k;	c #95BD6B",
"l;	c #92BB6B",
"m;	c #92BB6C",
"n;	c #9C7775",
"o;	c #AC7666",
"p;	c #B27767",
"q;	c #B96F5E",
"r;	c #C07963",
"s;	c #C88C71",
"t;	c #C28871",
"u;	c #DCC2AF",
"v;	c #CA8B7B",
"w;	c #E7D3BA",
"x;	c #CEA491",
"y;	c #B87463",
"z;	c #A76357",
"A;	c #C58A70",
"B;	c #C88E72",
"C;	c #CB9579",
"D;	c #CF9879",
"E;	c #CF9778",
"F;	c #D8A685",
"G;	c #B87D68",
"H;	c #C48C71",
"I;	c #C79B85",
"J;	c #DEC4AD",
"K;	c #EDE0C6",
"L;	c #D0AF9D",
"M;	c #E5CFB9",
"N;	c #E0B99C",
"O;	c #BF8D7C",
"P;	c #DAB79D",
"Q;	c #C88A71",
"R;	c #D0987D",
"S;	c #BD7E69",
"T;	c #CE9378",
"U;	c #BB7C6A",
"V;	c #B37869",
"W;	c #A2685D",
"X;	c #8B7274",
"Y;	c #52525C",
"Z;	c #D0EDA1",
"`;	c #CDEB99",
" >	c #C0E291",
".>	c #79A156",
"+>	c #8AB367",
"@>	c #87B265",
"#>	c #85B066",
"$>	c #82AD65",
"%>	c #81AB65",
"&>	c #7FA965",
"*>	c #719564",
"=>	c #1D241D",
"->	c #1A1A1E",
";>	c #17212C",
">>	c #648A5D",
",>	c #93BD6F",
"'>	c #97C06A",
")>	c #94BF61",
"!>	c #8DBA5C",
"~>	c #88B35A",
"{>	c #87B05A",
"]>	c #8BB361",
"^>	c #8DB566",
"/>	c #676872",
"(>	c #5D3940",
"_>	c #7E5B54",
":>	c #A0655A",
"<>	c #CC8C6D",
"[>	c #C27C62",
"}>	c #AE6E61",
"|>	c #C59684",
"1>	c #F5EAD4",
"2>	c #E7D6BF",
"3>	c #F7EFD6",
"4>	c #E3CEB8",
"5>	c #BB7C6E",
"6>	c #663840",
"7>	c #B57565",
"8>	c #C4856B",
"9>	c #C58B6F",
"0>	c #CE9575",
"a>	c #CF9777",
"b>	c #BA806E",
"c>	c #CC967C",
"d>	c #B37064",
"e>	c #B17264",
"f>	c #CEB0A0",
"g>	c #ECDECA",
"h>	c #EBDEC8",
"i>	c #ECDFC9",
"j>	c #F7F0D9",
"k>	c #E9D9C5",
"l>	c #C69482",
"m>	c #C69985",
"n>	c #BE7F68",
"o>	c #D4997B",
"p>	c #CF9173",
"q>	c #BF806C",
"r>	c #B17B68",
"s>	c #734947",
"t>	c #462639",
"u>	c #777A80",
"v>	c #CBEAA0",
"w>	c #C9EA99",
"x>	c #BADD8E",
"y>	c #82AB60",
"z>	c #86B164",
"A>	c #84AE64",
"B>	c #82AB65",
"C>	c #7FA966",
"D>	c #7EA866",
"E>	c #7CA765",
"F>	c #6D9263",
"G>	c #1B221C",
"H>	c #16151B",
"I>	c #171F2C",
"J>	c #6E9562",
"K>	c #97C370",
"L>	c #93BC67",
"M>	c #91BA63",
"N>	c #8BB75E",
"O>	c #88B15B",
"P>	c #86AE5B",
"Q>	c #88B05E",
"R>	c #89B162",
"S>	c #8AB262",
"T>	c #656B75",
"U>	c #905657",
"V>	c #B26C5E",
"W>	c #BD7864",
"X>	c #CD9F8C",
"Y>	c #ECDAC2",
"Z>	c #F3E6CE",
"`>	c #FBF3DA",
" ,	c #FCF4DC",
".,	c #FAF3DB",
"+,	c #E1CEBB",
"@,	c #C48777",
"#,	c #3A1D33",
"$,	c #9D5254",
"%,	c #B57163",
"&,	c #C48B6F",
"*,	c #CE9876",
"=,	c #B87C67",
"-,	c #B77A6E",
";,	c #B37567",
">,	c #A35B58",
",,	c #8A5759",
"',	c #D5B4A1",
"),	c #F6ECD4",
"!,	c #FAF3DA",
"~,	c #FBF5DD",
"{,	c #FAF3DC",
"],	c #F1E4CE",
"^,	c #E2CCB6",
"/,	c #C28A77",
"(,	c #CE8E73",
"_,	c #D69978",
":,	c #B27568",
"<,	c #C49176",
"[,	c #985659",
"},	c #653344",
"|,	c #6A6D74",
"1,	c #81A660",
"2,	c #8BAE6A",
"3,	c #90B56F",
"4,	c #83AA60",
"5,	c #83AC61",
"6,	c #85AF63",
"7,	c #84AD62",
"8,	c #82AA63",
"9,	c #79A060",
"0,	c #779E63",
"a,	c #779F65",
"b,	c #769E64",
"c,	c #668A5D",
"d,	c #1B211B",
"e,	c #13131B",
"f,	c #171F2B",
"g,	c #61875E",
"h,	c #7BA661",
"i,	c #7FA85D",
"j,	c #84AC5C",
"k,	c #85AD5D",
"l,	c #88AE5E",
"m,	c #86AD5D",
"n,	c #87B05E",
"o,	c #606974",
"p,	c #2E1A30",
"q,	c #B26B5A",
"r,	c #B76A5C",
"s,	c #B67F76",
"t,	c #CDACA0",
"u,	c #ECDFCA",
"v,	c #FCF5DC",
"w,	c #FBF6DE",
"x,	c #F7F1DA",
"y,	c #E5B29C",
"z,	c #4E273F",
"A,	c #944A51",
"B,	c #9C555A",
"C,	c #B26F67",
"D,	c #B87366",
"E,	c #A85D59",
"F,	c #BC8173",
"G,	c #673945",
"H,	c #A85D58",
"I,	c #95817B",
"J,	c #F5E0C5",
"K,	c #FBF2D9",
"L,	c #FCF3DA",
"M,	c #FBF4DB",
"N,	c #FBF4DC",
"O,	c #F5EBD4",
"P,	c #E9D7C1",
"Q,	c #CEAC9C",
"R,	c #C37E6B",
"S,	c #CA8C72",
"T,	c #CA9479",
"U,	c #A35F5F",
"V,	c #92545B",
"W,	c #492338",
"X,	c #81A85E",
"Y,	c #7DA45E",
"Z,	c #789F5A",
"`,	c #799F59",
" '	c #7FA65C",
".'	c #84AC61",
"+'	c #84AC63",
"@'	c #84AA62",
"#'	c #799E61",
"$'	c #6E8F63",
"%'	c #6F8D65",
"&'	c #6C8C62",
"*'	c #698A5F",
"='	c #5B775A",
"-'	c #13131C",
";'	c #181F2C",
">'	c #517656",
",'	c #658F57",
"''	c #7AA25E",
")'	c #7FA759",
"!'	c #83AB5C",
"~'	c #87AD5F",
"{'	c #88AE60",
"]'	c #88AE5F",
"^'	c #87AE5F",
"/'	c #87AF5F",
"('	c #6B767F",
"_'	c #7E3B50",
":'	c #BE7866",
"<'	c #B38A81",
"['	c #E7DDCA",
"}'	c #E0CFBF",
"|'	c #FCF4DA",
"1'	c #FBF7DF",
"2'	c #FBF6E0",
"3'	c #FCF6DF",
"4'	c #FAF6DC",
"5'	c #B58582",
"6'	c #221330",
"7'	c #6D414D",
"8'	c #9F5C5E",
"9'	c #9D5053",
"0'	c #A95D5D",
"a'	c #5F394E",
"b'	c #361833",
"c'	c #603441",
"d'	c #CA9186",
"e'	c #F6DCC4",
"f'	c #FCF5DD",
"g'	c #FDF6DE",
"h'	c #FDF6E0",
"i'	c #FBF3DC",
"j'	c #EDE3CD",
"k'	c #EDE5D0",
"l'	c #E0B9A2",
"m'	c #BB7969",
"n'	c #AE7263",
"o'	c #C39073",
"p'	c #884655",
"q'	c #562E42",
"r'	c #2D2E3B",
"s'	c #7FA65B",
"t'	c #7DA55B",
"u'	c #7DA559",
"v'	c #7FA75C",
"w'	c #82AA62",
"x'	c #82A961",
"y'	c #789A62",
"z'	c #6C8B63",
"A'	c #688260",
"B'	c #627C5A",
"C'	c #5E7756",
"D'	c #4C5C4B",
"E'	c #212021",
"F'	c #161725",
"G'	c #171F32",
"H'	c #4A6658",
"I'	c #547856",
"J'	c #658C53",
"K'	c #779F59",
"L'	c #85AC61",
"M'	c #88AF60",
"N'	c #88B061",
"O'	c #301B31",
"P'	c #665257",
"Q'	c #736163",
"R'	c #4D404C",
"S'	c #8B4A4E",
"T'	c #9A5050",
"U'	c #A9706A",
"V'	c #E9D7C3",
"W'	c #FCF1D7",
"X'	c #F5E6CB",
"Y'	c #76717E",
"Z'	c #F5F0DC",
"`'	c #FDF6DF",
" )	c #FCF6DD",
".)	c #FBDFC7",
"+)	c #A85458",
"@)	c #864856",
"#)	c #6E394A",
"$)	c #94474D",
"%)	c #652F4A",
"&)	c #472642",
"*)	c #975056",
"=)	c #CA8B7C",
"-)	c #FADDC1",
";)	c #FDF5DC",
">)	c #FCF6DE",
",)	c #FCF7E1",
"')	c #827E7D",
"))	c #A06362",
"!)	c #FDF2D9",
"~)	c #FCF2D9",
"{)	c #FBF4DD",
"])	c #E7D6C3",
"^)	c #CA9A8C",
"/)	c #BD897E",
"()	c #C08972",
"_)	c #B07868",
":)	c #743F4C",
"<)	c #5A4E52",
"[)	c #766766",
"})	c #736565",
"|)	c #5B4255",
"1)	c #80A55E",
"2)	c #81A761",
"3)	c #81A963",
"4)	c #80A962",
"5)	c #7DA460",
"6)	c #779E5E",
"7)	c #72985A",
"8)	c #678653",
"9)	c #586D48",
"0)	c #242534",
"a)	c #202A39",
"b)	c #3B4F47",
"c)	c #4A6A4E",
"d)	c #698F58",
"e)	c #79A25D",
"f)	c #7AA25A",
"g)	c #7F7174",
"h)	c #C69282",
"i)	c #F7DBC1",
"j)	c #FDDEC2",
"k)	c #A99386",
"l)	c #8C494C",
"m)	c #B6867C",
"n)	c #C8A498",
"o)	c #FCF0D5",
"p)	c #FDEDCE",
"q)	c #FDE9C9",
"r)	c #E7C7AD",
"s)	c #A79D95",
"t)	c #EFE7D1",
"u)	c #FDF6DB",
"v)	c #EDC4AC",
"w)	c #B3716C",
"x)	c #6E3647",
"y)	c #613046",
"z)	c #5B2F48",
"A)	c #9D5155",
"B)	c #CD9280",
"C)	c #FCE0C3",
"D)	c #FDF5DB",
"E)	c #F1ECD7",
"F)	c #9C9793",
"G)	c #6A5C5D",
"H)	c #E8D8C1",
"I)	c #FDEDCF",
"J)	c #FCEFD3",
"K)	c #FCF1D8",
"L)	c #FBF5DF",
"M)	c #FAF0D9",
"N)	c #B1776B",
"O)	c #B47C68",
"P)	c #783F4C",
"Q)	c #C3A495",
"R)	c #FEDFC4",
"S)	c #FEE6C9",
"T)	c #FEE7C9",
"U)	c #B7867A",
"V)	c #746169",
"W)	c #80A660",
"X)	c #80A862",
"Y)	c #7FA861",
"Z)	c #7EA762",
"`)	c #7DA661",
" !	c #7AA35F",
".!	c #79A25F",
"+!	c #729C58",
"@!	c #678C4F",
"#!	c #5D7A4B",
"$!	c #1E1E2C",
"%!	c #364A43",
"&!	c #5F8359",
"*!	c #699159",
"=!	c #7AA361",
"-!	c #79A35A",
";!	c #694B53",
">!	c #CEA293",
",!	c #FAE7C8",
"'!	c #FBE6CB",
")!	c #F9E0C4",
"!!	c #A59588",
"~!	c #843D48",
"{!	c #EAD9C4",
"]!	c #FBF5DC",
"^!	c #FCEDD0",
"/!	c #FEEACB",
"(!	c #FEE9CA",
"_!	c #F1D1B6",
":!	c #A78076",
"<!	c #9F8B83",
"[!	c #D2CBBA",
"}!	c #FAF4DF",
"|!	c #FBEED6",
"1!	c #E6BCA5",
"2!	c #B27872",
"3!	c #964651",
"4!	c #A35259",
"5!	c #C58175",
"6!	c #FEE2C4",
"7!	c #FDF4D9",
"8!	c #F0ECD7",
"9!	c #A2A09A",
"0!	c #17102F",
"a!	c #B1A08E",
"b!	c #F4D9BA",
"c!	c #FEEBCA",
"d!	c #FDECCE",
"e!	c #FCEFD4",
"f!	c #FAF4DE",
"g!	c #F2E1C8",
"h!	c #CFA793",
"i!	c #B3655D",
"j!	c #7E444E",
"k!	c #C9B19F",
"l!	c #FCE1C2",
"m!	c #FBDFC1",
"n!	c #FDECCD",
"o!	c #FBE6CA",
"p!	c #CF9389",
"q!	c #765E6B",
"r!	c #7DA860",
"s!	c #7DA761",
"t!	c #7CA561",
"u!	c #7BA461",
"v!	c #78A15F",
"w!	c #6F9658",
"x!	c #638051",
"y!	c #404E35",
"z!	c #181624",
"A!	c #2E4438",
"B!	c #719D66",
"C!	c #739F5C",
"D!	c #78A35E",
"E!	c #78A35C",
"F!	c #777178",
"G!	c #AC8275",
"H!	c #F7DDBE",
"I!	c #F6DDC2",
"J!	c #DD8E86",
"K!	c #BB716A",
"L!	c #7C4B50",
"M!	c #854048",
"N!	c #A15E61",
"O!	c #EFE5D0",
"P!	c #FBF4DA",
"Q!	c #FDECD0",
"R!	c #FEEACA",
"S!	c #E4CAB1",
"T!	c #AF7669",
"U!	c #151034",
"V!	c #141132",
"W!	c #121130",
"X!	c #C6C1B9",
"Y!	c #F6DEC7",
"Z!	c #FDEFD5",
"`!	c #E7CAB2",
" ~	c #CE9786",
".~	c #D3A08C",
"+~	c #F5D5B6",
"@~	c #FEF0D2",
"#~	c #F7ECD2",
"$~	c #D6C8B5",
"%~	c #A29D92",
"&~	c #151031",
"*~	c #171434",
"=~	c #171431",
"-~	c #B78A79",
";~	c #F3D0B6",
">~	c #FEECCD",
",~	c #FCEDD1",
"'~	c #E5CDBA",
")~	c #B37269",
"!~	c #AF6860",
"~~	c #804B53",
"{~	c #9E625E",
"]~	c #C5796F",
"^~	c #C17570",
"/~	c #E6B9A5",
"(~	c #FEE5C9",
"_~	c #F3D8BE",
":~	c #AB6A65",
"<~	c #4B4F5E",
"[~	c #77A15E",
"}~	c #77A05E",
"|~	c #79A15F",
"1~	c #78A060",
"2~	c #6F955B",
"3~	c #638059",
"4~	c #2B302B",
"5~	c #161422",
"6~	c #273C35",
"7~	c #6F9A68",
"8~	c #729D5D",
"9~	c #77A25E",
"0~	c #78A25C",
"a~	c #93787A",
"b~	c #E0BBA4",
"c~	c #F5D9BD",
"d~	c #E09187",
"e~	c #A84353",
"f~	c #813446",
"g~	c #58243A",
"h~	c #AF9991",
"i~	c #D8C2B1",
"j~	c #F0E4CF",
"k~	c #FCE9CB",
"l~	c #D7BDA3",
"m~	c #7E595A",
"n~	c #13102F",
"o~	c #8E8E95",
"p~	c #C9C6C2",
"q~	c #C5C0B6",
"r~	c #201C34",
"s~	c #AB7C71",
"t~	c #E9CEB9",
"u~	c #FCDDBF",
"v~	c #FDE1C4",
"w~	c #FEE9C8",
"x~	c #F8E3C3",
"y~	c #C4A798",
"z~	c #6C3843",
"A~	c #1B1936",
"B~	c #9D9DA0",
"C~	c #C7C5C0",
"D~	c #676468",
"E~	c #14102F",
"F~	c #99625F",
"G~	c #C1B09B",
"H~	c #FDEACB",
"I~	c #FDEED4",
"J~	c #FBF5DE",
"K~	c #ECDCC9",
"L~	c #D5BBAD",
"M~	c #B47F74",
"N~	c #7E484F",
"O~	c #321434",
"P~	c #6D243E",
"Q~	c #7F2541",
"R~	c #9E4049",
"S~	c #E9B3A5",
"T~	c #FDEBCF",
"U~	c #D9B29F",
"V~	c #856469",
"W~	c #739D5D",
"X~	c #759E5D",
"Y~	c #779F5D",
"Z~	c #79A063",
"`~	c #769C65",
" {	c #6C8D6A",
".{	c #242F2D",
"+{	c #151422",
"@{	c #243834",
"#{	c #6B9665",
"${	c #77A263",
"%{	c #79A361",
"&{	c #759F5F",
"*{	c #90645F",
"={	c #F0C7AD",
"-{	c #EFBEA8",
";{	c #D06363",
">{	c #B8484E",
",{	c #A0424D",
"'{	c #4A233B",
"){	c #8E827E",
"!{	c #DCC9B8",
"~{	c #F7D2BB",
"{{	c #A0736D",
"]{	c #404E6F",
"^{	c #14112E",
"/{	c #B3B3B7",
"({	c #FBF9EA",
"_{	c #F9F6E2",
":{	c #77747D",
"<{	c #382239",
"[{	c #B38E85",
"}{	c #F9D7BB",
"|{	c #FEE7C7",
"1{	c #FDE6C6",
"2{	c #FEE4C2",
"3{	c #EFCCAC",
"4{	c #5B293C",
"5{	c #130F2A",
"6{	c #171632",
"7{	c #C4C6C7",
"8{	c #FBFAE9",
"9{	c #D9D7C9",
"0{	c #626066",
"a{	c #3A496D",
"b{	c #6E5C6F",
"c{	c #D9BEA7",
"d{	c #FDECD1",
"e{	c #EADEC7",
"f{	c #BE9683",
"g{	c #79444E",
"h{	c #1F102F",
"i{	c #953646",
"j{	c #BE4D51",
"k{	c #B24A50",
"l{	c #DA8882",
"m{	c #E8C7AF",
"n{	c #904D50",
"o{	c #656E76",
"p{	c #719A60",
"q{	c #6F9661",
"r{	c #7A9F67",
"s{	c #7CA16A",
"t{	c #698B60",
"u{	c #628164",
"v{	c #1F2C2E",
"w{	c #141422",
"x{	c #213632",
"y{	c #689362",
"z{	c #76A264",
"A{	c #77A064",
"B{	c #638B56",
"C{	c #8E5B58",
"D{	c #EEC4AA",
"E{	c #EEBBA6",
"F{	c #D96562",
"G{	c #CE5556",
"H{	c #B74855",
"I{	c #6E273D",
"J{	c #AF938F",
"K{	c #CCADA1",
"L{	c #DCC9BA",
"M{	c #FDF4DB",
"N{	c #F3C4B3",
"O{	c #935E71",
"P{	c #4A6B8D",
"Q{	c #131130",
"R{	c #54545D",
"S{	c #CFCAC5",
"T{	c #FAF9E9",
"U{	c #4F4D5B",
"V{	c #131030",
"W{	c #9A706E",
"X{	c #F8C7A9",
"Y{	c #FEDFBD",
"Z{	c #FDDEBD",
"`{	c #FDDBB9",
" ]	c #ECBFA5",
".]	c #4B607C",
"+]	c #13102E",
"@]	c #151230",
"#]	c #C0BFBD",
"$]	c #F9F8E6",
"%]	c #A8A6A1",
"&]	c #333240",
"*]	c #4F7294",
"=]	c #636B8A",
"-]	c #BA9683",
";]	c #FDE9CD",
">]	c #FBF7E2",
",]	c #DBC7BA",
"']	c #C29B91",
")]	c #A36A6C",
"!]	c #77424D",
"~]	c #672440",
"{]	c #A83E4B",
"]]	c #CD5A5A",
"^]	c #D3615F",
"/]	c #D77F79",
"(]	c #FFEAC9",
"_]	c #E7C4AD",
":]	c #8B494D",
"<]	c #636C73",
"[]	c #729B66",
"}]	c #4E6F4F",
"|]	c #709168",
"1]	c #7EA36F",
"2]	c #60825F",
"3]	c #4B6452",
"4]	c #1B2326",
"5]	c #141423",
"6]	c #203532",
"7]	c #639268",
"8]	c #6E9960",
"9]	c #5C8157",
"0]	c #8C5A5A",
"a]	c #E7BEA7",
"b]	c #FDE9CC",
"c]	c #E4A092",
"d]	c #D05E5D",
"e]	c #C04F55",
"f]	c #75283D",
"g]	c #23152E",
"h]	c #43263C",
"i]	c #E9D1C0",
"j]	c #FDF7E1",
"k]	c #F2C7B7",
"l]	c #AF9EB3",
"m]	c #7A9EB9",
"n]	c #131134",
"o]	c #13112E",
"p]	c #404B61",
"q]	c #B199A5",
"r]	c #F6B59E",
"s]	c #F7BFAA",
"t]	c #F9C0AA",
"u]	c #F0BCA8",
"v]	c #5B7795",
"w]	c #1D1F3F",
"x]	c #15122F",
"y]	c #12102F",
"z]	c #100F2C",
"A]	c #628EB4",
"B]	c #7196B8",
"C]	c #BA8F7E",
"D]	c #FCE4CB",
"E]	c #FBF9E4",
"F]	c #DDCDBE",
"G]	c #BD968D",
"H]	c #9C545B",
"I]	c #6C3948",
"J]	c #8C3949",
"K]	c #C7545B",
"L]	c #CE5C5E",
"M]	c #D56662",
"N]	c #E69084",
"O]	c #FFEDC9",
"P]	c #DFC0A9",
"Q]	c #7D404D",
"R]	c #646C72",
"S]	c #75A06C",
"T]	c #3B5C4A",
"U]	c #496450",
"V]	c #779A71",
"W]	c #678D66",
"X]	c #4F6F5A",
"Y]	c #191D22",
"Z]	c #141424",
"`]	c #1F3435",
" ^	c #5E8D69",
".^	c #64925E",
"+^	c #659060",
"@^	c #59825B",
"#^	c #724C59",
"$^	c #B56A5F",
"%^	c #EECBB4",
"&^	c #F6D2B7",
"*^	c #E28478",
"=^	c #D3635F",
"-^	c #8B3E47",
";^	c #572441",
">^	c #A0565A",
",^	c #BE928D",
"'^	c #E7D8C8",
")^	c #F6D7C4",
"!^	c #DAC0BF",
"~^	c #C9D9DC",
"{^	c #6283A2",
"]^	c #2A3752",
"^^	c #13112D",
"/^	c #11102E",
"(^	c #314058",
"_^	c #9AA6BB",
":^	c #CDC0B8",
"<^	c #F2D9B8",
"[^	c #F1DBB9",
"}^	c #EED9B9",
"|^	c #E9D8B9",
"1^	c #F7E1C5",
"2^	c #93A1BC",
"3^	c #6E91A9",
"4^	c #313B59",
"5^	c #171C3A",
"6^	c #110F2D",
"7^	c #32384C",
"8^	c #5579A0",
"9^	c #9EC0D9",
"0^	c #F2E3DB",
"a^	c #E9C2AE",
"b^	c #FCF6E0",
"c^	c #DFCDC0",
"d^	c #C09B92",
"e^	c #A75A59",
"f^	c #8E4B50",
"g^	c #3E1F3B",
"h^	c #A14B50",
"i^	c #D76561",
"j^	c #D96B62",
"k^	c #DB8579",
"l^	c #FEEECC",
"m^	c #EBAB91",
"n^	c #A36669",
"o^	c #403F4A",
"p^	c #6B995D",
"q^	c #6F9C67",
"r^	c #385747",
"s^	c #354F45",
"t^	c #6A8C6B",
"u^	c #6B926B",
"v^	c #557762",
"w^	c #131525",
"x^	c #21373A",
"y^	c #598969",
"z^	c #5F905F",
"A^	c #5C8C5F",
"B^	c #56855D",
"C^	c #5B865A",
"D^	c #70353E",
"E^	c #CAA28B",
"F^	c #FAE7C9",
"G^	c #F9C4AA",
"H^	c #E49789",
"I^	c #925053",
"J^	c #622B3C",
"K^	c #924C50",
"L^	c #EEE2CA",
"M^	c #F5ECD8",
"N^	c #F9E7D1",
"O^	c #FBB7A8",
"P^	c #F7D9CD",
"Q^	c #B3C7D4",
"R^	c #90A3B5",
"S^	c #516176",
"T^	c #4C5C71",
"U^	c #97AABC",
"V^	c #EED7CF",
"W^	c #F8CEB6",
"X^	c #C7B9A4",
"Y^	c #C9A089",
"Z^	c #AB8878",
"`^	c #7E7369",
" /	c #FAEED6",
"./	c #EEC0B8",
"+/	c #BFBDC5",
"@/	c #7D93AF",
"#/	c #4F6B87",
"$/	c #445B6F",
"%/	c #8A99A6",
"&/	c #AFC9DC",
"*/	c #F9E3DD",
"=/	c #F6A79B",
"-/	c #F2D3BE",
";/	c #F6F0DB",
">/	c #EEE7D3",
",/	c #A95A59",
"'/	c #763847",
")/	c #673646",
"!/	c #C36763",
"~/	c #E58579",
"{/	c #EAA18F",
"]/	c #F9E2C0",
"^/	c #E9CEB3",
"//	c #9F585E",
"(/	c #696673",
"_/	c #6B9B61",
":/	c #67975E",
"</	c #689562",
"[/	c #3C5C4C",
"}/	c #304C47",
"|/	c #597C63",
"1/	c #66916B",
"2/	c #547863",
"3/	c #161F22",
"4/	c #121527",
"5/	c #1F393B",
"6/	c #508566",
"7/	c #54875F",
"8/	c #517B60",
"9/	c #39594A",
"0/	c #30453D",
"a/	c #384E3F",
"b/	c #9F6F6D",
"c/	c #DCB19D",
"d/	c #F8DABB",
"e/	c #FADCBC",
"f/	c #BF8D7F",
"g/	c #4E283C",
"h/	c #884147",
"i/	c #A47172",
"j/	c #E7DBCD",
"k/	c #FCCCBA",
"l/	c #FAA196",
"m/	c #F8D2C3",
"n/	c #E4C4BF",
"o/	c #C6ABB4",
"p/	c #C1A7B0",
"q/	c #F0D3C9",
"r/	c #F5C9B1",
"s/	c #FDEDCC",
"t/	c #FFEBCC",
"u/	c #FEEDCE",
"v/	c #FEEBCB",
"w/	c #FCE6CA",
"x/	c #EBC2B6",
"y/	c #D3B6B9",
"z/	c #BDACB6",
"A/	c #BAACB6",
"B/	c #E4C9C6",
"C/	c #F8DACF",
"D/	c #F89890",
"E/	c #F9C0AF",
"F/	c #EEE6D4",
"G/	c #D9C2B3",
"H/	c #B37470",
"I/	c #A05355",
"J/	c #743B45",
"K/	c #975251",
"L/	c #ECA28E",
"M/	c #F7CBB0",
"N/	c #FDE8C5",
"O/	c #F5DABC",
"P/	c #9A6468",
"Q/	c #4F4A5C",
"R/	c #6C9A65",
"S/	c #6A9963",
"T/	c #679660",
"U/	c #618E62",
"V/	c #3A5F50",
"W/	c #2F4E4C",
"X/	c #496E5B",
"Y/	c #64916E",
"Z/	c #557A66",
"`/	c #151F23",
" (	c #1C3939",
".(	c #427B62",
"+(	c #3E7059",
"@(	c #294546",
"#(	c #1A253D",
"$(	c #466054",
"%(	c #88AE7D",
"&(	c #788486",
"*(	c #8B5965",
"=(	c #CE9084",
"-(	c #E1AB98",
";(	c #D99188",
">(	c #954954",
",(	c #3E283D",
"'(	c #C1BCBD",
")(	c #ECE9D8",
"!(	c #EFE9D6",
"~(	c #FBDCC7",
"{(	c #F9A79E",
"](	c #FA9B96",
"^(	c #F89C93",
"/(	c #F49C95",
"((	c #F4BEAA",
"_(	c #F2C3AD",
":(	c #FFEDCB",
"<(	c #FEEED0",
"[(	c #DED3BB",
"}(	c #BAB3A3",
"|(	c #B5AEA0",
"1(	c #F0E2C7",
"2(	c #FDEBCD",
"3(	c #FAE0C5",
"4(	c #F5C7B1",
"5(	c #EEB8A9",
"6(	c #ECA199",
"7(	c #F69C97",
"8(	c #F79991",
"9(	c #F69F95",
"0(	c #FCCDBC",
"a(	c #FAF6E1",
"b(	c #FAF7E4",
"c(	c #FBF7E4",
"d(	c #D6C2B5",
"e(	c #6D3341",
"f(	c #5A2D3F",
"g(	c #A65D60",
"h(	c #E7A793",
"i(	c #EABFA7",
"j(	c #EABCA5",
"k(	c #AD8075",
"l(	c #6B6C73",
"m(	c #648F5F",
"n(	c #669063",
"o(	c #669565",
"p(	c #659465",
"q(	c #527E5E",
"r(	c #375F54",
"s(	c #305452",
"t(	c #3E6458",
"u(	c #5B866B",
"v(	c #476B5B",
"w(	c #161E25",
"x(	c #121526",
"y(	c #1E3A3B",
"z(	c #3C7364",
"A(	c #315250",
"B(	c #212C40",
"C(	c #456261",
"D(	c #709C79",
"E(	c #91C57F",
"F(	c #94C77B",
"G(	c #86B96E",
"H(	c #7E4755",
"I(	c #81434F",
"J(	c #81444D",
"K(	c #793C4B",
"L(	c #261731",
"M(	c #CDBAB4",
"N(	c #D0BFB1",
"O(	c #E9E1CE",
"P(	c #FCF4DD",
"Q(	c #FADFCC",
"R(	c #F59794",
"S(	c #F59792",
"T(	c #F8B5A3",
"U(	c #FCDFC0",
"V(	c #FEE8C7",
"W(	c #E0D4BC",
"X(	c #B9AA9E",
"Y(	c #C7B5A3",
"Z(	c #C8BCAA",
"`(	c #ABA096",
" _	c #FDECCF",
"._	c #FDEBCC",
"+_	c #FEEACC",
"@_	c #FADCC1",
"#_	c #F6B3A4",
"$_	c #F79C96",
"%_	c #F49E95",
"&_	c #F7AD9E",
"*_	c #FBE8D3",
"=_	c #EDE7D5",
"-_	c #E8DBC8",
";_	c #E4D4C3",
">_	c #E1D1C1",
",_	c #B1AA9E",
"'_	c #2B1731",
")_	c #693D4C",
"!_	c #834F55",
"~_	c #825056",
"{_	c #885357",
"]_	c #543142",
"^_	c #618B5F",
"/_	c #59815C",
"(_	c #577E5F",
"__	c #598261",
":_	c #567D62",
"<_	c #22433E",
"[_	c #315C5A",
"}_	c #315C5C",
"|_	c #345E58",
"1_	c #3F6A60",
"2_	c #406258",
"3_	c #111325",
"4_	c #192935",
"5_	c #253F46",
"6_	c #172038",
"7_	c #334D4C",
"8_	c #629474",
"9_	c #72AA7D",
"0_	c #82B67C",
"a_	c #8CBF7B",
"b_	c #85B875",
"c_	c #5B8562",
"d_	c #4A6F5C",
"e_	c #426355",
"f_	c #304848",
"g_	c #2E273C",
"h_	c #785B61",
"i_	c #C5A59D",
"j_	c #D5C1B4",
"k_	c #E1CEBE",
"l_	c #F7F2DC",
"m_	c #FBE5D3",
"n_	c #FBD9C4",
"o_	c #FDDDC1",
"p_	c #FEE3C3",
"q_	c #FDE5C5",
"r_	c #FDE4C5",
"s_	c #EAC1A8",
"t_	c #E9CAAE",
"u_	c #DCCAB4",
"v_	c #7A746F",
"w_	c #FDE8C9",
"x_	c #FDE6C7",
"y_	c #FDE5C6",
"z_	c #FBD8BD",
"A_	c #FCCCB4",
"B_	c #FBDBC2",
"C_	c #FCE8D2",
"D_	c #F5F1DD",
"E_	c #D0BFB3",
"F_	c #CFB5A7",
"G_	c #CAAD9F",
"H_	c #BE8C87",
"I_	c #AE8983",
"J_	c #434157",
"K_	c #79798D",
"L_	c #669061",
"M_	c #658E60",
"N_	c #628D61",
"O_	c #5E8A60",
"P_	c #59855E",
"Q_	c #537F5F",
"R_	c #517D61",
"S_	c #51805E",
"T_	c #4A7661",
"U_	c #25454C",
"V_	c #325D5F",
"W_	c #305F5C",
"X_	c #2F5F58",
"Y_	c #346459",
"Z_	c #426A5F",
"`_	c #132026",
" :	c #151726",
".:	c #10121E",
"+:	c #111323",
"@:	c #1D2E37",
"#:	c #517E71",
"$:	c #5E9376",
"%:	c #629C75",
"&:	c #6C9F79",
"*:	c #6A9F6D",
"=:	c #7EB374",
"-:	c #49735A",
";:	c #20313E",
">:	c #1A2938",
",:	c #425F5C",
"':	c #443F4D",
"):	c #695360",
"!:	c #957B7B",
"~:	c #917B7A",
"{:	c #E1CDB3",
"]:	c #DCCBBA",
"^:	c #FCF8E6",
"/:	c #FBF7E3",
"(:	c #FCF6E2",
"_:	c #F8DCC3",
"::	c #FDE2C1",
"<:	c #FCDEBE",
"[:	c #FDE5C4",
"}:	c #FEE8C9",
"|:	c #FEE9CB",
"1:	c #E6D4BA",
"2:	c #FCE7C9",
"3:	c #FDE7C7",
"4:	c #FCE4C3",
"5:	c #FCE0C0",
"6:	c #FBE9D0",
"7:	c #FBF6E2",
"8:	c #F4EFDA",
"9:	c #DDCEC6",
"0:	c #E5DCCC",
"a:	c #CAACA2",
"b:	c #8B7474",
"c:	c #543949",
"d:	c #4B3346",
"e:	c #343347",
"f:	c #668D63",
"g:	c #648E63",
"h:	c #628D62",
"i:	c #5F8964",
"j:	c #5E8865",
"k:	c #588262",
"l:	c #517D62",
"m:	c #4D7B5F",
"n:	c #4B7D5D",
"o:	c #417260",
"p:	c #21474A",
"q:	c #305F5D",
"r:	c #31615B",
"s:	c #2E615B",
"t:	c #30625A",
"u:	c #38695F",
"v:	c #0F1F28",
"w:	c #212329",
"x:	c #101120",
"y:	c #131E28",
"z:	c #3E625D",
"A:	c #CED7CD",
"B:	c #4F846E",
"C:	c #4F876D",
"D:	c #4F8069",
"E:	c #4F8264",
"F:	c #76A679",
"G:	c #2F4B42",
"H:	c #1A3140",
"I:	c #35524E",
"J:	c #578D72",
"K:	c #4E7D68",
"L:	c #696972",
"M:	c #4E4F5B",
"N:	c #8C777A",
"O:	c #B59D97",
"P:	c #B8A29D",
"Q:	c #CDADA2",
"R:	c #CFB4A9",
"S:	c #E6DACA",
"T:	c #F2EEDB",
"U:	c #F6C9B4",
"V:	c #F8D7B9",
"W:	c #FCE2C1",
"X:	c #FEE5C7",
"Y:	c #FEE7C8",
"Z:	c #FDE7C8",
"`:	c #FCE6C6",
" <	c #FAE2C3",
".<	c #F8D8B9",
"+<	c #F4DDC3",
"@<	c #ECE2CD",
"#<	c #D4C0B4",
"$<	c #E7DFCE",
"%<	c #E2D5C1",
"&<	c #C5ABA4",
"*<	c #BAA29B",
"=<	c #7F7171",
"-<	c #1E1432",
";<	c #63626D",
"><	c #71737C",
",<	c #648B67",
"'<	c #628A64",
")<	c #5E8A67",
"!<	c #405D49",
"~<	c #33473D",
"{<	c #80605F",
"]<	c #8F796D",
"^<	c #8D7467",
"/<	c #876D61",
"(<	c #745250",
"_<	c #503C4B",
":<	c #1C4146",
"<<	c #2D5C5A",
"[<	c #305E59",
"}<	c #34605D",
"|<	c #2E5A58",
"1<	c #254B4C",
"2<	c #0D1B29",
"3<	c #191A29",
"4<	c #0F1124",
"5<	c #243D40",
"6<	c #3E6C62",
"7<	c #417667",
"8<	c #427869",
"9<	c #417468",
"0<	c #417166",
"a<	c #457767",
"b<	c #517764",
"c<	c #122131",
"d<	c #254446",
"e<	c #4D7E72",
"f<	c #528A70",
"g<	c #588E70",
"h<	c #3A6058",
"i<	c #3C5C51",
"j<	c #5F8861",
"k<	c #302C40",
"l<	c #4E344F",
"m<	c #AD9288",
"n<	c #BAA39C",
"o<	c #CBB1A8",
"p<	c #CAB3A9",
"q<	c #E9DFCF",
"r<	c #E2A89C",
"s<	c #EFC3AA",
"t<	c #F5CDB1",
"u<	c #F7D1B5",
"v<	c #F8D4B8",
"w<	c #F7D4B8",
"x<	c #F6D3B7",
"y<	c #F3CFB3",
"z<	c #EAC2AA",
"A<	c #E2B4A5",
"B<	c #D8C4B7",
"C<	c #C8AEA7",
"D<	c #C7B0A9",
"E<	c #C6AEA8",
"F<	c #AA948F",
"G<	c #907F80",
"H<	c #1C1433",
"I<	c #383548",
"J<	c #453F50",
"K<	c #5A8266",
"L<	c #5C8665",
"M<	c #5D8764",
"N<	c #5C8763",
"O<	c #578366",
"P<	c #4F4659",
"Q<	c #957A6A",
"R<	c #E1AC88",
"S<	c #EDC49F",
"T<	c #EFC4A0",
"U<	c #F1C49E",
"V<	c #E5AF8F",
"W<	c #AE8172",
"X<	c #8A7E80",
"Y<	c #265555",
"Z<	c #265551",
"`<	c #264D4F",
" [	c #15343F",
".[	c #0E283B",
"+[	c #0C192B",
"@[	c #151628",
"#[	c #0C1123",
"$[	c #2B4D4D",
"%[	c #36665E",
"&[	c #376C63",
"*[	c #3A6E65",
"=[	c #396A65",
"-[	c #376966",
";[	c #356765",
">[	c #1C3640",
",[	c #101B2E",
"'[	c #437268",
")[	c #4C8371",
"![	c #4D836C",
"~[	c #548A6F",
"{[	c #3D635A",
"][	c #284642",
"^[	c #567D5C",
"/[	c #535362",
"([	c #110029",
"_[	c #130325",
":[	c #655A60",
"<[	c #978683",
"[[	c #B8A6A0",
"}[	c #C5B1AB",
"|[	c #B69C9A",
"1[	c #D0ADA3",
"2[	c #DEA798",
"3[	c #E5A998",
"4[	c #E7A999",
"5[	c #E6A89A",
"6[	c #E2A797",
"7[	c #DCA596",
"8[	c #CFACA3",
"9[	c #B69D99",
"0[	c #A69390",
"a[	c #B8A5A3",
"b[	c #9B8A8B",
"c[	c #928584",
"d[	c #19112C",
"e[	c #1F1333",
"f[	c #333443",
"g[	c #3B5A52",
"h[	c #293B46",
"i[	c #273A44",
"j[	c #30494A",
"k[	c #36544D",
"l[	c #3D5C55",
"m[	c #324F48",
"n[	c #907063",
"o[	c #DAAA88",
"p[	c #E0AD86",
"q[	c #D49777",
"r[	c #D59979",
"s[	c #D69B7B",
"t[	c #DEAB88",
"u[	c #E4AF8A",
"v[	c #AD8571",
"w[	c #63686D",
"x[	c #235254",
"y[	c #1C404B",
"z[	c #0E2139",
"A[	c #0F2038",
"B[	c #0C182B",
"C[	c #131326",
"D[	c #091222",
"E[	c #2B5251",
"F[	c #2F625D",
"G[	c #326663",
"H[	c #346865",
"I[	c #326664",
"J[	c #316665",
"K[	c #336064",
"L[	c #1D2F40",
"M[	c #1F3438",
"N[	c #47796C",
"O[	c #457C6D",
"P[	c #497D6C",
"Q[	c #518570",
"R[	c #3D645B",
"S[	c #1C373C",
"T[	c #496F54",
"U[	c #568156",
"V[	c #578257",
"W[	c #547B5A",
"X[	c #3B1D3B",
"Y[	c #461D38",
"Z[	c #665D62",
"`[	c #797071",
" }	c #5C4754",
".}	c #837477",
"+}	c #87777A",
"@}	c #897879",
"#}	c #897678",
"$}	c #857274",
"%}	c #837171",
"&}	c #7E6C6D",
"*}	c #7F7378",
"=}	c #73616E",
"-}	c #615461",
";}	c #6C646C",
">}	c #514050",
",}	c #4B203B",
"'}	c #733243",
")}	c #60293B",
"!}	c #373946",
"~}	c #2D4B48",
"{}	c #29383E",
"]}	c #2D4142",
"^}	c #1C2C36",
"/}	c #172531",
"(}	c #16202E",
"_}	c #937A71",
":}	c #C79476",
"<}	c #D8A482",
"[}	c #C28474",
"}}	c #805953",
"|}	c #7D5853",
"1}	c #995F5B",
"2}	c #BD796B",
"3}	c #D19A7F",
"4}	c #D7A586",
"5}	c #A86A66",
"6}	c #868F93",
"7}	c #102236",
"8}	c #0B1D2D",
"9}	c #0A1927",
"0}	c #0D172A",
"a}	c #121224",
"b}	c #0B1124",
"c}	c #2A5455",
"d}	c #2C635D",
"e}	c #2D6161",
"f}	c #306364",
"g}	c #336565",
"h}	c #336564",
"i}	c #326064",
"j}	c #1A2F3F",
"k}	c #294747",
"l}	c #42746C",
"m}	c #41756B",
"n}	c #3F7366",
"o}	c #4C786A",
"p}	c #325450",
"q}	c #192B35",
"r}	c #3C6052",
"s}	c #44725A",
"t}	c #376557",
"u}	c #453549",
"v}	c #78364D",
"w}	c #612C45",
"x}	c #9F898D",
"y}	c #B19796",
"z}	c #B19395",
"A}	c #AC8D8E",
"B}	c #977982",
"C}	c #4F3C58",
"D}	c #291D3C",
"E}	c #2A1E3B",
"F}	c #7B5E76",
"G}	c #956B76",
"H}	c #A28086",
"I}	c #AD908F",
"J}	c #AE918D",
"K}	c #966F74",
"L}	c #844154",
"M}	c #894251",
"N}	c #904452",
"O}	c #8A3F52",
"P}	c #602F43",
"Q}	c #4B5057",
"R}	c #405E53",
"S}	c #6CA273",
"T}	c #76AF7B",
"U}	c #70A775",
"V}	c #593D57",
"W}	c #B0806D",
"X}	c #D69F7D",
"Y}	c #B27464",
"Z}	c #633C44",
"`}	c #958E8D",
" |	c #D1F599",
".|	c #44243D",
"+|	c #884950",
"@|	c #B36761",
"#|	c #D49B7E",
"$|	c #CE9178",
"%|	c #666771",
"&|	c #456956",
"*|	c #497155",
"=|	c #2E4B45",
"-|	c #11192A",
";|	c #0E0E23",
">|	c #080F22",
",|	c #285355",
"'|	c #295F5B",
")|	c #2B5E5F",
"!|	c #306365",
"~|	c #306765",
"{|	c #2D6562",
"]|	c #2A5D60",
"^|	c #1A3443",
"/|	c #29484D",
"(|	c #366664",
"_|	c #356863",
":|	c #386B60",
"<|	c #2C4F4C",
"[|	c #182531",
"}|	c #16222F",
"||	c #192F38",
"1|	c #284F59",
"2|	c #685F66",
"3|	c #984B53",
"4|	c #8D434C",
"5|	c #88434C",
"6|	c #934E55",
"7|	c #CBABA2",
"8|	c #CBAC9E",
"9|	c #C8AA9D",
"0|	c #CFB8AB",
"a|	c #D5C0B0",
"b|	c #D0B5A8",
"c|	c #C4AAA1",
"d|	c #B7A098",
"e|	c #EEE3CD",
"f|	c #CCB4AA",
"g|	c #C3A499",
"h|	c #B38982",
"i|	c #A66565",
"j|	c #CA8B71",
"k|	c #CF9273",
"l|	c #CD916F",
"m|	c #B77B63",
"n|	c #643A47",
"o|	c #5B5B64",
"p|	c #66A46C",
"q|	c #78B873",
"r|	c #7BBB73",
"s|	c #6A5F6B",
"t|	c #A97664",
"u|	c #D19676",
"v|	c #915751",
"w|	c #3C1E34",
"x|	c #484652",
"y|	c #C6EA8E",
"z|	c #4C4952",
"A|	c #6B3247",
"B|	c #9A4B54",
"C|	c #D29376",
"D|	c #D39B7F",
"E|	c #57555F",
"F|	c #558267",
"G|	c #4C7958",
"H|	c #496B61",
"I|	c #0E1320",
"J|	c #0D0D21",
"K|	c #CFDACF",
"L|	c #234E51",
"M|	c #D3DED4",
"N|	c #20424E",
"O|	c #244655",
"P|	c #285158",
"Q|	c #29585D",
"R|	c #29545E",
"S|	c #173448",
"T|	c #22484E",
"U|	c #295F5D",
"V|	c #2F605F",
"W|	c #315B5B",
"X|	c #1A393A",
"Y|	c #284236",
"Z|	c #2B4733",
"`|	c #1F372F",
" 1	c #3E3A4C",
".1	c #A96C61",
"+1	c #A05857",
"@1	c #773E44",
"#1	c #9B877E",
"$1	c #D5B9A4",
"%1	c #F0E1C8",
"&1	c #F6EDD3",
"*1	c #EDE5CE",
"=1	c #C7AAA0",
"-1	c #E1D1C0",
";1	c #F0E1CC",
">1	c #FAF2D9",
",1	c #F5EED6",
"'1	c #F9F3D9",
")1	c #F6EED5",
"!1	c #E7DAC2",
"~1	c #C19688",
"{1	c #C88B71",
"]1	c #CD9476",
"^1	c #CD9576",
"/1	c #C3836B",
"(1	c #C17E6A",
"_1	c #784E4E",
":1	c #5B8F66",
"<1	c #6FAB70",
"[1	c #73B371",
"}1	c #707880",
"|1	c #864F50",
"11	c #C3816A",
"21	c #955855",
"31	c #BA6D5F",
"41	c #323241",
"51	c #AAD27E",
"61	c #434750",
"71	c #7F3D46",
"81	c #D19475",
"91	c #CF9B80",
"01	c #271B35",
"a1	c #588666",
"b1	c #517F5E",
"c1	c #507465",
"d1	c #11131E",
"e1	c #0C0B21",
"f1	c #060B22",
"g1	c #132933",
"h1	c #11212A",
"i1	c #101C26",
"j1	c #0C1922",
"k1	c #0F1C22",
"l1	c #0F1A22",
"m1	c #0F2031",
"n1	c #152D42",
"o1	c #254D52",
"p1	c #275C5A",
"q1	c #285757",
"r1	c #1E3E47",
"s1	c #5E8664",
"t1	c #87BD79",
"u1	c #8AC276",
"v1	c #78A870",
"w1	c #6C5857",
"x1	c #C88F74",
"y1	c #B36E61",
"z1	c #82454C",
"A1	c #6C5A5B",
"B1	c #AD908A",
"C1	c #DFC9B9",
"D1	c #DECCB7",
"E1	c #EADDCB",
"F1	c #E0CBBA",
"G1	c #F8F0D8",
"H1	c #FBF6DD",
"I1	c #D2BCAB",
"J1	c #FAF6DE",
"K1	c #FAF4DC",
"L1	c #EADEC9",
"M1	c #BE9E95",
"N1	c #B4776A",
"O1	c #C98B6E",
"P1	c #C68B70",
"Q1	c #CC967B",
"R1	c #A76960",
"S1	c #A36662",
"T1	c #23132B",
"U1	c #5E9474",
"V1	c #64A074",
"W1	c #60A26E",
"X1	c #763840",
"Y1	c #A95954",
"Z1	c #C06C5E",
"`1	c #BB6357",
" 2	c #B26457",
".2	c #242236",
"+2	c #8CB572",
"@2	c #110526",
"#2	c #813C44",
"$2	c #D19270",
"%2	c #BC786F",
"&2	c #251835",
"*2	c #598764",
"=2	c #528062",
"-2	c #4B7263",
";2	c #10141D",
">2	c #090D23",
",2	c #142124",
"'2	c #607958",
")2	c #90B084",
"!2	c #8DAE7A",
"~2	c #9EC389",
"{2	c #9ABC83",
"]2	c #769A6B",
"^2	c #192A27",
"/2	c #15272F",
"(2	c #22434F",
"_2	c #16313C",
":2	c #203C3C",
"<2	c #91C28C",
"[2	c #93C975",
"}2	c #8FC56D",
"|2	c #684153",
"12	c #BA826C",
"22	c #D69C7D",
"32	c #9F5955",
"42	c #806766",
"52	c #D8C6B5",
"62	c #F3E4CB",
"72	c #F2E8CF",
"82	c #FBF6DF",
"92	c #FBF5E0",
"02	c #FAF4DD",
"a2	c #F4ECD6",
"b2	c #EBDDC6",
"c2	c #CFAF9F",
"d2	c #B0796A",
"e2	c #A25A59",
"f2	c #D19776",
"g2	c #D09678",
"h2	c #CE977B",
"i2	c #CB8C72",
"j2	c #915854",
"k2	c #492E3E",
"l2	c #233F42",
"m2	c #345C54",
"n2	c #3B6659",
"o2	c #3B675C",
"p2	c #7E525D",
"q2	c #833D49",
"r2	c #823F4B",
"s2	c #7E4452",
"t2	c #585B63",
"u2	c #72A46D",
"v2	c #46243A",
"w2	c #9A5D54",
"x2	c #CF9171",
"y2	c #A95B5F",
"z2	c #201731",
"A2	c #588567",
"B2	c #4B7A65",
"C2	c #366258",
"D2	c #0F1720",
"E2	c #06132F",
"F2	c #1B2C35",
"G2	c #8BA87B",
"H2	c #C5E49D",
"I2	c #C2E597",
"J2	c #D5DCCF",
"K2	c #BEE58C",
"L2	c #BEE68C",
"M2	c #B2DF8A",
"N2	c #5D8458",
"O2	c #172324",
"P2	c #131E2E",
"Q2	c #365248",
"R2	c #7AAA83",
"S2	c #99CD8A",
"T2	c #92C775",
"U2	c #725C63",
"V2	c #A66C61",
"W2	c #CF8F72",
"X2	c #D09575",
"Y2	c #8D4757",
"Z2	c #917A6F",
"`2	c #CFB9A0",
" 3	c #DABFA9",
".3	c #E6D5BF",
"+3	c #EEE6D1",
"@3	c #DBC5B4",
"#3	c #D4B5A5",
"$3	c #6B5D59",
"%3	c #924A4D",
"&3	c #D19573",
"*3	c #D09474",
"=3	c #C9886D",
"-3	c #604346",
";3	c #151E1E",
">3	c #131E20",
",3	c #121C2B",
"'3	c #162432",
")3	c #102331",
"!3	c #252333",
"~3	c #090123",
"{3	c #4D5060",
"]3	c #5E8C68",
"^3	c #514351",
"/3	c #865452",
"(3	c #C3856B",
"_3	c #D09375",
":3	c #9A4A56",
"<3	c #373545",
"[3	c #427063",
"}3	c #396E64",
"|3	c #34615F",
"13	c #101923",
"23	c #06112C",
"33	c #487765",
"43	c #8CB980",
"53	c #AFD88E",
"63	c #B7E092",
"73	c #BBE491",
"83	c #BBE591",
"93	c #C5EE98",
"03	c #C6E98F",
"a3	c #8FB779",
"b3	c #16252C",
"c3	c #101527",
"d3	c #47614A",
"e3	c #94C683",
"f3	c #93C576",
"g3	c #7A787A",
"h3	c #895D5D",
"i3	c #996159",
"j3	c #C4886D",
"k3	c #C88B70",
"l3	c #713746",
"m3	c #602F42",
"n3	c #AE998F",
"o3	c #E5D2BB",
"p3	c #F9F2DA",
"q3	c #FAF5DB",
"r3	c #FAF4DB",
"s3	c #F9F3DA",
"t3	c #F8F2DA",
"u3	c #F0E6D2",
"v3	c #C09A91",
"w3	c #7D4A4E",
"x3	c #6B343F",
"y3	c #CA8E70",
"z3	c #BF816B",
"A3	c #CB9475",
"B3	c #B77E67",
"C3	c #D19472",
"D3	c #BF8C74",
"E3	c #483547",
"F3	c #8FBC7A",
"G3	c #82AC73",
"H3	c #466446",
"I3	c #15262E",
"J3	c #192234",
"K3	c #142135",
"L3	c #182C3B",
"M3	c #615F68",
"N3	c #835455",
"O3	c #C7866D",
"P3	c #B47164",
"Q3	c #743947",
"R3	c #474857",
"S3	c #376A60",
"T3	c #336D5F",
"U3	c #315F5D",
"V3	c #0F1824",
"W3	c #051231",
"X3	c #457F6D",
"Y3	c #508F72",
"Z3	c #57926F",
"`3	c #579268",
" 4	c #5E9869",
".4	c #669F6B",
"+4	c #70A86E",
"@4	c #88B878",
"#4	c #7BA578",
"$4	c #1B2F3B",
"%4	c #213B39",
"&4	c #5F8A69",
"*4	c #85BC79",
"=4	c #81B673",
"-4	c #8F9493",
";4	c #925F61",
">4	c #B66563",
",4	c #A26A60",
"'4	c #B27062",
")4	c #54243E",
"!4	c #663944",
"~4	c #C6A999",
"{4	c #E3D1BA",
"]4	c #DED0BD",
"^4	c #F7F1D7",
"/4	c #EFE5CF",
"(4	c #FAF5DD",
"_4	c #F9F5DD",
":4	c #F9F5DE",
"<4	c #EADCC8",
"[4	c #FAF5DC",
"}4	c #EBE4CD",
"|4	c #ECE5D0",
"14	c #D3BCAB",
"24	c #A26A67",
"34	c #41293D",
"44	c #A56A5D",
"54	c #AF6962",
"64	c #AA6E63",
"74	c #B8766A",
"84	c #AB6E66",
"94	c #8E6C63",
"04	c #36293C",
"a4	c #9ECE79",
"b4	c #9DCD79",
"c4	c #91C97A",
"d4	c #669765",
"e4	c #192A2E",
"f4	c #101529",
"g4	c #4B4655",
"h4	c #935956",
"i4	c #C2886D",
"j4	c #C78B6E",
"k4	c #B3675C",
"l4	c #994C52",
"m4	c #27142C",
"n4	c #346460",
"o4	c #356560",
"p4	c #2D665E",
"q4	c #2B5B59",
"r4	c #0E1723",
"s4	c #051135",
"t4	c #34605F",
"u4	c #447B70",
"v4	c #E0E5D5",
"w4	c #4A8469",
"x4	c #4C8768",
"y4	c #4C866A",
"z4	c #4E8B68",
"A4	c #4E8E69",
"B4	c #4C8166",
"C4	c #DDE5D7",
"D4	c #4D7A66",
"E4	c #70AA77",
"F4	c #75AB72",
"G4	c #6FA172",
"H4	c #567E60",
"I4	c #A09598",
"J4	c #F6DEC4",
"K4	c #DBA695",
"L4	c #A5555A",
"M4	c #57213E",
"N4	c #6A3A43",
"O4	c #AA716B",
"P4	c #CBA596",
"Q4	c #D8C6B2",
"R4	c #E4D7C2",
"S4	c #E8DECC",
"T4	c #EDE6D1",
"U4	c #FAF7DE",
"V4	c #ECE1CD",
"W4	c #F8F3DE",
"X4	c #E1D4C1",
"Y4	c #EBE0CE",
"Z4	c #ECE2CE",
"`4	c #F1EBD6",
" 5	c #DDD1C0",
".5	c #DBC6B0",
"+5	c #B08076",
"@5	c #6F3745",
"#5	c #683C4B",
"$5	c #BC6968",
"%5	c #D6A492",
"&5	c #EFD3B9",
"*5	c #E3B59F",
"=5	c #AE6867",
"-5	c #5A5B63",
";5	c #9ECE7A",
">5	c #9DD178",
",5	c #9AD37D",
"'5	c #130125",
")5	c #664357",
"!5	c #A9755F",
"~5	c #CA8C6C",
"{5	c #D39B77",
"]5	c #B67463",
"^5	c #9E4A4F",
"/5	c #703544",
"(5	c #4A4252",
"_5	c #2F5A59",
":5	c #2E5F5A",
"<5	c #265F58",
"[5	c #235252",
"}5	c #0B1422",
"|5	c #081135",
"15	c #192C3B",
"25	c #DFE7DC",
"35	c #326566",
"45	c #386D68",
"55	c #E2E8DC",
"65	c #377365",
"75	c #377463",
"85	c #387661",
"95	c #D7DFD1",
"05	c #152E35",
"a5	c #E2E8D9",
"b5	c #6EA472",
"c5	c #6CA079",
"d5	c #53816C",
"e5	c #446C62",
"f5	c #9B8083",
"g5	c #F3DBC5",
"h5	c #FBCAAE",
"i5	c #DA7C75",
"j5	c #B35C5C",
"k5	c #442436",
"l5	c #8C5153",
"m5	c #BA8079",
"n5	c #CFB4A3",
"o5	c #D9C5B5",
"p5	c #F5F0DA",
"q5	c #E2D8C5",
"r5	c #EFE8D2",
"s5	c #F0E4CD",
"t5	c #F5EDD7",
"u5	c #CCB2A3",
"v5	c #E2D5C4",
"w5	c #E8DECD",
"x5	c #E6DDCC",
"y5	c #D7C5B7",
"z5	c #B78D83",
"A5	c #A76A64",
"B5	c #85424E",
"C5	c #705B5E",
"D5	c #EBB193",
"E5	c #F0C3AD",
"F5	c #FEF2D6",
"G5	c #D08983",
"H5	c #3B3B48",
"I5	c #444160",
"J5	c #383550",
"K5	c #697077",
"L5	c #9B7770",
"M5	c #B38366",
"N5	c #BC896C",
"O5	c #D69C78",
"P5	c #D09675",
"Q5	c #B97063",
"R5	c #A15251",
"S5	c #682B3D",
"T5	c #7F7980",
"U5	c #1E4132",
"V5	c #19383E",
"W5	c #27585B",
"X5	c #215556",
"Y5	c #133538",
"Z5	c #0C101F",
"`5	c #717874",
" 6	c #070A18",
".6	c #071422",
"+6	c #DAE1D6",
"@6	c #213D4B",
"#6	c #254755",
"$6	c #264955",
"%6	c #234652",
"&6	c #23404F",
"*6	c #1D3846",
"=6	c #18333D",
"-6	c #446D64",
";6	c #517F65",
">6	c #4B7463",
",6	c #375F58",
"'6	c #436C65",
")6	c #7D4C56",
"!6	c #DA8683",
"~6	c #E88D83",
"{6	c #DB7778",
"]6	c #613240",
"^6	c #51203B",
"/6	c #572B3B",
"(6	c #A76664",
"_6	c #B47D76",
":6	c #EADBC3",
"<6	c #D7C4B5",
"[6	c #E2D5C3",
"}6	c #F2E7CF",
"|6	c #F5EDD4",
"16	c #D7C7B6",
"26	c #F0EAD4",
"36	c #DCC7B8",
"46	c #DBC5B5",
"56	c #B1857E",
"66	c #B17163",
"76	c #CA8F70",
"86	c #A86767",
"96	c #643E4B",
"06	c #E7887C",
"a6	c #EFA28E",
"b6	c #F1AB9A",
"c6	c #EDA899",
"d6	c #785357",
"e6	c #48223C",
"f6	c #994D57",
"g6	c #A7635F",
"h6	c #BA7E6A",
"i6	c #CF9577",
"j6	c #CB8970",
"k6	c #D6A07D",
"l6	c #AB615C",
"m6	c #B05E59",
"n6	c #8F424A",
"o6	c #4F2439",
"p6	c #7A7479",
"q6	c #69A564",
"r6	c #4A7E61",
"s6	c #0D2030",
"t6	c #102E3E",
"u6	c #0E2333",
"v6	c #0A0B1C",
"w6	c #0C0C1D",
"x6	c #4B5049",
"y6	c #070A1F",
"z6	c #070A1A",
"A6	c #080B19",
"B6	c #091225",
"C6	c #101F34",
"D6	c #142438",
"E6	c #142539",
"F6	c #16273E",
"G6	c #1B3341",
"H6	c #294F51",
"I6	c #2F5856",
"J6	c #2E5954",
"K6	c #2F5854",
"L6	c #335C58",
"M6	c #3B655F",
"N6	c #31293E",
"O6	c #291A33",
"P6	c #341930",
"Q6	c #3E2034",
"R6	c #8E686A",
"S6	c #743144",
"T6	c #52233C",
"U6	c #4A273F",
"V6	c #9F5A5E",
"W6	c #D2B0A2",
"X6	c #CDB4AA",
"Y6	c #D1B8AB",
"Z6	c #D7BBAC",
"`6	c #DCC7B7",
" 7	c #DFD4C4",
".7	c #D3BBAE",
"+7	c #D7BEB0",
"@7	c #D2B5A7",
"#7	c #CAA496",
"$7	c #B1716A",
"%7	c #C27F69",
"&7	c #CE9475",
"*7	c #C68E72",
"=7	c #653144",
"-7	c #301930",
";7	c #48303E",
">7	c #331D33",
",7	c #2C172F",
"'7	c #59223F",
")7	c #7A3148",
"!7	c #8C3E50",
"~7	c #B36F61",
"{7	c #D38F70",
"]7	c #BF796B",
"^7	c #AC5A5C",
"/7	c #AE6161",
"(7	c #8E3B49",
"_7	c #210F2C",
":7	c #6B6D77",
"<7	c #79AE6D",
"[7	c #71A665",
"}7	c #67A363",
"|7	c #457C5E",
"17	c #102239",
"27	c #E3E8D8",
"37	c #DEE5D6",
"47	c #E1E6D8",
"57	c #111628",
"67	c #0D0C25",
"77	c #070F20",
"87	c #142C31",
"97	c #2A4C4A",
"07	c #345E54",
"a7	c #386455",
"b7	c #284E4A",
"c7	c #1E4148",
"d7	c #B7C7C3",
"e7	c #2C5957",
"f7	c #2C5956",
"g7	c #2D5956",
"h7	c #305B58",
"i7	c #315F5A",
"j7	c #34615B",
"k7	c #36635D",
"l7	c #39655F",
"m7	c #34635F",
"n7	c #2E5E5D",
"o7	c #371E36",
"p7	c #873E4D",
"q7	c #91424F",
"r7	c #4D2539",
"s7	c #5A243A",
"t7	c #BF8582",
"u7	c #B78584",
"v7	c #CEADA5",
"w7	c #D2B2A3",
"x7	c #C9A79E",
"y7	c #CEB0A4",
"z7	c #CCACA1",
"A7	c #BB918C",
"B7	c #B88E85",
"C7	c #995453",
"D7	c #A45852",
"E7	c #BF7D67",
"F7	c #CD9474",
"G7	c #CD9677",
"H7	c #8D414E",
"I7	c #683149",
"J7	c #1C0D2D",
"K7	c #5B2842",
"L7	c #6B2B44",
"M7	c #773144",
"N7	c #82374A",
"O7	c #8D3E50",
"P7	c #8E3E4D",
"Q7	c #883B49",
"R7	c #6A2F45",
"S7	c #20102B",
"T7	c #211B31",
"U7	c #679370",
"V7	c #669B69",
"W7	c #6DA16D",
"X7	c #689D69",
"Y7	c #5A936A",
"Z7	c #B2C5BB",
"`7	c #172C40",
" 8	c #2C4A5B",
".8	c #193243",
"+8	c #081323",
"@8	c #0D0C1D",
"#8	c #090D20",
"$8	c #BCC7BE",
"%8	c #1B363E",
"&8	c #31605B",
"*8	c #396F5D",
"=8	c #40765C",
"-8	c #40765E",
";8	c #3B725D",
">8	c #275552",
",8	c #2C5A55",
"'8	c #2C5A56",
")8	c #2E5957",
"!8	c #2E5C58",
"~8	c #305E5A",
"{8	c #ADC2BE",
"]8	c #2F5E5A",
"^8	c #9BACA8",
"/8	c #4C283A",
"(8	c #89404E",
"_8	c #904655",
":8	c #4A293E",
"<8	c #492E40",
"[8	c #95565B",
"}8	c #9B5C60",
"|8	c #B68C86",
"18	c #C2A197",
"28	c #C4A59E",
"38	c #C3A39B",
"48	c #B1928B",
"58	c #8F4F55",
"68	c #8F4D52",
"78	c #8F464C",
"88	c #B17260",
"98	c #C58B71",
"08	c #C58F74",
"a8	c #965656",
"b8	c #90464D",
"c8	c #843F4C",
"d8	c #684854",
"e8	c #383544",
"f8	c #292538",
"g8	c #272133",
"h8	c #2B2539",
"i8	c #6A686D",
"j8	c #737176",
"k8	c #413A4E",
"l8	c #2E1F44",
"m8	c #17303E",
"n8	c #18303C",
"o8	c #41695F",
"p8	c #B4C5C3",
"q8	c #548C66",
"r8	c #B5C4C2",
"s8	c #30554A",
"t8	c #0E2039",
"u8	c #2C505D",
"v8	c #2C5F65",
"w8	c #2C6165",
"x8	c #20414A",
"y8	c #0B0D1E",
"z8	c #08091C",
"A8	c #061022",
"B8	c #294E52",
"C8	c #31645D",
"D8	c #396B60",
"E8	c #37695B",
"F8	c #3A6C60",
"G8	c #35665D",
"H8	c #2A5857",
"I8	c #2A5858",
"J8	c #295958",
"K8	c #2A5958",
"L8	c #2B5858",
"M8	c #2C5857",
"N8	c #2C5554",
"O8	c #2D5957",
"P8	c #2A5957",
"Q8	c #2D5A59",
"R8	c #8B6C78",
"S8	c #84726A",
"T8	c #755D57",
"U8	c #733144",
"V8	c #793745",
"W8	c #763949",
"X8	c #23102D",
"Y8	c #1B0E2A",
"Z8	c #6F5058",
"`8	c #6D505B",
" 9	c #715258",
".9	c #B4999A",
"+9	c #AA8C8C",
"@9	c #6D3E4F",
"#9	c #79565B",
"$9	c #5D2D3D",
"%9	c #873D49",
"&9	c #843C45",
"*9	c #984D51",
"=9	c #924B51",
"-9	c #A36C5F",
";9	c #7F3546",
">9	c #833A48",
",9	c #7D6D6E",
"'9	c #153846",
")9	c #163648",
"!9	c #102D40",
"~9	c #0D273A",
"{9	c #0E2C3B",
"]9	c #1D4650",
"^9	c #1D4B51",
"/9	c #1F4A52",
"(9	c #183C46",
"_9	c #1A3E48",
":9	c #224C4E",
"<9	c #38685E",
"[9	c #366358",
"}9	c #2F4E50",
"|9	c #0A1A33",
"19	c #1E4056",
"29	c #265362",
"39	c #2D6066",
"49	c #2E6867",
"59	c #27555B",
"69	c #070E22",
"79	c #08081C",
"89	c #040F20",
"99	c #2C5557",
"09	c #31615F",
"a9	c #27565A",
"b9	c #27565D",
"c9	c #26555C",
"d9	c #225052",
"e9	c #285657",
"f9	c #29575A",
"g9	c #29585B",
"h9	c #285759",
"i9	c #28595A",
"j9	c #264F54",
"k9	c #18333C",
"l9	c #285055",
"m9	c #68707D",
"n9	c #C0968A",
"o9	c #EDC9A7",
"p9	c #EDC6A8",
"q9	c #C2A595",
"r9	c #92625E",
"s9	c #904B4D",
"t9	c #91494B",
"u9	c #874149",
"v9	c #482D44",
"w9	c #4C5A66",
"x9	c #60757F",
"y9	c #7C7179",
"z9	c #7A6D75",
"A9	c #5B6D7E",
"B9	c #635B68",
"C9	c #595D6D",
"D9	c #7A3448",
"E9	c #923F4C",
"F9	c #B0575C",
"G9	c #B96E68",
"H9	c #B9A18E",
"I9	c #DDA18B",
"J9	c #C7A08F",
"K9	c #929797",
"L9	c #A9BCBB",
"M9	c #134358",
"N9	c #133F55",
"O9	c #0F3C50",
"P9	c #99B2B8",
"Q9	c #1D565B",
"R9	c #1F585D",
"S9	c #205258",
"T9	c #1D5055",
"U9	c #1F5056",
"V9	c #1E4B52",
"W9	c #1A3C49",
"X9	c #081028",
"Y9	c #1A2C43",
"Z9	c #204D60",
"`9	c #265463",
" 0	c #2C6067",
".0	c #2B6567",
"+0	c #295860",
"@0	c #060E23",
"#0	c #080520",
"$0	c #040F23",
"%0	c #2C585B",
"&0	c #2D5E62",
"*0	c #2B5D61",
"=0	c #275A60",
"-0	c #285860",
";0	c #26525B",
">0	c #244B53",
",0	c #265458",
"'0	c #26585B",
")0	c #7C9AAA",
"!0	c #7B9AA6",
"~0	c #8FAAB0",
"{0	c #9CB5B8",
"]0	c #82A2AF",
"^0	c #82A4B1",
"/0	c #566779",
"(0	c #CD998A",
"_0	c #DA806E",
":0	c #FBB997",
"<0	c #F1BFA1",
"[0	c #D68074",
"}0	c #D06B66",
"|0	c #CD6965",
"10	c #B45C5F",
"20	c #4D3450",
"30	c #758B9B",
"40	c #8FAEBA",
"50	c #728B9A",
"60	c #6D8796",
"70	c #83A6B5",
"80	c #7491A2",
"90	c #6C899B",
"00	c #914B52",
"a0	c #CD6862",
"b0	c #D46D66",
"c0	c #DD7D70",
"d0	c #FDE9C6",
"e0	c #F2CEB3",
"f0	c #EEBD9F",
"g0	c #EEC3A5",
"h0	c #715956",
"i0	c #7D9AA5",
"j0	c #88A8B4",
"k0	c #86A6B5",
"l0	c #85A5B3",
"m0	c #87A5B1",
"n0	c #89A5AF",
"o0	c #89A7B1",
"p0	c #8AA9B4",
"q0	c #87A7B2",
"r0	c #7D9EAC",
"s0	c #7A9BA9",
"t0	c #7D9EA9",
"u0	c #81A2AD",
"v0	c #13273C",
"w0	c #215465",
"x0	c #225A64",
"y0	c #296066",
"z0	c #296366",
"A0	c #2A5B63",
"B0	c #051024",
"C0	c #090521",
"D0	c #040827",
"E0	c #2A4F57",
"F0	c #2E6066",
"G0	c #2E5E65",
"H0	c #2A5D63",
"I0	c #265961",
"J0	c #254B56",
"K0	c #0E2531",
"L0	c #24434C",
"M0	c #25565A",
"N0	c #2E6063",
"O0	c #2F6164",
"P0	c #275B5E",
"Q0	c #234952",
"R0	c #7D9EB0",
"S0	c #7FA1B0",
"T0	c #81A4B3",
"U0	c #819DAC",
"V0	c #745C66",
"W0	c #6C3A3F",
"X0	c #774E4A",
"Y0	c #70474A",
"Z0	c #673743",
"`0	c #633240",
" a	c #633241",
".a	c #5E465D",
"+a	c #7E91A3",
"@a	c #8DA8B4",
"#a	c #8EAFBB",
"$a	c #8DB0BE",
"%a	c #8BADBB",
"&a	c #89ACBA",
"*a	c #88ABBB",
"=a	c #83A7B6",
"-a	c #6F7381",
";a	c #643A48",
">a	c #643B47",
",a	c #683B47",
"'a	c #7A706E",
")a	c #756568",
"!a	c #6E494E",
"~a	c #6F4F53",
"{a	c #73838E",
"]a	c #8AA7B1",
"^a	c #88AAB5",
"/a	c #88AAB4",
"(a	c #83A6B4",
"_a	c #7EA1B2",
":a	c #90ACBA",
"<a	c #296167",
"[a	c #245E63",
"}a	c #225B60",
"|a	c #21575F",
"1a	c #163245",
"2a	c #05031E",
"3a	c #0A1029",
"4a	c #295667",
"5a	c #2C636B",
"6a	c #2E676D",
"7a	c #2E666B",
"8a	c #284D58",
"9a	c #0A0924",
"0a	c #A19EA0",
"aa	c #0B0622",
"ba	c #0D192F",
"ca	c #1A3246",
"da	c #1F3949",
"ea	c #193342",
"fa	c #142A3B",
"ga	c #101B30",
"ha	c #0A0921",
"ia	c #0F1D2C",
"ja	c #254B54",
"ka	c #36646C",
"la	c #36656D",
"ma	c #24575C",
"na	c #1C3D48",
"oa	c #09071C",
"pa	c #0A1020",
"qa	c #203A46",
"ra	c #9BB2B8",
"sa	c #99B1B7",
"ta	c #99B0B7",
"ua	c #8EABB5",
"va	c #86A7B4",
"wa	c #83A6B2",
"xa	c #83A4B0",
"ya	c #83A3B1",
"za	c #8AAAB6",
"Aa	c #90B1BC",
"Ba	c #8DB0BD",
"Ca	c #AAC4C6",
"Da	c #8EAFBD",
"Ea	c #8EAEBA",
"Fa	c #8BADB9",
"Ga	c #89ADBA",
"Ha	c #8AACBC",
"Ia	c #89ACBC",
"Ja	c #88AABA",
"Ka	c #86A6B2",
"La	c #7F9EAA",
"Ma	c #7D9CA9",
"Na	c #7999A8",
"Oa	c #7C9BA8",
"Pa	c #8CA6AF",
"Qa	c #8DAAB1",
"Ra	c #93B0B8",
"Sa	c #A8BBBE",
"Ta	c #081C30",
"Ua	c #0C2032",
"Va	c #133241",
"Wa	c #1F4855",
"Xa	c #275862",
"Ya	c #255B65",
"Za	c #255863",
"`a	c #204B59",
" b	c #051026",
".b	c #05031C",
"+b	c #080422",
"@b	c #13293C",
"#b	c #244A56",
"$b	c #295060",
"%b	c #274B5A",
"&b	c #081325",
"*b	c #4C4C51",
"=b	c #F1EFE1",
"-b	c #6D6A6A",
";b	c #37373B",
">b	c #0A0A25",
",b	c #090926",
"'b	c #090923",
")b	c #0A0923",
"!b	c #070620",
"~b	c #08061A",
"{b	c #0A061A",
"]b	c #0A1226",
"^b	c #0E1A30",
"/b	c #0F1B32",
"(b	c #0B182E",
"_b	c #0C1029",
":b	c #0A0516",
"<b	c #070416",
"[b	c #060618",
"}b	c #060516",
"|b	c #070517",
"1b	c #070417",
"2b	c #06051A",
"3b	c #050822",
"4b	c #040A23",
"5b	c #060720",
"6b	c #06041C",
"7b	c #080617",
"8b	c #060718",
"9b	c #050819",
"0b	c #05081C",
"ab	c #04041A",
"bb	c #050314",
"cb	c #070513",
"db	c #070615",
"eb	c #07071A",
"fb	c #07061C",
"gb	c #07081C",
"hb	c #0B041A",
"ib	c #09051A",
"jb	c #09051B",
"kb	c #09061D",
"lb	c #09071E",
"mb	c #09061E",
"nb	c #08061C",
"ob	c #08061B",
"pb	c #08051F",
"qb	c #07081F",
"rb	c #090D22",
"sb	c #081126",
"tb	c #07071E",
"ub	c #080213",
"vb	c #080318",
"wb	c #09031F",
"xb	c #080420",
"yb	c #06041F",
"zb	c #04021E",
"Ab	c #050219",
"Bb	c #585656",
"Cb	c #A9A8A3",
"Db	c #F1EFD4",
"Eb	c #F4F0E0",
"Fb	c #9C9890",
"Gb	c #100B10",
"Hb	c #1F1C1B",
"Ib	c #2D2A28",
"Jb	c #3B3836",
"Kb	c #44413F",
"Lb	c #504C4B",
"Mb	c #3D373A",
"Nb	c #050210",
"Ob	c #060113",
"Pb	c #060216",
"Qb	c #030116",
"Rb	c #090015",
"Sb	c #09010F",
"Tb	c #09010E",
"Ub	c #09030D",
"Vb	c #110912",
"Wb	c #181218",
"Xb	c #302B2D",
"Yb	c #4B4647",
"Zb	c #211C1F",
"`b	c #1B141B",
" c	c #140F18",
".c	c #171218",
"+c	c #1D191C",
"@c	c #282325",
"#c	c #0A040B",
"$c	c #050008",
"%c	c #030007",
"&c	c #050009",
"*c	c #08010E",
"=c	c #0A030F",
"-c	c #0E0711",
";c	c #0E0913",
">c	c #0E0813",
",c	c #100815",
"'c	c #110714",
")c	c #110613",
"!c	c #100412",
"~c	c #0C010F",
"{c	c #0E0211",
"]c	c #0B0110",
"^c	c #07000F",
"/c	c #070010",
"(c	c #06000E",
"_c	c #05000E",
":c	c #040012",
"<c	c #00000D",
"[c	c #03000B",
"}c	c #06000C",
"|c	c #07000B",
"1c	c #060008",
"2c	c #4D4846",
"3c	c #454041",
"4c	c #3C373B",
"5c	c #29242A",
"6c	c #150C18",
"7c	c #080013",
"8c	c #1E1A1E",
"9c	c #D6D2C8",
"0c	c #E6E2CF",
"  . + @ # $ % & * = - ; > , ' ) ! ~ { ] ^ / ( _ : < [ } | 1 2 3 4 5 6 7 8 9 0 a b c d e f g h i j k l m n o p q r s t u v w x y ",
"z A B C D E F G H I J K L M N O P Q R S T U V W X Y Z `  ...+.@.#.$.%.&.*.=.-.;.>.,.'.).!.~.{.].^./.(._.:.<.[.}.|.1.2.3.4.5.6.7.",
"8.9.0.a.b.c.d.e.f.g.h.i.j.k.l.m.n.o.p.q.r.s.t.u.v.w.x.y.z.A.B.C.D.E.F.G.H.I.J.K.L.M.N.O.P.Q.R.S.T.U.V.W.X.Y.Z.`. +.+++@+#+$+%+&+",
"*+=+-+;+>+,+'+)+!+~+{+]+^+/+(+_+:+<+[+}+|+1+2+3+4+5+6+7+8+9+0+a+b+c+c+d+e+f+g+h+i+j+k+l+m+n+o+p+q+r+s+t+u+v+w+x+y+z+A+B+C+D+E+F+",
"G+H+I+J+K+L+M+N+O+P+Q+R+S+T+U+V+W+X+Y+}+Z+`+ @.@+@@@#@$@%@&@*@=@-@;@>@,@'@)@h+!@~@{@]@^@/@(@_@:@<@[@}@|@1@2@3@4@5@6@7@8@9@0@a@b@",
"c@d@e@f@g@h@i@j@k@l@m@n@o@p@q@r@s@t@q@u@Z+v@w@x@y@z@A@B@C@D@E@F@G@H@I@J@K@L@M@N@O@P@Q@R@S@T@U@V@W@X@Y@Z@`@ #.#+#@###$#%#&#*#=#-#",
";#>#,#'#)#!#~#{#]#^#/#(#_#:#<#[#}#|#1#2#3#4#5#6#7#8#9#0#a#b#c#d#e#f#g#h#i#j#k#l#m#n#o#p#q#r#s#t#u#v#w#x#y#z#A#B#C#D#E#F#G#H#I#J#",
"K#L#M#N#O#P#Q#R#S#S#T#U#V#W#X#Y#Z#`+`#`# $.$+$@$#$$$%$&$*$=$-$;$>$,$'$)$!$~${$]$^$/$($_$:$<$[$}$|$1$2$3$4$5$6$7$8$9$0$a$b$c$d$e$",
"f$g$h$i$j$k$l$m$n$o$p$q$r$s$t$u$v$w$x$3#y$z$A$B$C$D$E$F$G$H$I$J$K$L$M$N$O$P$Q$R$S$T$U$V$W$X$Y$Z$`$ %.%+%@%#%$%%%&%*%=%-%;%>%,%'%",
")%!%~%{%]%^%/%(%_%:%<%[%}%|%1%2%3%4%5%6%7%8%9%0%a%b%c%d%e%f%g%h%i%i%j%k%l%m%n%o%p%q%r%s%t%u%v%w%x%y%z%A%B%C%D%E%F%G%H%I%J%K%L%M%",
"N%O%P%Q%R%S%T%U%V%W%X%Y%Z%`% &.&+&@&#&$&%&&&*&=&-&;&>&,&'&)&!&~&{&]&^&/&(&_&:&<&[&}&|&1&2&2&3&4&5&6&7&8&9&0&a&b&c&d&e&f&g&h&i&j&",
"k&l&m&n&o&p&q&r&s&t&u&v&w&x&y&z&A&B&C&D&E&F&G&H&I&J&K&L&M&N&O&P&Q&R&S&T&U&V&S&W&X&Y&Z&`& *.*+*@*#*$*%*&***=*-*;*>*,*'*)*!*~*{*]*",
"^*/*(*_*:*<*[*}*|*1*2*3*4*5*6*7*8*9*0*a*b*c*d*e*f*g*h*i*j*k*l*m*n*o*p*T&q*r*s*t*u*v*w*x*y*z*A*B*C*D*E*F*G*H*I*J*K*L*M*N*O*P*Q*R*",
"S*T*U*V*W*X*Y*Z*`* =.=+=@=#=$=%=&=*===-=;=>=f%,='=)=!=~={=]=^=/=(=_=:=<=T&[=s*}=|=1=2=3=4=5= %6=7=8=9=0=a=H*b=c=d=e=f=g=h=i=j=k=",
"l=m=n=o=p=X*q=r=s=t=u=v=w=x=y=z=A=B=C=D=E=J&F=G=H=I=J=K=C$l*L=M=N=O=P=Q=R=S=T=U=V=W=X=Y=Z=`= % -7=7=.-+-@-b=b=#-$-%-&-*-=---;->-",
",-'-)-!-~-{-]-^-J*/-(-_-:-<-[-}-|-1-2-3-4-L$5-6-7-8-9-0-a-b-c-d-e-f-<=g-h-i-j-k-l-m-n-)&o-p-q-r-s-t-u-v-w-x-&-y-z-A-B-C-D-E-F-G-",
"H-I-J-K-=-L-M-N-K*O-P-Q-R-S-T-U-V-W-X-Y-Z-`- ;.;+;@;#;$;%;&;*;=;-;;;>;,;';);!;~;{;|=g*];^;/;(;_;:;<;[;};|;1;2;3;4;5;6;7;8;9;0;a;",
"b;c;d;e;f;g;h;i;j;k;l;m;n;o;p;q;r;s;t;u;v;w;x;y;z;A;B;C;D;E;F;G;T&H;I;J;K;L;M;N;O;P;Q;R;S;T;U;V;W;X;Y;Z;`; >.>5;+>@>#>$>%>&>*>=>",
"->;>>>,>'>)>!>~>{>]>^>/>(>_>:><>[>}>|>1>2>3>4>5>6>7>8>9>0>a>b>c>d>e>f>g>h>i>j>k>l>m>n>o>p>1=q>r>s>t>u>v>w>x>y>z>C-A>B>C>D>E>F>G>",
"H>I>J>K>L>M>N>O>P>Q>R>S>T>U>V>W>X>Y>Z>`> ,.,+,@,#,$,%,&,*,=,-,;,>,,,',1>),!,~,{,],^,/,(,_,:,<,[,},|,1,2,3,4,5,6,7,8,9,0,a,b,c,d,",
"e,f,g,h,i,j,j,k,l,l,m,n,o,p,q,r,s,t,u,v,w,w,x,y,z,A,B,C,D,E,F,G,H,I,J,K,L,M,N,.,O,P,Q,R,S,T,U,V,W,X,Y,Z,`, '.'+'@'#'$'%'&'*'='Z.",
"-';'>',''')'!'~'{']'^'/'('_':'<'['}'v,|'1'2'3'4'5'6'7'8'9'0'a'b'c'd'e'f'g'h'3'i'.,j'k'l'm'n'o'p'q'r's't'u'v'w'w'x'y'z'A'B'C'D'E'",
"F'G'H'I'J'K'L'M'N'O'P'Q'R'S'T'U'V'|'W'X'Y'Z'`' ).)+)@)#)$)%)&)*)=)-);)>),)')))!)~){)])^)/)()_):)<)[)})})|)1)2)3)4)5)K-K-6)7)8)9)",
"0)a)b)c)d)e)f)L'g)h)i)j)k)l)m)n).,o)p)q)r)s)t)v,u)v)w)x)y)z)A)B)C)D)g'E)F)G)H)I)J)K)M,L)M)N)O)P)Q)R)S)T)U)V)W)X)Y)Z)`) !.!+!@!#!",
"$!%!&!*!=!-!f);!>!,!'!)!!!~!{!]!!,^!/!(!_!:!<![!}!|!1!2!3!4!5!6!7!>)8!9!0!a!b!c!d!e!K,f!g!h!i!j!k!l!m!n!o!p!q!r!s!t!u!.!v!w!x!y!",
"z!A!B!C!D!E!F!G!H!I!J!K!L!M!N!O!P!Q!R!S!T!U!V!W!X!Y!Z!`! ~.~+~@~#~$~%~&~*~=~-~;~>~,~W'f!'~)~!~~~{~]~^~/~(~_~:~<~[~}~v!|~1~2~3~4~",
"5~6~7~8~9~0~a~b~c~d~e~f~g~h~i~j~|'k~l~m~n~o~p~q~r~s~t~>~u~v~w~x~y~z~A~B~C~D~E~F~G~H~I~J~K~L~M~N~O~P~Q~R~S~T~U~V~W~X~Y~9,Z~`~ {.{",
"+{@{#{${%{&{*{={-{;{>{,{'{){!{w,L,~{{{]{^{/{({_{:{<{[{}{|{1{2{3{4{5{6{7{8{9{0{a{b{c{d{w,~,e{f{g{h{i{j{k{l{>~m{n{o{p{q{r{s{t{u{v{",
"w{x{y{z{A{B{C{D{E{F{G{H{I{J{K{L{M{N{O{P{Q{R{S{T{U{V{W{X{Y{Z{`{ ].]+]@]#]$]%]&]*]=]-];]>],]'])]!]~]{]]]^]/](]_]:]<][]}]|]1]2]3]4]",
"5]6]7]8]q{9]0]a]b]c]d]e]f]g]h]i]j]k]l]m]n]o]o]@]V!p]q]r]s]s]t]u]v]w]x]x]@]y]z]A]B]C]D]E]F]G]H]I]J]K]L]M]N]O]P]Q]R]S]T]U]V]W]X]Y]",
"Z]`] ^.^+^@^#^$^%^&^*^=^-^;^>^,^'^)^!^~^{^]^^^/^(^_^:^<^[^}^|^1^2^3^4^5^6^7^8^9^0^a^b^c^d^e^f^g^h^i^j^k^l^m^n^o^p^q^r^s^t^u^v^Y]",
"w^x^y^z^A^B^C^D^E^F^G^H^I^J^K^L^M^N^O^P^Q^R^S^T^U^V^W^X^Y^Z^`^ /./+/@/#/$/%/&/*/=/-/;/>/j',/'/)/!/~/{/]/^///(/_/:/</[/}/|/1/2/3/",
"4/5/6/7/8/9/0/a/b/c/d/e/f/g/h/i/j/2'k/l/m/n/o/p/q/r/s/t/>~u/v/>~w/x/y/z/A/B/C/D/E/J~F/G/H/I/J/K/L/M/N/O/P/Q/R/S/T/U/V/W/X/Y/Z/`/",
"4/ (.(+(@(#($(%(&(*(=(-(;(>(,('()(!(~({(](^(/(((_(:(<([(}(|(1(2(d!3(4(5(6(7(8(9(0(a(b(c(d(e(f(g(h(i(j(k(l(m(n(o(p(q(r(s(t(u(v(w(",
"x(y(z(A(B(C(D(E(F(G(H(I(J(K(L(M(N(O(P(Q(R(S(T(U(V(H~W(X(Y(Z(`( _._+_/!@_#_$_%_&_*_=_-_;_>_,_'_)_!_~_{_]_^_/_(___:_<_[_}_|_1_2_w(",
"3_4_5_6_7_8_9_0_a_b_c_d_e_f_g_h_i_j_k_l_m_n_o_p_q_r_s_t_q)>~u_v_k~w_x_y_z_A_B_C_D_E_F_G_H_I_J_K_L_M_N_O_P_Q_R_S_T_U_V_W_X_Y_Z_`_",
" :.:+:@:#:$:%:&:*:=:-:;:>:,:':):!:~:{:]:^:/:(:_:::::<:[:}:}:|:1:2:3:4:5:6:7:/:8:9:0:a:b:c:d:e:f:g:h:i:j:k:l:m:n:o:p:q:r:s:t:u:v:",
"w:x:y:z:A:B:C:D:E:F:G:H:I:J:K:L:M:N:O:P:Q:R:S:T:U:V:W:X:Y:Z:}:3:`: <.<+<@<#<$<%<&<*<=<-<;<><,<'<)<!<~<{<]<^</<(<_<:<<<[<}<|<1<2<",
"3<4<5<6<7<8<9<0<a<b<c<d<e<f<g<h<i<j<k<l<m<n<o<p<q<r<s<t<u<v<w<x<y<z<A<B<C<D<E<F<G<H<I<J<K<L<M<N<O<P<Q<R<S<T<U<V<W<X<Y<Z<`< [.[+[",
"@[#[$[%[&[*[=[-[;[>[,['[)[![~[{[][^[/[([_[:[<[[[}[|[1[2[3[4[5[6[7[8[9[0[a[b[c[d[e[f[g[h[i[j[k[l[m[n[o[p[q[r[s[t[u[v[w[x[y[z[A[B[",
"C[D[E[F[G[H[I[J[K[L[M[N[O[P[Q[R[S[T[U[V[W[X[Y[Z[`[ }.}+}@}#}$}%}&}*}=}-};}>},}'})}!}~}{}]}^}/}(}_}:}<}[}}}|}1}2}3}4}5}6}7}8}9}0}",
"a}b}c}d}e}f}g}h}i}j}k}l}m}n}o}p}q}r}s}t}u}v}w}x}y}z}A}B}C}D}E}F}G}H}I}J}K}L}M}N}O}P}Q}R}S}T}U}V}W}X}Y}Z}`} |.|+|@|#|$|%|&|*|=|-|",
";|>|,|'|)|!|~|{|]|^|/|(|_|:|<|[|}|||1|2|3|4|5|6|7|8|9|0|a|b|c|d|e|f|g|h|i|j|k|e*l|m|n|o|p|q|r|s|t|u|v|w|x|y|z|A|B|C|D|E|F|G|H|I|",
"J|K|L|M|N|O|P|Q|R|S|T|U|V|W|X|Y|Z|`| 1.1+1@1#1$1%1&1*1=1-1;1>1,1M,'1)1!1~1{1]1^1f-/1(1_1:1<1[1}1|11121+)3141516171819101a1b1c1d1",
"e1f1g1h1i1j1k1l1m1n1o1p1q1r1s1t1u1v1w1x1y1z1A1B1C1D12'E1F1G1H1I1J1K1L1M1N1O1P1a>h*Q1R1S1T1U1V1W1X1Y1Z1`1 2.2+2@2#2$2%2&2*2=2-2;2",
">2>2,2'2)2!2~2{2]2^2/2(2_2:2<2[2}2|212223242526272f'8292020202J~J~K1a2b2c2d2e2f2g2h2i2j2k2l2m2n2o2p2q2r2s2t2u2v2w2x2y2z2A2B2C2D2",
"E2F2G2H2I2J2K2L2M2N2O2P2Q2R2S2T2U2V2W2X2Y2Z2`2 3.3~,02J~w,02w,w,0202+3@3#3$3%3&3*3^;e*=3-3;3>3,3'3)3!3~3{3]3^3/3(3_3:3<3[3}3|313",
"233343536373839303a3b3c3d3e3f3g3h3i3j3k3l3m3n3o3p3q30202J~02J~02r3s3t3u3v3w3x3y3z3A3B3C3D3E3F3G3H3I3J3K3L3M3N3b#O3P3Q3R3S3T3U3V3",
"W3X3Y3Z3`3 4.4+4@4#4$4%4&4*4=4-4;4>4,4'4)4!4~4{4]4^4/4w,(402_4:4<4[4}4|414243444546474849404a4b4c4d4e4f4g4h4i4j4k4l4m4n4o4p4q4r4",
"s4t4u4v4w4x4y4z4A4B4C4D4E4F4G4H4I4J4K4L4M4N4O4P4Q4R4S4T4U4V4W4X4Y4Z4`4 5.5+5@5#5$5%5&5*5=5-5;5;5>5,5'5)5!5~5{5]5^5/5(5_5:5<5[5}5",
"|515253545556575859505a5b5c5d5e5f5g5h5i5j5k5l5m5n5o5p5q5r5s5t5u5v5w5x5y5z5A5B5C5D5E5F5Q!G5H5I5J5K5L5M5N5O5P5Q5R5S5T5U5V5W5X5Y5Z5",
"`5 6.6+6@6#6$6%6&6*6=6-6;6>6,6'6)6!6~6{6]6^6/6(6_6:6<6[6}6|61626|43646566676869606a6b6c6d6e6f6g6h6i6j6k6l6m6n6o6p6q6r6s6t6u6v6w6",
"x6y6z6A6B6C6D6E6F6G6H6I6J6K6L6M6N6O6P6Q6R6S6T6U6V6W6X6Y6Z6`6 7.7+7@7#7$7%7&7*7=7-7;7>7,7'7)7!7~7{7]7^7/7(7_7:7<7[7}7|717273747w6",
"576777879707a7b7c7d7e7f7g7h7i7j7k7l7m7n7o7p7q7r7s7t7u7v7w7x7y7z7A7B7C7D7E7F7G7X-H7I7J7K7L7M7N7O7P7Q7R7S7T7U7V7W7X7Y7Z7`7 8.8+8@8",
"#8$8%8&8*8=8-8;8>8e7,8'8f7)8!8~8~8{8W_]8^8/8(8_8:8<8[8}8|818283848586878889808a8b8c8d8e8f8g8h8i8j8k8l8m8n8o8p8q8r8s8t8u8v8w8x8y8",
"z8A8B8C8D8E8F8G8>8H8I8J8K8L8M8N8O8P8Q8R8S8T8U8V8W8X8Y8Z8`8 9.9+9@9#9$9%9&9*9=9-9;9>9,9'9)9!9~9{9]9^9/9(9_9:9<9[9}9|9192939495969",
"79899909n7a9b9c9d9e9f9g9h9i9j9k9l9Y<m9n9o9p9q9r9s9t9u9v9w9x9y9z9A9B9C9D9E9F9G9H9f/I9J9K9L9M9N9O9P9Q9R9S9T9U9V9W9X9Y9Z9`9 0.0+0@0",
"#0$0%0&0*0=0-0;0>0,0'0)0!0~0{0]0]0^0/0(0_0:0<0[0}0|010203040506070809000a0b0c0d0e0f0g0h0i0j0k0l0m0n0o0p0q0r0s0t0u0v0w0x0y0z0A0B0",
"C0D0E0F0G0H0I0J0K0L0M0N0O0P0Q0R0S0T0U0V0W0X0Y0Z0`0 a.a+a@a#a$a%a&a*a=a-a;a>a,a'a)a!a~a{a]a^a/a(a_a_a:a<a[a}a|a1a2a3a4a5a6a7a8a9a",
"0aaabacadaeafagahaiajakalamanaoapaqarasatauavawaxayazaAa#aBaCaDaEaFaGaHaIaJaKaLaMaNaOaPaQaRaSaTaUaVaWaXaYaZa`a b.b+b@b#b$b%b&b*b",
"=b-b;b>b,b'b)b!b~b{b]b^b/b(b_b{b:b<b[b}b|b1b2b3b4b5b6b}b7b8b9b0babbbcbdbebfbgb~bhbibjbkblbmbnbobobpbqbrb&bsbtbubvbwbxbybzbAbBbCb",
"DbEbFbGbHbIbJbKbLbMbNbObPbQbRbSbTbUbVbWbXbYbZb`b c.c+c@c#c$c%c&c*c=c-c;c>c,c'c)c!c~c{c]c^c/c/c(c_c:c<c[c}c|c1c2c3c4c5c6c7c8c9c0c"};
