/* XPM */
static char * exit_xpm[] = {
"64 69 4223 2",
"  	c #C9B9A0",
". 	c #7B4235",
"+ 	c #864E38",
"@ 	c #F2D199",
"# 	c #F8D89C",
"$ 	c #F9D99D",
"% 	c #F8DA9C",
"& 	c #F9DC9D",
"* 	c #FADD9F",
"= 	c #FADEA0",
"- 	c #FBDFA1",
"; 	c #F3D59A",
"> 	c #DBAC78",
", 	c #EABE8B",
"' 	c #F3CD8F",
") 	c #F3CF8F",
"! 	c #D8AB7E",
"~ 	c #652825",
"{ 	c #682926",
"] 	c #7E4432",
"^ 	c #9C6449",
"/ 	c #C08D64",
"( 	c #F0C78E",
"_ 	c #F0CF92",
": 	c #F3D295",
"< 	c #F4D397",
"[ 	c #F2D197",
"} 	c #F2D198",
"| 	c #F2D299",
"1 	c #F3D399",
"2 	c #F3D59B",
"3 	c #F2CF96",
"4 	c #E2B27E",
"5 	c #DCA873",
"6 	c #DDA972",
"7 	c #E8BC82",
"8 	c #EABE87",
"9 	c #DFB37C",
"0 	c #E3B984",
"a 	c #E2B984",
"b 	c #E1B480",
"c 	c #DDB380",
"d 	c #D9B17F",
"e 	c #D7AD7F",
"f 	c #A46B4A",
"g 	c #723629",
"h 	c #652B22",
"i 	c #CA9C72",
"j 	c #F5D39E",
"k 	c #F7D69D",
"l 	c #F7D49B",
"m 	c #FBD7A0",
"n 	c #FBDBA1",
"o 	c #FAD69A",
"p 	c #E3B77D",
"q 	c #DEAD77",
"r 	c #C58D61",
"s 	c #D3A170",
"t 	c #E2B37A",
"u 	c #F0C789",
"v 	c #EDC58D",
"w 	c #E0B484",
"x 	c #99513D",
"y 	c #B4816B",
"z 	c #562724",
"A 	c #BD906F",
"B 	c #E6C290",
"C 	c #F9E09D",
"D 	c #F8DB99",
"E 	c #F7D897",
"F 	c #F7DA98",
"G 	c #F7DA99",
"H 	c #F9DC9B",
"I 	c #FADE9C",
"J 	c #F8DD9B",
"K 	c #F7DB9C",
"L 	c #EDC58C",
"M 	c #EFC68E",
"N 	c #FADB9C",
"O 	c #F9DD9C",
"P 	c #E8C291",
"Q 	c #814B40",
"R 	c #78332C",
"S 	c #C7956B",
"T 	c #F5CE94",
"U 	c #F5D295",
"V 	c #F3CF8C",
"W 	c #F3D290",
"X 	c #F7D693",
"Y 	c #F8D797",
"Z 	c #F4D496",
"` 	c #F7DB9B",
" .	c #F8DFA0",
"..	c #F9E0A2",
"+.	c #FBE3A5",
"@.	c #FBDEA5",
"#.	c #C69664",
"$.	c #D5A16E",
"%.	c #E5B17C",
"&.	c #EFBE84",
"*.	c #F3C988",
"=.	c #F0C886",
"-.	c #F5CD8D",
";.	c #F5CE8E",
">.	c #F4D190",
",.	c #F8DB98",
"'.	c #F8DE9B",
").	c #F7DD9B",
"!.	c #E1B680",
"~.	c #A47255",
"{.	c #6D3426",
"].	c #E6C091",
"^.	c #F4E0A5",
"/.	c #F7E1A2",
"(.	c #F3D89A",
"_.	c #F5D79D",
":.	c #F7DEA2",
"<.	c #F9DCA0",
"[.	c #F3D298",
"}.	c #F9D59C",
"|.	c #DDAE7E",
"1.	c #C7986B",
"2.	c #E7BD87",
"3.	c #F5D591",
"4.	c #F7DB91",
"5.	c #F2D48E",
"6.	c #DDB48D",
"7.	c #8D4436",
"8.	c #4E1717",
"9.	c #C1A67F",
"0.	c #F7E7AA",
"a.	c #F8E19E",
"b.	c #F9DB99",
"c.	c #F9D998",
"d.	c #FDDE9D",
"e.	c #F8D898",
"f.	c #F3CE90",
"g.	c #F6D495",
"h.	c #F7D696",
"i.	c #F5D797",
"j.	c #F9E1A2",
"k.	c #F8DDA0",
"l.	c #EECE92",
"m.	c #F6D8A0",
"n.	c #946853",
"o.	c #79362E",
"p.	c #CBA16F",
"q.	c #F9D892",
"r.	c #F5D38F",
"s.	c #F4CE8D",
"t.	c #F5CF8E",
"u.	c #F8D192",
"v.	c #F8D294",
"w.	c #F5D294",
"x.	c #FBDC9D",
"y.	c #F9DF9F",
"z.	c #FAE0A2",
"A.	c #FCE3A6",
"B.	c #FBE4A7",
"C.	c #F8D89E",
"D.	c #FAD69B",
"E.	c #F2C78D",
"F.	c #E5AF76",
"G.	c #EEBE83",
"H.	c #F3C387",
"I.	c #EBBA7F",
"J.	c #EFBF84",
"K.	c #F1C186",
"L.	c #F1C68A",
"M.	c #F5CB8D",
"N.	c #F4D08F",
"O.	c #F1C88C",
"P.	c #B98A69",
"Q.	c #682E24",
"R.	c #E8C797",
"S.	c #F7E4A8",
"T.	c #FAE3A5",
"U.	c #FBE0A3",
"V.	c #FDE0A6",
"W.	c #F9DFA4",
"X.	c #FAE2A8",
"Y.	c #FADCA4",
"Z.	c #F0CB96",
"`.	c #F0C38E",
" +	c #EFC793",
".+	c #FEE09F",
"++	c #FBE19B",
"@+	c #FADF9B",
"#+	c #F7DF99",
"$+	c #FBE8B3",
"%+	c #6A3F32",
"&+	c #4C1818",
"*+	c #BCA07E",
"=+	c #F7EAB2",
"-+	c #F7DA9A",
";+	c #F9D292",
">+	c #FCDE9B",
",+	c #FCE39F",
"'+	c #F9DC9A",
")+	c #F1C387",
"!+	c #F1C689",
"~+	c #EFC286",
"{+	c #ECC688",
"]+	c #FCEBA8",
"^+	c #FBEAA8",
"/+	c #FCE2A2",
"(+	c #FBE0A0",
"_+	c #FCDFA2",
":+	c #997056",
"<+	c #7D3C36",
"[+	c #CBA170",
"}+	c #FBD791",
"|+	c #F6D38F",
"1+	c #F6CE8F",
"2+	c #F9D194",
"3+	c #F8D194",
"4+	c #FBDD9C",
"5+	c #FADC9C",
"6+	c #FADE9E",
"7+	c #FAE0A1",
"8+	c #FADDA0",
"9+	c #E6BA83",
"0+	c #CF9965",
"a+	c #E9B881",
"b+	c #F5CB91",
"c+	c #F5CB90",
"d+	c #EFC588",
"e+	c #EEBF84",
"f+	c #F0BF85",
"g+	c #F1BF85",
"h+	c #F1C187",
"i+	c #F0C488",
"j+	c #F2C68C",
"k+	c #BB8C6A",
"l+	c #642B21",
"m+	c #E1BE90",
"n+	c #F9DCA3",
"o+	c #FADDA1",
"p+	c #FCDEA2",
"q+	c #FBDCA2",
"r+	c #FCDDA3",
"s+	c #FEE1A8",
"t+	c #F8DAA0",
"u+	c #E5BC85",
"v+	c #EBC68D",
"w+	c #FADB9F",
"x+	c #FAE19D",
"y+	c #FCE8A6",
"z+	c #FDE7A4",
"A+	c #FBE8A0",
"B+	c #F9E6B3",
"C+	c #5B3027",
"D+	c #4F1B1B",
"E+	c #C4A786",
"F+	c #FBEEB9",
"G+	c #F1CA90",
"H+	c #DEA369",
"I+	c #E3B679",
"J+	c #FAD796",
"K+	c #FBDB98",
"L+	c #F4CA89",
"M+	c #F4C988",
"N+	c #F5C98C",
"O+	c #F1CB8D",
"P+	c #FCE9A6",
"Q+	c #FBEBA7",
"R+	c #FCE8A4",
"S+	c #FDE6A5",
"T+	c #F9DAA0",
"U+	c #865B46",
"V+	c #7B3935",
"W+	c #C59665",
"X+	c #F8D28C",
"Y+	c #FAD693",
"Z+	c #F6CD90",
"`+	c #F7CC92",
" @	c #F7D092",
".@	c #FAD998",
"+@	c #F9DE9B",
"@@	c #FADA99",
"#@	c #F8D493",
"$@	c #FCDC9A",
"%@	c #FADB98",
"&@	c #F6CD8E",
"*@	c #F2C688",
"=@	c #FAD897",
"-@	c #F9D798",
";@	c #F8D697",
">@	c #F4D192",
",@	c #EEC085",
"'@	c #F0C086",
")@	c #EFC288",
"!@	c #EEC189",
"~@	c #B38363",
"{@	c #682B23",
"]@	c #DFB98B",
"^@	c #F8DB9F",
"/@	c #F6D49A",
"(@	c #FCD59C",
"_@	c #F8D29A",
":@	c #FDD89E",
"<@	c #FCDDA0",
"[@	c #F9DA9C",
"}@	c #F9D499",
"|@	c #F9DD9F",
"1@	c #FAE2A0",
"2@	c #FDE8A6",
"3@	c #FFEAA5",
"4@	c #F8E199",
"5@	c #F3DFAC",
"6@	c #55291F",
"7@	c #501B1B",
"8@	c #D3B596",
"9@	c #FCF1BE",
"0@	c #F8DBA4",
"a@	c #E0A96E",
"b@	c #DEAA6E",
"c@	c #EECA88",
"d@	c #F8DA96",
"e@	c #F8D895",
"f@	c #F9D895",
"g@	c #FCD897",
"h@	c #F9DC99",
"i@	c #FBE29D",
"j@	c #F5D99E",
"k@	c #E7C38C",
"l@	c #FDE6A9",
"m@	c #F0D4A2",
"n@	c #72463C",
"o@	c #955742",
"p@	c #E0A16A",
"q@	c #EBBF7C",
"r@	c #F9D392",
"s@	c #F9D293",
"t@	c #F4CC93",
"u@	c #F2C28A",
"v@	c #F6CE8E",
"w@	c #F7D392",
"x@	c #F7CF91",
"y@	c #F4C88D",
"z@	c #F7D197",
"A@	c #FAD899",
"B@	c #FAD797",
"C@	c #F8D696",
"D@	c #F8D698",
"E@	c #F8D597",
"F@	c #F7D295",
"G@	c #F4CF92",
"H@	c #F3CA8F",
"I@	c #EDBD84",
"J@	c #F1C48A",
"K@	c #F2CB8F",
"L@	c #F4D093",
"M@	c #F3CA90",
"N@	c #F8D49E",
"O@	c #C19372",
"P@	c #672922",
"Q@	c #E9C896",
"R@	c #FCEEAE",
"S@	c #F7D99C",
"T@	c #EBBA83",
"U@	c #EFC28A",
"V@	c #FBD494",
"W@	c #FAD89A",
"X@	c #F9D99C",
"Y@	c #FDE1A0",
"Z@	c #E7BD82",
"`@	c #ECC186",
" #	c #F9E09B",
".#	c #F1DBA5",
"+#	c #55261B",
"@#	c #4E1A1A",
"##	c #CCAB8D",
"$#	c #FCEEBD",
"%#	c #FDE7AC",
"&#	c #F0C787",
"*#	c #FBDA97",
"=#	c #F9D995",
"-#	c #FAD794",
";#	c #F8D795",
">#	c #F7D595",
",#	c #F8D599",
"'#	c #F5D699",
")#	c #F7D89D",
"!#	c #F5D6A0",
"~#	c #FDE9B2",
"{#	c #F6E0B0",
"]#	c #6B4239",
"^#	c #9A6146",
"/#	c #D79F68",
"(#	c #FDDE96",
"_#	c #FCE29E",
":#	c #FEE5A3",
"<#	c #EFC189",
"[#	c #F6D291",
"}#	c #F6CF8F",
"|#	c #F5D08F",
"1#	c #F7D496",
"2#	c #F8DA9B",
"3#	c #F7DE9A",
"4#	c #F9E09C",
"5#	c #F9DF9E",
"6#	c #F7DD9C",
"7#	c #F4D897",
"8#	c #F4D797",
"9#	c #F6D898",
"0#	c #F1CD91",
"a#	c #F8DC9C",
"b#	c #FDE8A7",
"c#	c #FAEAAE",
"d#	c #F7DCA4",
"e#	c #F9DCA5",
"f#	c #BF9370",
"g#	c #511F17",
"h#	c #D7B284",
"i#	c #FAE3A6",
"j#	c #E4B37D",
"k#	c #F4CD8E",
"l#	c #FADA93",
"m#	c #F9DD9B",
"n#	c #F8DD9D",
"o#	c #F8DC9D",
"p#	c #F9DF99",
"q#	c #F5D190",
"r#	c #ECC486",
"s#	c #F5D993",
"t#	c #F1D8A2",
"u#	c #52251A",
"v#	c #4E1819",
"w#	c #8B4C36",
"x#	c #BC845F",
"y#	c #F7CF92",
"z#	c #F6CE93",
"A#	c #EFC48B",
"B#	c #EEC38B",
"C#	c #EDC48B",
"D#	c #EEC48C",
"E#	c #ECC68E",
"F#	c #EBC89A",
"G#	c #AF795B",
"H#	c #A66D56",
"I#	c #5A2B27",
"J#	c #5A2925",
"K#	c #A35A47",
"L#	c #CF956C",
"M#	c #DAAF7E",
"N#	c #E0B784",
"O#	c #E4B884",
"P#	c #E3B480",
"Q#	c #E7BB85",
"R#	c #E6BA84",
"S#	c #E7C287",
"T#	c #EBC88D",
"U#	c #ECC88F",
"V#	c #EBC890",
"W#	c #EAC78E",
"X#	c #E8C68D",
"Y#	c #E5C28B",
"Z#	c #E0BE89",
"`#	c #DCB886",
" $	c #DBB182",
".$	c #DAB07C",
"+$	c #DDB07E",
"@$	c #D4A674",
"#$	c #D9A878",
"$$	c #D7A676",
"%$	c #D6AD7D",
"&$	c #D2A073",
"*$	c #B2744E",
"=$	c #8A533E",
"-$	c #380F13",
";$	c #8F543F",
">$	c #AF7954",
",$	c #E8BC86",
"'$	c #FBD096",
")$	c #FAD79B",
"!$	c #F6D598",
"~$	c #F5D198",
"{$	c #F4D199",
"]$	c #F5D29A",
"^$	c #F4D39A",
"/$	c #F4D499",
"($	c #F3D593",
"_$	c #F8DB95",
":$	c #E4BA84",
"<$	c #B6764A",
"[$	c #CD956D",
"}$	c #451716",
"|$	c #4B1718",
"1$	c #93523E",
"2$	c #C2825D",
"3$	c #B97754",
"4$	c #BA7D59",
"5$	c #B27150",
"6$	c #AF6B4D",
"7$	c #AA6748",
"8$	c #A86749",
"9$	c #A9674B",
"0$	c #AA684C",
"a$	c #AC694D",
"b$	c #AC674E",
"c$	c #A8684D",
"d$	c #B5775B",
"e$	c #AB6C57",
"f$	c #AB6551",
"g$	c #68332D",
"h$	c #53211E",
"i$	c #964B42",
"j$	c #A05547",
"k$	c #9B5443",
"l$	c #94523E",
"m$	c #A15B44",
"n$	c #A8624A",
"o$	c #A6624A",
"p$	c #A15D45",
"q$	c #A05643",
"r$	c #A15644",
"s$	c #A35841",
"t$	c #A35940",
"u$	c #9F553E",
"v$	c #9E523F",
"w$	c #9B503E",
"x$	c #974B3C",
"y$	c #95483B",
"z$	c #914739",
"A$	c #9C533F",
"B$	c #A96045",
"C$	c #AC6348",
"D$	c #AE6449",
"E$	c #B1684D",
"F$	c #A85F42",
"G$	c #A85E42",
"H$	c #AD6547",
"I$	c #8B4F3E",
"J$	c #340A0F",
"K$	c #9E604D",
"L$	c #B77C59",
"M$	c #C28B5C",
"N$	c #CD996E",
"O$	c #B77C5A",
"P$	c #A76B49",
"Q$	c #A4684A",
"R$	c #A5674B",
"S$	c #A6684C",
"T$	c #A8694D",
"U$	c #A96A4F",
"V$	c #A86B4C",
"W$	c #B88056",
"X$	c #C07F58",
"Y$	c #C97C5B",
"Z$	c #C48761",
"`$	c #451718",
" %	c #491618",
".%	c #965844",
"+%	c #D0956E",
"@%	c #B47559",
"#%	c #9B563E",
"$%	c #A8644B",
"%%	c #AA654C",
"&%	c #AA674C",
"*%	c #AB694E",
"=%	c #AB684F",
"-%	c #A9684E",
";%	c #9D5D47",
">%	c #D09777",
",%	c #D89F7A",
"'%	c #BC7B5C",
")%	c #69362C",
"!%	c #4F2320",
"~%	c #944A3D",
"{%	c #A55E4D",
"]%	c #995448",
"^%	c #87453E",
"/%	c #A15C44",
"(%	c #AE684E",
"_%	c #AB6550",
":%	c #A45D49",
"<%	c #9D5447",
"[%	c #9A5043",
"}%	c #9A5042",
"|%	c #974D3E",
"1%	c #974C3E",
"2%	c #964C3E",
"3%	c #934A3D",
"4%	c #94493D",
"5%	c #98483F",
"6%	c #95483C",
"7%	c #9F5242",
"8%	c #A95F4A",
"9%	c #AA6045",
"0%	c #AD6248",
"a%	c #A85F47",
"b%	c #A25B42",
"c%	c #9E5840",
"d%	c #A86147",
"e%	c #8B513E",
"f%	c #310A07",
"g%	c #A46D53",
"h%	c #C18761",
"i%	c #B87F5D",
"j%	c #9E5D46",
"k%	c #A6644D",
"l%	c #A9674F",
"m%	c #AB6850",
"n%	c #AA684E",
"o%	c #AB684E",
"p%	c #AA694E",
"q%	c #A9694E",
"r%	c #A7694D",
"s%	c #C38765",
"t%	c #E0A572",
"u%	c #C99365",
"v%	c #451A14",
"w%	c #461518",
"x%	c #8C543F",
"y%	c #C38563",
"z%	c #A25F44",
"A%	c #A9644B",
"B%	c #AA654D",
"C%	c #AB664E",
"D%	c #AB674D",
"E%	c #AB694D",
"F%	c #AC6A4E",
"G%	c #AC6950",
"H%	c #AD6A51",
"I%	c #AA6A4F",
"J%	c #A4644E",
"K%	c #A05F4A",
"L%	c #BD8062",
"M%	c #B57356",
"N%	c #6F3D33",
"O%	c #320D0E",
"P%	c #8F4C3C",
"Q%	c #AB644B",
"R%	c #A25D49",
"S%	c #8E4C40",
"T%	c #A4634C",
"U%	c #B27258",
"V%	c #A76757",
"W%	c #8A4B43",
"X%	c #722D28",
"Y%	c #6E2923",
"Z%	c #6E2922",
"`%	c #6C2820",
" &	c #6C2923",
".&	c #6C2825",
"+&	c #6D2925",
"@&	c #702B26",
"#&	c #792E2B",
"$&	c #78312D",
"%&	c #74382F",
"&&	c #8A4A3D",
"*&	c #A05A45",
"=&	c #A35D42",
"-&	c #9F5B42",
";&	c #9A563D",
">&	c #97523B",
",&	c #9F5A42",
"'&	c #7F4B39",
")&	c #2E0A08",
"!&	c #99614D",
"~&	c #A56A51",
"{&	c #9F634A",
"]&	c #A9674C",
"^&	c #AD6B4F",
"/&	c #AD6B50",
"(&	c #AD6A50",
"_&	c #AC6B51",
":&	c #AA6B50",
"<&	c #A86A51",
"[&	c #A0624C",
"}&	c #B67D5B",
"|&	c #B67E5D",
"1&	c #451C18",
"2&	c #421013",
"3&	c #8B523F",
"4&	c #A36345",
"5&	c #A7634C",
"6&	c #AA674F",
"7&	c #AA674E",
"8&	c #AA674D",
"9&	c #AA684D",
"0&	c #AA694D",
"a&	c #AB6A4E",
"b&	c #AB6B51",
"c&	c #A96952",
"d&	c #A6654F",
"e&	c #A5634E",
"f&	c #AA664F",
"g&	c #6F3D35",
"h&	c #1E0206",
"i&	c #774035",
"j&	c #8D5542",
"k&	c #8C5042",
"l&	c #824A41",
"m&	c #7C4537",
"n&	c #7B4638",
"o&	c #5E302E",
"p&	c #3E0A13",
"q&	c #B98969",
"r&	c #D9C08A",
"s&	c #E5D2A5",
"t&	c #E8D4A8",
"u&	c #E9D1A9",
"v&	c #E5CBA5",
"w&	c #DCC4A0",
"x&	c #E4CBA6",
"y&	c #E8D1AD",
"z&	c #DCC2A5",
"A&	c #6F3F38",
"B&	c #340C11",
"C&	c #743933",
"D&	c #7F3F32",
"E&	c #804133",
"F&	c #7D3E32",
"G&	c #814031",
"H&	c #88463A",
"I&	c #491C1B",
"J&	c #2A0A0B",
"K&	c #97604D",
"L&	c #9B5E49",
"M&	c #A56750",
"N&	c #AB6C50",
"O&	c #AD6A4E",
"P&	c #AC6B4E",
"Q&	c #AC6C4F",
"R&	c #AC6C50",
"S&	c #AC6D51",
"T&	c #AA6D52",
"U&	c #A86C53",
"V&	c #995C48",
"W&	c #A06451",
"X&	c #A96F5A",
"Y&	c #431A19",
"Z&	c #3E0C11",
"`&	c #8C5240",
" *	c #9D5D42",
".*	c #A6634E",
"+*	c #A9674E",
"@*	c #AA6A4E",
"#*	c #AA6A51",
"$*	c #A86850",
"%*	c #A96951",
"&*	c #AE6C54",
"**	c #6F3D36",
"=*	c #160305",
"-*	c #4C1B19",
";*	c #5B2623",
">*	c #351212",
",*	c #1C080F",
"'*	c #22060D",
")*	c #21050C",
"!*	c #1C060E",
"~*	c #371412",
"{*	c #D5B794",
"]*	c #F8E6A1",
"^*	c #FBEDB4",
"/*	c #FBEEB5",
"(*	c #FBEEB4",
"_*	c #FDF0B7",
":*	c #FDF1B8",
"<*	c #FBF4B9",
"[*	c #F5EAB4",
"}*	c #C7A98C",
"|*	c #23060A",
"1*	c #250708",
"2*	c #340C0D",
"3*	c #380F11",
"4*	c #441516",
"5*	c #602222",
"6*	c #74312F",
"7*	c #390D11",
"8*	c #280809",
"9*	c #99624E",
"0*	c #9B5F48",
"a*	c #A56850",
"b*	c #A6684B",
"c*	c #A7684B",
"d*	c #A9694D",
"e*	c #AA6B4E",
"f*	c #AA6B4F",
"g*	c #A96C52",
"h*	c #A76B53",
"i*	c #A16650",
"j*	c #9B614E",
"k*	c #A36958",
"l*	c #451C1D",
"m*	c #3C0B17",
"n*	c #824C40",
"o*	c #995C46",
"p*	c #9D5D4B",
"q*	c #A1614E",
"r*	c #A3644F",
"s*	c #A66651",
"t*	c #A66752",
"u*	c #A76852",
"v*	c #A76853",
"w*	c #A66751",
"x*	c #A46651",
"y*	c #A46751",
"z*	c #A2654F",
"A*	c #A1624E",
"B*	c #A2624F",
"C*	c #AC6A59",
"D*	c #683B35",
"E*	c #110306",
"F*	c #421917",
"G*	c #5A2A22",
"H*	c #4B1F1F",
"I*	c #7C6D66",
"J*	c #8F837A",
"K*	c #948076",
"L*	c #634C46",
"M*	c #3A1313",
"N*	c #D5C0A0",
"O*	c #F8E4A3",
"P*	c #F8DD9A",
"Q*	c #FADC9A",
"R*	c #FBDC9A",
"S*	c #FCDD9C",
"T*	c #FBDE9C",
"U*	c #FAE8A6",
"V*	c #D9BD98",
"W*	c #28060A",
"X*	c #2B1414",
"Y*	c #63443C",
"Z*	c #5E4036",
"`*	c #4D2F2B",
" =	c #41151B",
".=	c #561D20",
"+=	c #320810",
"@=	c #210507",
"#=	c #7D4D40",
"$=	c #885141",
"%=	c #9E6552",
"&=	c #9F634D",
"*=	c #9D634D",
"==	c #9F634E",
"-=	c #A0644E",
";=	c #A1654F",
">=	c #A26550",
",=	c #A0644F",
"'=	c #A06550",
")=	c #9E6551",
"!=	c #986150",
"~=	c #905D4C",
"{=	c #88584A",
"]=	c #7C5144",
"^=	c #402625",
"/=	c #856A68",
"(=	c #200607",
"_=	c #34160F",
":=	c #351210",
"<=	c #381312",
"[=	c #391413",
"}=	c #3B1615",
"|=	c #3D1716",
"1=	c #3F1817",
"2=	c #3F1918",
"3=	c #3C1714",
"4=	c #391310",
"5=	c #3C1613",
"6=	c #3F1815",
"7=	c #401A16",
"8=	c #411C18",
"9=	c #4D2520",
"0=	c #2E0F11",
"a=	c #0F0109",
"b=	c #180105",
"c=	c #533D31",
"d=	c #957B60",
"e=	c #E1CFAA",
"f=	c #E5D6A8",
"g=	c #E0C99A",
"h=	c #A5866D",
"i=	c #411117",
"j=	c #D3B999",
"k=	c #FBE9AD",
"l=	c #F9E0A1",
"m=	c #F9DE9E",
"n=	c #F9DD9E",
"o=	c #FADE9F",
"p=	c #FCE8AB",
"q=	c #D7BB94",
"r=	c #350C11",
"s=	c #66483C",
"t=	c #C39C77",
"u=	c #B78F67",
"v=	c #936A51",
"w=	c #5B382B",
"x=	c #3F1613",
"y=	c #1F0308",
"z=	c #180309",
"A=	c #1B0203",
"B=	c #240508",
"C=	c #331113",
"D=	c #3B1616",
"E=	c #3E1817",
"F=	c #3D1718",
"G=	c #391515",
"H=	c #361314",
"I=	c #351112",
"J=	c #300D0E",
"K=	c #2B0B0A",
"L=	c #250706",
"M=	c #1B0405",
"N=	c #120202",
"O=	c #0C0204",
"P=	c #080001",
"Q=	c #73685D",
"R=	c #452B28",
"S=	c #1A0209",
"T=	c #25050B",
"U=	c #421A16",
"V=	c #461C18",
"W=	c #431B17",
"X=	c #361214",
"Y=	c #361313",
"Z=	c #371313",
"`=	c #331013",
" -	c #26080C",
".-	c #2D0C0E",
"+-	c #2F0C0F",
"@-	c #2F0D0F",
"#-	c #2C0C0C",
"$-	c #250607",
"%-	c #280807",
"&-	c #270606",
"*-	c #4B2B25",
"=-	c #93775F",
"--	c #E9D2A8",
";-	c #EFD8A6",
">-	c #F2E3B0",
",-	c #F5E4B8",
"'-	c #DEC699",
")-	c #B49279",
"!-	c #451114",
"~-	c #D1B493",
"{-	c #FDEFB3",
"]-	c #FCEAAB",
"^-	c #FBE8A8",
"/-	c #FBE6A7",
"(-	c #FBE5A7",
"_-	c #FBE2A5",
":-	c #FBE8AD",
"<-	c #D0B791",
"[-	c #3A0F12",
"}-	c #7B5A44",
"|-	c #F1CD95",
"1-	c #EDCC90",
"2-	c #EFCC8E",
"3-	c #E7C387",
"4-	c #D5A879",
"5-	c #573729",
"6-	c #25040C",
"7-	c #210108",
"8-	c #1D040B",
"9-	c #2B0B0F",
"0-	c #3A1310",
"a-	c #36100C",
"b-	c #320B09",
"c-	c #2A0807",
"d-	c #1D0305",
"e-	c #160306",
"f-	c #22080A",
"g-	c #592A26",
"h-	c #5C2A24",
"i-	c #481C18",
"j-	c #301212",
"k-	c #1B0507",
"l-	c #090103",
"m-	c #301B17",
"n-	c #3F1A1C",
"o-	c #481B1D",
"p-	c #652D26",
"q-	c #995539",
"r-	c #995235",
"s-	c #995339",
"t-	c #773A2B",
"u-	c #81442F",
"v-	c #824630",
"w-	c #743A2B",
"x-	c #5C2920",
"y-	c #622D23",
"z-	c #693227",
"A-	c #6B3326",
"B-	c #682F22",
"C-	c #54231D",
"D-	c #472620",
"E-	c #49231B",
"F-	c #663C30",
"G-	c #C69E74",
"H-	c #EAC89E",
"I-	c #D7B789",
"J-	c #EFDAAE",
"K-	c #FDF3C8",
"L-	c #E4D2A7",
"M-	c #B08D77",
"N-	c #45111B",
"O-	c #BC9B7F",
"P-	c #EED89F",
"Q-	c #EDD89A",
"R-	c #FCE9A9",
"S-	c #FCE8A9",
"T-	c #FBE8AA",
"U-	c #FAE6A8",
"V-	c #FAE3A4",
"W-	c #F5DB9F",
"X-	c #F3D6A1",
"Y-	c #B8987A",
"Z-	c #3A1117",
"`-	c #74503C",
" ;	c #F2CD94",
".;	c #EFD192",
"+;	c #F3D493",
"@;	c #F1CF8E",
"#;	c #E7BB86",
"$;	c #835441",
"%;	c #5C2723",
"&;	c #491B15",
"*;	c #350F0C",
"=;	c #461617",
"-;	c #692E1F",
";;	c #783A27",
">;	c #743622",
",;	c #6B3023",
"';	c #58251F",
");	c #3A110F",
"!;	c #3E1510",
"~;	c #814230",
"{;	c #8B4631",
"];	c #874734",
"^;	c #67342B",
"/;	c #5B2D28",
"(;	c #4C2220",
"_;	c #370E12",
":;	c #41181B",
"<;	c #592522",
"[;	c #824333",
"};	c #A45C38",
"|;	c #A65F36",
"1;	c #A96039",
"2;	c #975236",
"3;	c #975335",
"4;	c #935032",
"5;	c #8D4C34",
"6;	c #844731",
"7;	c #7D4231",
"8;	c #753827",
"9;	c #743624",
"0;	c #733524",
"a;	c #9F7E65",
"b;	c #EED6B3",
"c;	c #ECD7B1",
"d;	c #E5D0AA",
"e;	c #E8C79A",
"f;	c #E3B787",
"g;	c #EAC795",
"h;	c #E1C8A0",
"i;	c #FAEFC3",
"j;	c #ECDBB0",
"k;	c #A6846A",
"l;	c #3E0D1A",
"m;	c #8E5F4E",
"n;	c #D6A471",
"o;	c #E0B67E",
"p;	c #F8E0A4",
"q;	c #FDE5AA",
"r;	c #FBE3A9",
"s;	c #FBE4A8",
"t;	c #F8DEA2",
"u;	c #F2CF98",
"v;	c #CF9D73",
"w;	c #7A4939",
"x;	c #3C101C",
"y;	c #522C23",
"z;	c #E8C392",
"A;	c #F2D49B",
"B;	c #F6D698",
"C;	c #F5D395",
"D;	c #EEC28C",
"E;	c #C29067",
"F;	c #DAAD7D",
"G;	c #D4AA7D",
"H;	c #BD9471",
"I;	c #7F533D",
"J;	c #713323",
"K;	c #854130",
"L;	c #7F3A26",
"M;	c #813E24",
"N;	c #793924",
"O;	c #6D3020",
"P;	c #6F3123",
"Q;	c #83402B",
"R;	c #944A36",
"S;	c #A8624B",
"T;	c #9A5A47",
"U;	c #7B4436",
"V;	c #471414",
"W;	c #481C1C",
"X;	c #6C372D",
"Y;	c #A96849",
"Z;	c #9B5634",
"`;	c #AD6942",
" >	c #AC6640",
".>	c #AB6644",
"+>	c #A45F3D",
"@>	c #A15D3F",
"#>	c #804029",
"$>	c #874831",
"%>	c #824330",
"&>	c #763729",
"*>	c #713324",
"=>	c #91634D",
"->	c #E7CEA1",
";>	c #F6ECC0",
">>	c #FCECBF",
",>	c #EFD1A0",
"'>	c #BF956C",
")>	c #D1A47C",
"!>	c #DFB788",
"~>	c #C09068",
"{>	c #A56D4F",
"]>	c #885342",
"^>	c #340D12",
"/>	c #562822",
"(>	c #C6916C",
"_>	c #D09B71",
":>	c #BC8761",
"<>	c #B4815B",
"[>	c #B4815C",
"}>	c #B78560",
"|>	c #B4825D",
"1>	c #B4815D",
"2>	c #A16E50",
"3>	c #68352D",
"4>	c #400F1E",
"5>	c #622D2B",
"6>	c #C9966D",
"7>	c #E0AD7C",
"8>	c #D5A474",
"9>	c #DAAE7F",
"0>	c #C3916A",
"a>	c #CF986E",
"b>	c #EEC08D",
"c>	c #F2C993",
"d>	c #F2CD96",
"e>	c #DCB78B",
"f>	c #6E4331",
"g>	c #6D2B20",
"h>	c #733122",
"i>	c #823C24",
"j>	c #763526",
"k>	c #712C22",
"l>	c #6E2A1F",
"m>	c #712B1F",
"n>	c #853B2A",
"o>	c #AD6246",
"p>	c #B06647",
"q>	c #A25F42",
"r>	c #894B39",
"s>	c #4C1918",
"t>	c #4C1E1E",
"u>	c #774333",
"v>	c #BD7C55",
"w>	c #A9653D",
"x>	c #9E5938",
"y>	c #904F31",
"z>	c #9B5A39",
"A>	c #AB6541",
"B>	c #A96342",
"C>	c #97583C",
"D>	c #955639",
"E>	c #773827",
"F>	c #662F21",
"G>	c #B8A17B",
"H>	c #DDC7A0",
"I>	c #FCF2C9",
"J>	c #F3DFAF",
"K>	c #E7BF8C",
"L>	c #E1AF7A",
"M>	c #CF9D71",
"N>	c #A87A56",
"O>	c #E7B88B",
"P>	c #E8B98C",
"Q>	c #C28D67",
"R>	c #A96C4F",
"S>	c #8E5444",
"T>	c #3D0E16",
"U>	c #4E1C1D",
"V>	c #B47D5E",
"W>	c #B67D5A",
"X>	c #B27757",
"Y>	c #B07757",
"Z>	c #B07858",
"`>	c #B07758",
" ,	c #9B644C",
".,	c #5E312A",
"+,	c #44141C",
"@,	c #7E3F2D",
"#,	c #C08861",
"$,	c #E3AE80",
"%,	c #D6A076",
"&,	c #AE7150",
"*,	c #9F5E3D",
"=,	c #C98A5F",
"-,	c #D59E6C",
";,	c #E9BC87",
">,	c #F5D39F",
",,	c #D9B389",
"',	c #6E3A2B",
"),	c #4B1914",
"!,	c #622820",
"~,	c #7E3627",
"{,	c #8C3D27",
"],	c #7E3221",
"^,	c #772E22",
"/,	c #873C2A",
"(,	c #B36749",
"_,	c #BA6F50",
":,	c #A46245",
"<,	c #935542",
"[,	c #521E1E",
"},	c #4D1F1E",
"|,	c #7B4535",
"1,	c #C07F53",
"2,	c #B66F47",
"3,	c #B56F46",
"4,	c #B76F47",
"5,	c #B87148",
"6,	c #A9623D",
"7,	c #A56141",
"8,	c #763E2B",
"9,	c #804830",
"0,	c #A58C6E",
"a,	c #F9EDBD",
"b,	c #FBF1C1",
"c,	c #EBD097",
"d,	c #E3B87D",
"e,	c #E0B078",
"f,	c #DBAA71",
"g,	c #DEAD7A",
"h,	c #BC8A63",
"i,	c #CF9E77",
"j,	c #E3B189",
"k,	c #CE9C75",
"l,	c #AE7A55",
"m,	c #925843",
"n,	c #441219",
"o,	c #471516",
"p,	c #B27D5D",
"q,	c #B78060",
"r,	c #B1795A",
"s,	c #B17859",
"t,	c #AF7758",
"u,	c #97624B",
"v,	c #5A312B",
"w,	c #3F161B",
"x,	c #8A4D36",
"y,	c #B07654",
"z,	c #DDA77A",
"A,	c #D19A74",
"B,	c #995942",
"C,	c #BA7C58",
"D,	c #D29464",
"E,	c #D79A66",
"F,	c #D59B68",
"G,	c #DBA873",
"H,	c #EFC690",
"I,	c #F5D199",
"J,	c #DCB686",
"K,	c #976C51",
"L,	c #521B1C",
"M,	c #5B241E",
"N,	c #813726",
"O,	c #8D3D28",
"P,	c #853B1E",
"Q,	c #A0542F",
"R,	c #BC7041",
"S,	c #BA6F4C",
"T,	c #AA684B",
"U,	c #461B1A",
"V,	c #734030",
"W,	c #C08256",
"X,	c #B06C40",
"Y,	c #B06C41",
"Z,	c #B67146",
"`,	c #A7623F",
" '	c #9A5C41",
".'	c #672E22",
"+'	c #773823",
"@'	c #BA936A",
"#'	c #E7D3A4",
"$'	c #FBE8B8",
"%'	c #EDCA91",
"&'	c #E1B374",
"*'	c #DFAB71",
"='	c #D9A36C",
"-'	c #D39F6A",
";'	c #D4A06E",
">'	c #D19B70",
",'	c #B37D5A",
"''	c #CC966F",
")'	c #D9A874",
"!'	c #D9A875",
"~'	c #9D654C",
"{'	c #421017",
"]'	c #431113",
"^'	c #B37E5F",
"/'	c #B8815C",
"('	c #B47B58",
"_'	c #B27A58",
":'	c #B17958",
"<'	c #B17956",
"['	c #9A654D",
"}'	c #522923",
"|'	c #2A0C0F",
"1'	c #945941",
"2'	c #AD6F4E",
"3'	c #D19A6F",
"4'	c #BE8563",
"5'	c #C08767",
"6'	c #CB8C63",
"7'	c #D39665",
"8'	c #D29862",
"9'	c #D79B69",
"0'	c #CE9765",
"a'	c #E9BB87",
"b'	c #EDC88A",
"c'	c #D6A974",
"d'	c #533123",
"e'	c #27090D",
"f'	c #531C17",
"g'	c #A25334",
"h'	c #C26F39",
"i'	c #C37138",
"j'	c #C06F36",
"k'	c #B96E46",
"l'	c #B0704E",
"m'	c #9B5C49",
"n'	c #531F1F",
"o'	c #431A1C",
"p'	c #5D2927",
"q'	c #A46549",
"r'	c #A4603C",
"s'	c #AB6643",
"t'	c #AB6442",
"u'	c #A96240",
"v'	c #A26045",
"w'	c #51241C",
"x'	c #673424",
"y'	c #B38457",
"z'	c #F4DDA6",
"A'	c #F5E2A8",
"B'	c #F0C890",
"C'	c #E6B27A",
"D'	c #E1AD75",
"E'	c #DDA76F",
"F'	c #DCA56E",
"G'	c #D7A26C",
"H'	c #D4A26B",
"I'	c #CE9C68",
"J'	c #BE8761",
"K'	c #A4694C",
"L'	c #D5A173",
"M'	c #C89368",
"N'	c #925342",
"O'	c #4D1A1E",
"P'	c #370C12",
"Q'	c #AB7559",
"R'	c #BA805B",
"S'	c #B77D59",
"T'	c #B37956",
"U'	c #B17857",
"V'	c #AF7756",
"W'	c #B07A54",
"X'	c #9E6550",
"Y'	c #4B2423",
"Z'	c #1F060B",
"`'	c #A66A51",
" )	c #B37653",
".)	c #AC6E4E",
"+)	c #D99F79",
"@)	c #C4865E",
"#)	c #D09465",
"$)	c #D29764",
"%)	c #D29766",
"&)	c #D39666",
"*)	c #D29565",
"=)	c #D19C69",
"-)	c #E3BA86",
";)	c #DDB080",
">)	c #C0986B",
",)	c #68412C",
"')	c #552A27",
"))	c #904F33",
"!)	c #BC6B3C",
"~)	c #B96639",
"{)	c #B56537",
"])	c #C27847",
"^)	c #C07D50",
"/)	c #A2614A",
"()	c #57211D",
"_)	c #441A1C",
":)	c #582026",
"<)	c #803D31",
"[)	c #8C4933",
"})	c #914F38",
"|)	c #8F4D37",
"1)	c #965338",
"2)	c #93553C",
"3)	c #28070B",
"4)	c #8E6A4E",
"5)	c #EECE9A",
"6)	c #E6C994",
"7)	c #EAC690",
"8)	c #D7A677",
"9)	c #E2AD78",
"0)	c #DEAA73",
"a)	c #DEA871",
"b)	c #DBA46E",
"c)	c #D4A06A",
"d)	c #D19F68",
"e)	c #CD9A67",
"f)	c #B8825C",
"g)	c #91523C",
"h)	c #A4604A",
"i)	c #A4614A",
"j)	c #995845",
"k)	c #6B3630",
"l)	c #1F0209",
"m)	c #612625",
"n)	c #8D5344",
"o)	c #915845",
"p)	c #915746",
"q)	c #905645",
"r)	c #8B5143",
"s)	c #8A5041",
"t)	c #905945",
"u)	c #754A41",
"v)	c #220A0E",
"w)	c #3A181A",
"x)	c #B27658",
"y)	c #B47657",
"z)	c #9F6247",
"A)	c #AE7052",
"B)	c #CE946B",
"C)	c #C2855D",
"D)	c #CE9364",
"E)	c #CE9463",
"F)	c #CD9262",
"G)	c #D29769",
"H)	c #D59A6A",
"I)	c #D7A372",
"J)	c #B8896A",
"K)	c #C49C75",
"L)	c #DCB982",
"M)	c #BE9C76",
"N)	c #270D0C",
"O)	c #4D241C",
"P)	c #9F583E",
"Q)	c #9F553B",
"R)	c #A1573A",
"S)	c #B97149",
"T)	c #B16E4A",
"U)	c #995B46",
"V)	c #4F1B19",
"W)	c #4A1F20",
"X)	c #743F32",
"Y)	c #B1704C",
"Z)	c #BA7751",
"`)	c #A05D3F",
" !	c #884530",
".!	c #7D4431",
"+!	c #663326",
"@!	c #3E1512",
"#!	c #C09B70",
"$!	c #ECD19A",
"%!	c #F4D49D",
"&!	c #C28F66",
"*!	c #92553C",
"=!	c #D8A170",
"-!	c #DBA56F",
";!	c #D5A06B",
">!	c #D09B66",
",!	c #CD9864",
"'!	c #CB9765",
")!	c #B9825B",
"!!	c #955940",
"~!	c #975741",
"{!	c #9E5D4C",
"]!	c #9D5745",
"^!	c #7C463C",
"/!	c #090003",
"(!	c #0D0003",
"_!	c #55302F",
":!	c #683E3B",
"<!	c #6E3F3F",
"[!	c #713F40",
"}!	c #6D3C3C",
"|!	c #6C3D3A",
"1!	c #6F413D",
"2!	c #422728",
"3!	c #080302",
"4!	c #5E332D",
"5!	c #B17054",
"6!	c #AE6C55",
"7!	c #A96B56",
"8!	c #A96C50",
"9!	c #C78C64",
"0!	c #C1845A",
"a!	c #CF9365",
"b!	c #D19768",
"c!	c #D3996A",
"d!	c #D39A6B",
"e!	c #D89E70",
"f!	c #CD9971",
"g!	c #84543A",
"h!	c #E7C69E",
"i!	c #F2D7A5",
"j!	c #D4AC83",
"k!	c #734F39",
"l!	c #3B1513",
"m!	c #6C352D",
"n!	c #7F4532",
"o!	c #864230",
"p!	c #793B2E",
"q!	c #814936",
"r!	c #713A2D",
"s!	c #441C1E",
"t!	c #4D2020",
"u!	c #723C2C",
"v!	c #BB794D",
"w!	c #BB774A",
"x!	c #A35D3B",
"y!	c #7D4735",
"z!	c #562725",
"A!	c #B88C6A",
"B!	c #DAAE73",
"C!	c #DCB274",
"D!	c #E3B97C",
"E!	c #D9AA75",
"F!	c #BD8866",
"G!	c #9E6947",
"H!	c #DAA673",
"I!	c #DAA56F",
"J!	c #D09B65",
"K!	c #CD9862",
"L!	c #C89360",
"M!	c #B78059",
"N!	c #965B41",
"O!	c #955945",
"P!	c #71433A",
"Q!	c #754B45",
"R!	c #5F3F3A",
"S!	c #050001",
"T!	c #040102",
"U!	c #030001",
"V!	c #020100",
"W!	c #030000",
"X!	c #020000",
"Y!	c #040100",
"Z!	c #060100",
"`!	c #5A342D",
" ~	c #794B3C",
".~	c #986757",
"+~	c #9D6148",
"@~	c #AE7153",
"#~	c #C88D63",
"$~	c #CB8F64",
"%~	c #D29869",
"&~	c #D89F72",
"*~	c #D49C70",
"=~	c #BC8462",
"-~	c #A16F53",
";~	c #DBB490",
">~	c #E3C395",
",~	c #D5AE83",
"'~	c #C18D66",
")~	c #BB8863",
"!~	c #7B503D",
"~~	c #300F12",
"{~	c #76402E",
"]~	c #83422E",
"^~	c #7F4230",
"/~	c #9D603D",
"(~	c #9C6144",
"_~	c #461C1B",
":~	c #552525",
"<~	c #6D3326",
"[~	c #B6754E",
"}~	c #AB653E",
"|~	c #985639",
"1~	c #9B583A",
"2~	c #774435",
"3~	c #51271E",
"4~	c #CEAA7B",
"5~	c #EACB91",
"6~	c #CFA16C",
"7~	c #D1A16C",
"8~	c #E5B883",
"9~	c #E9B684",
"0~	c #BE8F67",
"a~	c #A6704F",
"b~	c #C79369",
"c~	c #D5A26B",
"d~	c #D09C66",
"e~	c #CD9962",
"f~	c #C5915F",
"g~	c #B37D56",
"h~	c #8E5641",
"i~	c #63392D",
"j~	c #3B201E",
"k~	c #080000",
"l~	c #0E0204",
"m~	c #1B050C",
"n~	c #1A040C",
"o~	c #1E050E",
"p~	c #1F0811",
"q~	c #0D0205",
"r~	c #010101",
"s~	c #110407",
"t~	c #17060A",
"u~	c #130306",
"v~	c #100507",
"w~	c #0F0305",
"x~	c #050000",
"y~	c #040101",
"z~	c #69493E",
"A~	c #A1644C",
"B~	c #AE755B",
"C~	c #C48C66",
"D~	c #CE9165",
"E~	c #D09366",
"F~	c #D3986C",
"G~	c #D7A077",
"H~	c #C18E6A",
"I~	c #713B2E",
"J~	c #CDA283",
"K~	c #F1D0A4",
"L~	c #D9B286",
"M~	c #C18D65",
"N~	c #BC8760",
"O~	c #C08D62",
"P~	c #B3815D",
"Q~	c #502A1E",
"R~	c #754031",
"S~	c #7C3E2C",
"T~	c #A26043",
"U~	c #975433",
"V~	c #985C3B",
"W~	c #51211C",
"X~	c #5D2B28",
"Y~	c #622826",
"Z~	c #8A4B39",
"`~	c #914F39",
" {	c #773F2E",
".{	c #47211B",
"+{	c #5D3022",
"@{	c #E9C99A",
"#{	c #D7AE7A",
"${	c #D4A573",
"%{	c #C28C5A",
"&{	c #E2B381",
"*{	c #D9AB75",
"={	c #DCB07F",
"-{	c #AE8060",
";{	c #A1664B",
">{	c #BD875C",
",{	c #CD9A65",
"'{	c #CC9762",
"){	c #BE8A5B",
"!{	c #8A5A41",
"~{	c #592B26",
"{{	c #1D0608",
"]{	c #050200",
"^{	c #23040C",
"/{	c #310914",
"({	c #3A0C19",
"_{	c #370816",
":{	c #330815",
"<{	c #350B18",
"[{	c #260912",
"}{	c #34111C",
"|{	c #411220",
"1{	c #3F121F",
"2{	c #3F1221",
"3{	c #3B111F",
"4{	c #240A12",
"5{	c #260F17",
"6{	c #291A18",
"7{	c #5B3B34",
"8{	c #6A433D",
"9{	c #B78569",
"0{	c #C89063",
"a{	c #CE9767",
"b{	c #CD966F",
"c{	c #B58069",
"d{	c #723D37",
"e{	c #B58972",
"f{	c #EDCA9D",
"g{	c #CFA97D",
"h{	c #BD8861",
"i{	c #B6825A",
"j{	c #B68255",
"k{	c #B68352",
"l{	c #805137",
"m{	c #5B261C",
"n{	c #7E432F",
"o{	c #A15C3D",
"p{	c #914E32",
"q{	c #874C33",
"r{	c #54231F",
"s{	c #7D6154",
"t{	c #6A473D",
"u{	c #693528",
"v{	c #A3664E",
"w{	c #884B39",
"x{	c #5C2622",
"y{	c #5D372F",
"z{	c #91614E",
"A{	c #C69970",
"B{	c #CFA470",
"C{	c #D29E6C",
"D{	c #CE9665",
"E{	c #C48F60",
"F{	c #D6A372",
"G{	c #E7BD85",
"H{	c #DFB27C",
"I{	c #BE8D68",
"J{	c #6C3927",
"K{	c #9F6B4D",
"L{	c #B5805E",
"M{	c #9E684A",
"N{	c #471F16",
"O{	c #25060F",
"P{	c #0C0106",
"Q{	c #070101",
"R{	c #340815",
"S{	c #410E1B",
"T{	c #48131F",
"U{	c #430F1A",
"V{	c #3A0B14",
"W{	c #43121B",
"X{	c #320D16",
"Y{	c #040000",
"Z{	c #370F1F",
"`{	c #421122",
" ]	c #431223",
".]	c #431424",
"+]	c #380F1E",
"@]	c #330F1B",
"#]	c #140609",
"$]	c #291315",
"%]	c #6F473E",
"&]	c #AD7A5D",
"*]	c #B9886A",
"=]	c #885A4B",
"-]	c #714537",
";]	c #BF9270",
">]	c #E9C598",
",]	c #C4966C",
"']	c #C49067",
")]	c #BC8861",
"!]	c #B7825C",
"~]	c #B37F58",
"{]	c #A8734F",
"]]	c #A77248",
"^]	c #8C573B",
"/]	c #5B261B",
"(]	c #6C3424",
"_]	c #975437",
":]	c #8A4932",
"<]	c #895D47",
"[]	c #A28B72",
"}]	c #CABFA8",
"|]	c #C1AD96",
"1]	c #8C6456",
"2]	c #73382D",
"3]	c #5C2A20",
"4]	c #917057",
"5]	c #8C5E4A",
"6]	c #6C392A",
"7]	c #72402D",
"8]	c #AC805E",
"9]	c #C58F65",
"0]	c #CD9769",
"a]	c #C78E63",
"b]	c #C1875C",
"c]	c #D39F69",
"d]	c #CF9769",
"e]	c #8E5746",
"f]	c #733C37",
"g]	c #5B302D",
"h]	c #53322B",
"i]	c #1F0A06",
"j]	c #170407",
"k]	c #0A0102",
"l]	c #0C0103",
"m]	c #3C0D19",
"n]	c #49111C",
"o]	c #5A202A",
"p]	c #5A202C",
"q]	c #551E27",
"r]	c #5B2529",
"s]	c #401720",
"t]	c #50202B",
"u]	c #541D28",
"v]	c #531C25",
"w]	c #521C22",
"x]	c #4F1920",
"y]	c #3F0E17",
"z]	c #370C18",
"A]	c #030002",
"B]	c #291117",
"C]	c #21050A",
"D]	c #19070B",
"E]	c #4C2F33",
"F]	c #4A2830",
"G]	c #5B3338",
"H]	c #C29475",
"I]	c #DBAE81",
"J]	c #C5946A",
"K]	c #C28D64",
"L]	c #C18C62",
"M]	c #B9845F",
"N]	c #B37E59",
"O]	c #AF7A53",
"P]	c #A87250",
"Q]	c #A36B4B",
"R]	c #834A38",
"S]	c #5E261C",
"T]	c #5F2922",
"U]	c #7A3F2C",
"V]	c #75412B",
"W]	c #D1B389",
"X]	c #D7CDAA",
"Y]	c #BFB299",
"Z]	c #C1AF97",
"`]	c #8F6458",
" ^	c #5E2620",
".^	c #7A503A",
"+^	c #F8E2B3",
"@^	c #F2DDAB",
"#^	c #B89372",
"$^	c #6F3D31",
"%^	c #6C3931",
"&^	c #955E46",
"*^	c #BA825C",
"=^	c #B57A52",
"-^	c #BD8357",
";^	c #BE8358",
">^	c #C58560",
",^	c #9D614A",
"'^	c #733F36",
")^	c #2E1719",
"!^	c #0D0005",
"~^	c #240B14",
"{^	c #34131B",
"]^	c #0E0103",
"^^	c #0C0102",
"/^	c #400F17",
"(^	c #551D21",
"_^	c #652930",
":^	c #63272F",
"<^	c #60252A",
"[^	c #652A2B",
"}^	c #471D22",
"|^	c #642A2A",
"1^	c #682725",
"2^	c #702E2A",
"3^	c #74322C",
"4^	c #74322D",
"5^	c #6E2E2D",
"6^	c #532025",
"7^	c #040001",
"8^	c #2F0D15",
"9^	c #3A1016",
"0^	c #1E080A",
"a^	c #050203",
"b^	c #251517",
"c^	c #9E725D",
"d^	c #BC8564",
"e^	c #C18963",
"f^	c #C18560",
"g^	c #BD8662",
"h^	c #B6805B",
"i^	c #B17B59",
"j^	c #AF7855",
"k^	c #A9744F",
"l^	c #A36D4B",
"m^	c #945D44",
"n^	c #5C261A",
"o^	c #967858",
"p^	c #98785C",
"q^	c #5B2820",
"r^	c #672F1E",
"s^	c #A27956",
"t^	c #CFC7A4",
"u^	c #B69A83",
"v^	c #B28C7A",
"w^	c #60312E",
"x^	c #58362F",
"y^	c #795945",
"z^	c #FBEEC3",
"A^	c #FBEAAF",
"B^	c #E5C692",
"C^	c #82513E",
"D^	c #69322C",
"E^	c #6C342A",
"F^	c #935C46",
"G^	c #A76E52",
"H^	c #A86D52",
"I^	c #B97E59",
"J^	c #BA7E58",
"K^	c #AE6F4C",
"L^	c #9D6350",
"M^	c #673A37",
"N^	c #0E0304",
"O^	c #100105",
"P^	c #39101B",
"Q^	c #4A1621",
"R^	c #270D12",
"S^	c #180708",
"T^	c #6D3036",
"U^	c #6E3032",
"V^	c #692D36",
"W^	c #6A2C31",
"X^	c #763534",
"Y^	c #4E2226",
"Z^	c #070000",
"`^	c #6C3130",
" /	c #6D2B28",
"./	c #73312C",
"+/	c #79322F",
"@/	c #78312F",
"#/	c #79302C",
"$/	c #642826",
"%/	c #070301",
"&/	c #38141A",
"*/	c #42141D",
"=/	c #321017",
"-/	c #1F0911",
";/	c #1F0D10",
">/	c #916A58",
",/	c #AE7E64",
"'/	c #B3805F",
")/	c #B0795E",
"!/	c #AB735F",
"~/	c #A7705B",
"{/	c #AA725C",
"]/	c #A36E59",
"^/	c #7E4E3E",
"//	c #895541",
"(/	c #784333",
"_/	c #5E3E24",
":/	c #F0E2A9",
"</	c #D4BC8E",
"[/	c #552623",
"}/	c #58241E",
"|/	c #65311D",
"1/	c #C8B691",
"2/	c #603F39",
"3/	c #4A1B1B",
"4/	c #4A1A1B",
"5/	c #C5AE8E",
"6/	c #EAD59F",
"7/	c #F9EEB9",
"8/	c #F8E8A7",
"9/	c #F4DA9C",
"0/	c #E6C598",
"a/	c #D7AF87",
"b/	c #683A2C",
"c/	c #4A241F",
"d/	c #703D34",
"e/	c #8E5844",
"f/	c #A66A4E",
"g/	c #AB6E51",
"h/	c #AA7151",
"i/	c #8F5A50",
"j/	c #321315",
"k/	c #110205",
"l/	c #3F161F",
"m/	c #511A25",
"n/	c #301018",
"o/	c #230A0C",
"p/	c #803939",
"q/	c #733233",
"r/	c #632B31",
"s/	c #662D34",
"t/	c #723533",
"u/	c #8B433D",
"v/	c #602C2E",
"w/	c #0E0102",
"x/	c #7B3B38",
"y/	c #7A372C",
"z/	c #73312A",
"A/	c #75322C",
"B/	c #77332D",
"C/	c #8D3D35",
"D/	c #7B312E",
"E/	c #0F0100",
"F/	c #41181F",
"G/	c #52222B",
"H/	c #411922",
"I/	c #331219",
"J/	c #200812",
"K/	c #432929",
"L/	c #845A4F",
"M/	c #A8745B",
"N/	c #9C6B56",
"O/	c #9C6A5B",
"P/	c #956354",
"Q/	c #946254",
"R/	c #774E42",
"S/	c #4E1D22",
"T/	c #7A4635",
"U/	c #76462D",
"V/	c #EED09A",
"W/	c #EDD79E",
"X/	c #DAC694",
"Y/	c #A0836B",
"Z/	c #6B5043",
"`/	c #572314",
" (	c #B79573",
".(	c #4C2C29",
"+(	c #3F1119",
"@(	c #845045",
"#(	c #B9A17D",
"$(	c #F6EBAD",
"%(	c #FAF0B6",
"&(	c #F3DC9D",
"*(	c #FAE1A6",
"=(	c #F8E3AA",
"-(	c #D1AE7C",
";(	c #C08B64",
">(	c #A46E57",
",(	c #672E29",
"'(	c #6D3A2E",
")(	c #824B3F",
"!(	c #8E574B",
"~(	c #895851",
"{(	c #351D1B",
"](	c #240810",
"^(	c #300D17",
"/(	c #320F18",
"((	c #471922",
"_(	c #5D1E26",
":(	c #331019",
"<(	c #280D0F",
"[(	c #88403E",
"}(	c #843A38",
"|(	c #7D3B39",
"1(	c #803A3A",
"2(	c #8C4038",
"3(	c #9E493B",
"4(	c #7B3C3A",
"5(	c #8B453D",
"6(	c #8F4332",
"7(	c #813C2F",
"8(	c #7E3730",
"9(	c #843732",
"0(	c #964037",
"a(	c #80342B",
"b(	c #140102",
"c(	c #461A1D",
"d(	c #61282D",
"e(	c #441B1F",
"f(	c #37131B",
"g(	c #2C0913",
"h(	c #1A050C",
"i(	c #62413E",
"j(	c #95685A",
"k(	c #91655C",
"l(	c #7D514D",
"m(	c #714745",
"n(	c #552B2D",
"o(	c #50231D",
"p(	c #713B29",
"q(	c #B78B5F",
"r(	c #EAC791",
"s(	c #F3D59F",
"t(	c #F9E8B3",
"u(	c #FAEEB7",
"v(	c #FBEDBD",
"w(	c #9E8D7B",
"x(	c #501F17",
"y(	c #6D432E",
"z(	c #4F2D2B",
"A(	c #562B23",
"B(	c #DDB17F",
"C(	c #F8E8B2",
"D(	c #FDF2B7",
"E(	c #FCEBB7",
"F(	c #F6E2A7",
"G(	c #F8E5AC",
"H(	c #F2D39D",
"I(	c #EDC88C",
"J(	c #CDA47B",
"K(	c #6E362B",
"L(	c #5C2822",
"M(	c #421D1F",
"N(	c #321616",
"O(	c #180907",
"P(	c #0F0203",
"Q(	c #3A141E",
"R(	c #3E131F",
"S(	c #3F131E",
"T(	c #4D1C23",
"U(	c #5F252B",
"V(	c #35121B",
"W(	c #2B1112",
"X(	c #8D4745",
"Y(	c #8A413F",
"Z(	c #853D3C",
"`(	c #873A3B",
" _	c #8F403D",
"._	c #9E4840",
"+_	c #7B3B3C",
"@_	c #110304",
"#_	c #784035",
"$_	c #864034",
"%_	c #7F3B33",
"&_	c #7F3830",
"*_	c #83352F",
"=_	c #8B392D",
"-_	c #82362C",
";_	c #1E0205",
">_	c #652C2A",
",_	c #843C39",
"'_	c #622E2B",
")_	c #592B28",
"!_	c #4E2122",
"~_	c #290D11",
"{_	c #080202",
"]_	c #23110D",
"^_	c #341A1B",
"/_	c #27080F",
"(_	c #4B2321",
"__	c #7A4732",
":_	c #AD7A58",
"<_	c #CFA372",
"[_	c #F9E1AA",
"}_	c #F9E9B0",
"|_	c #F4D6A0",
"1_	c #F2D49E",
"2_	c #F6DFA7",
"3_	c #F9E6AF",
"4_	c #D1B795",
"5_	c #603630",
"6_	c #4C1A14",
"7_	c #4B2C29",
"8_	c #441515",
"9_	c #DCBC94",
"0_	c #FAF3C6",
"a_	c #E5C996",
"b_	c #D8B17E",
"c_	c #D9B07B",
"d_	c #DDB480",
"e_	c #EAC38F",
"f_	c #F1CF98",
"g_	c #F1D297",
"h_	c #EECC95",
"i_	c #B1845A",
"j_	c #905F3F",
"k_	c #56302C",
"l_	c #070002",
"m_	c #1C0608",
"n_	c #3C131C",
"o_	c #461A20",
"p_	c #4B1B1F",
"q_	c #521A21",
"r_	c #511A1F",
"s_	c #2A0D0F",
"t_	c #4E2325",
"u_	c #4F2125",
"v_	c #512024",
"w_	c #532125",
"x_	c #572528",
"y_	c #5E282A",
"z_	c #461D21",
"A_	c #070203",
"B_	c #320F12",
"C_	c #511E20",
"D_	c #5D2125",
"E_	c #70302B",
"F_	c #84342F",
"G_	c #8D3A2C",
"H_	c #88392E",
"I_	c #2C0306",
"J_	c #6B302A",
"K_	c #8A3E33",
"L_	c #703532",
"M_	c #663330",
"N_	c #5B2A2B",
"O_	c #461D23",
"P_	c #110206",
"Q_	c #0B0201",
"R_	c #210D0C",
"S_	c #4B2020",
"T_	c #925B42",
"U_	c #B4895C",
"V_	c #F5D39C",
"W_	c #E9C28B",
"X_	c #F4D8A0",
"Y_	c #D39E71",
"Z_	c #C48B5E",
"`_	c #C28C60",
" :	c #D8AA7B",
".:	c #E4B888",
"+:	c #6E3D34",
"@:	c #441716",
"#:	c #4B2B28",
"$:	c #441616",
"%:	c #DFBF98",
"&:	c #F4E4B3",
"*:	c #D3A674",
"=:	c #D39E6F",
"-:	c #D59E6E",
";:	c #D39E6E",
">:	c #D19E6D",
",:	c #D39F6F",
"':	c #CFA070",
"):	c #E4B584",
"!:	c #E8BA80",
"~:	c #B07D57",
"{:	c #5B362C",
"]:	c #23070B",
"^:	c #3B0F18",
"/:	c #4A151E",
"(:	c #52181C",
"_:	c #5D2122",
"::	c #65282B",
"<:	c #6A292C",
"[:	c #4E1E21",
"}:	c #391A1C",
"|:	c #532629",
"1:	c #522528",
"2:	c #512628",
"3:	c #512526",
"4:	c #542929",
"5:	c #5B2C2B",
"6:	c #55292A",
"7:	c #49221F",
"8:	c #70342F",
"9:	c #7A372F",
"0:	c #7C3530",
"a:	c #7D342E",
"b:	c #88382F",
"c:	c #903C2D",
"d:	c #8D3C31",
"e:	c #2F0408",
"f:	c #6C322C",
"g:	c #8E4232",
"h:	c #753A31",
"i:	c #6C3831",
"j:	c #693330",
"k:	c #5D2A2C",
"l:	c #4A1F22",
"m:	c #1F0709",
"n:	c #040002",
"o:	c #814F45",
"p:	c #C7966B",
"q:	c #F1D29E",
"r:	c #DBAC7A",
"s:	c #D79D6C",
"t:	c #D19B6A",
"u:	c #D09568",
"v:	c #C68B60",
"w:	c #C1855B",
"x:	c #C58D62",
"y:	c #DDA97C",
"z:	c #66322A",
"A:	c #431616",
"B:	c #492A28",
"C:	c #431415",
"D:	c #D4A87E",
"E:	c #E2B882",
"F:	c #D5A371",
"G:	c #D39D6D",
"H:	c #D29D6D",
"I:	c #CF9B6D",
"J:	c #D09B6D",
"K:	c #CD986D",
"L:	c #D09C6F",
"M:	c #E3B37D",
"N:	c #A87557",
"O:	c #2B1211",
"P:	c #080101",
"Q:	c #330D17",
"R:	c #420F1C",
"S:	c #521921",
"T:	c #591B1F",
"U:	c #622224",
"V:	c #712F2D",
"W:	c #732F2E",
"X:	c #592223",
"Y:	c #481D1F",
"Z:	c #65302D",
"`:	c #693530",
" <	c #613230",
".<	c #603131",
"+<	c #633631",
"@<	c #6B3B33",
"#<	c #683730",
"$<	c #5D2A27",
"%<	c #884033",
"&<	c #8E4136",
"*<	c #8E4036",
"=<	c #8C3D32",
"-<	c #903C31",
";<	c #954031",
"><	c #943F33",
",<	c #35070B",
"'<	c #6B342D",
")<	c #924737",
"!<	c #7F3E35",
"~<	c #773F35",
"{<	c #703A34",
"]<	c #67312D",
"^<	c #652D2B",
"/<	c #340E14",
"(<	c #050101",
"_<	c #74443B",
":<	c #D3A175",
"<<	c #DBB075",
"[<	c #CC9463",
"}<	c #CF9566",
"|<	c #CD9263",
"1<	c #CC9262",
"2<	c #C98F61",
"3<	c #C78C5F",
"4<	c #C5895F",
"5<	c #C1865B",
"6<	c #D29D71",
"7<	c #643129",
"8<	c #441717",
"9<	c #452524",
"0<	c #401315",
"a<	c #C79168",
"b<	c #E5B47B",
"c<	c #D5A070",
"d<	c #CD9768",
"e<	c #D0996A",
"f<	c #D1996B",
"g<	c #D09A6D",
"h<	c #CF996C",
"i<	c #CD996D",
"j<	c #CD996C",
"k<	c #DBAB75",
"l<	c #A16C4F",
"m<	c #2E1312",
"n<	c #3B1018",
"o<	c #4D171F",
"p<	c #551A21",
"q<	c #581C21",
"r<	c #642326",
"s<	c #72302C",
"t<	c #732F2F",
"u<	c #5D2627",
"v<	c #4C2022",
"w<	c #65322D",
"x<	c #5C2D2E",
"y<	c #54262B",
"z<	c #592B2C",
"A<	c #673633",
"B<	c #663633",
"C<	c #8C4539",
"D<	c #934636",
"E<	c #944534",
"F<	c #994434",
"G<	c #994532",
"H<	c #9F4939",
"I<	c #3D0F11",
"J<	c #6C3730",
"K<	c #944939",
"L<	c #834038",
"M<	c #7C4237",
"N<	c #7C4038",
"O<	c #703730",
"P<	c #6C342C",
"Q<	c #40171A",
"R<	c #060101",
"S<	c #704138",
"T<	c #B97755",
"U<	c #CE9662",
"V<	c #C98F5E",
"W<	c #C88E60",
"X<	c #CB9161",
"Y<	c #C98F5F",
"Z<	c #C88D60",
"`<	c #C78B60",
" [	c #BB8055",
".[	c #C89369",
"+[	c #602E25",
"@[	c #3C1B1B",
"#[	c #391013",
"$[	c #C18C61",
"%[	c #E4B37A",
"&[	c #D19D6C",
"*[	c #CE986A",
"=[	c #D29C6C",
"-[	c #D7A271",
";[	c #C79268",
">[	c #C79367",
",[	c #CF9A6A",
"'[	c #A26E54",
")[	c #2C1213",
"![	c #0B0104",
"~[	c #401116",
"{[	c #591E1F",
"][	c #581B20",
"^[	c #571D22",
"/[	c #642429",
"([	c #77322F",
"_[	c #5D2625",
":[	c #4A2121",
"<[	c #61312D",
"[[	c #60312C",
"}[	c #56282C",
"|[	c #55272D",
"1[	c #582A2E",
"2[	c #613232",
"3[	c #5F3234",
"4[	c #4F1E26",
"5[	c #8D463A",
"6[	c #954937",
"7[	c #954837",
"8[	c #984938",
"9[	c #9B4938",
"0[	c #9C4932",
"a[	c #A54F3A",
"b[	c #4E1C18",
"c[	c #733832",
"d[	c #974837",
"e[	c #823F37",
"f[	c #83483B",
"g[	c #83463C",
"h[	c #763B34",
"i[	c #713B31",
"j[	c #431C1B",
"k[	c #050102",
"l[	c #6F4036",
"m[	c #A96448",
"n[	c #C78A61",
"o[	c #C68C5D",
"p[	c #CA8F61",
"q[	c #C88D5D",
"r[	c #C98D5F",
"s[	c #CA8C60",
"t[	c #C88B5D",
"u[	c #BD8256",
"v[	c #BE8762",
"w[	c #612E24",
"x[	c #411617",
"y[	c #371615",
"z[	c #320C11",
"A[	c #BB835E",
"B[	c #DDAA76",
"C[	c #D29D6F",
"D[	c #CD966D",
"E[	c #CB956A",
"F[	c #D19B6E",
"G[	c #DAA576",
"H[	c #D19D6D",
"I[	c #BC8860",
"J[	c #AC7554",
"K[	c #A4694E",
"L[	c #875044",
"M[	c #280F12",
"N[	c #451419",
"O[	c #622623",
"P[	c #602124",
"Q[	c #551E20",
"R[	c #622426",
"S[	c #6F2E2F",
"T[	c #76332F",
"U[	c #5C2728",
"V[	c #432020",
"W[	c #5C2F2F",
"X[	c #5C2E2E",
"Y[	c #572B2C",
"Z[	c #582B2B",
"`[	c #5B2D2D",
" }	c #5E312F",
".}	c #582E31",
"+}	c #3F161D",
"@}	c #8C463B",
"#}	c #974A39",
"$}	c #984B39",
"%}	c #9A4B38",
"&}	c #9C4A33",
"*}	c #A7503A",
"=}	c #56211B",
"-}	c #7C3E38",
";}	c #9F4C3B",
">}	c #864035",
",}	c #84483C",
"'}	c #85493E",
")}	c #783D37",
"!}	c #6D3932",
"~}	c #3E1919",
"{}	c #050103",
"]}	c #69392E",
"^}	c #A35E43",
"/}	c #C1835F",
"(}	c #C2875B",
"_}	c #BC8159",
":}	c #BC805A",
"<}	c #B87D56",
"[}	c #B77A58",
"}}	c #B67956",
"|}	c #BF8259",
"1}	c #BA7E5C",
"2}	c #B37C60",
"3}	c #5D2F26",
"4}	c #401614",
"5}	c #796F67",
"6}	c #3E2F2F",
"7}	c #905D4A",
"8}	c #AA7356",
"9}	c #AC7259",
"0}	c #AA705A",
"a}	c #AD745C",
"b}	c #B37A60",
"c}	c #B78063",
"d}	c #B27C5E",
"e}	c #AE7759",
"f}	c #AF7859",
"g}	c #9F674E",
"h}	c #794438",
"i}	c #240D0D",
"j}	c #0E0104",
"k}	c #431618",
"l}	c #6B302B",
"m}	c #682728",
"n}	c #5C2121",
"o}	c #682829",
"p}	c #6D2E2E",
"q}	c #6F302D",
"r}	c #3C1315",
"s}	c #230A0B",
"t}	c #64312F",
"u}	c #632F2E",
"v}	c #5E2C29",
"w}	c #5F2D2A",
"x}	c #61302B",
"y}	c #65332C",
"z}	c #532727",
"A}	c #290910",
"B}	c #874437",
"C}	c #984A38",
"D}	c #994B38",
"E}	c #9B4B36",
"F}	c #9C4B34",
"G}	c #A64F3A",
"H}	c #5D2620",
"I}	c #753D39",
"J}	c #834237",
"K}	c #784239",
"L}	c #67362F",
"M}	c #723E37",
"N}	c #7A3F3A",
"O}	c #67342E",
"P}	c #350E12",
"Q}	c #050204",
"R}	c #63352F",
"S}	c #9E5B4B",
"T}	c #BB7F65",
"U}	c #BD8565",
"V}	c #B47B5D",
"W}	c #AD745A",
"X}	c #AD735A",
"Y}	c #A87255",
"Z}	c #C8906A",
"`}	c #AA6E52",
" |	c #68362C",
".|	c #3F1512",
"+|	c #42150F",
"@|	c #DDDBCC",
"#|	c #99918B",
"$|	c #1F0408",
"%|	c #89534A",
"&|	c #9F6057",
"*|	c #9B5E53",
"=|	c #A06256",
"-|	c #A06456",
";|	c #A36859",
">|	c #9D6252",
",|	c #985C4C",
"'|	c #9C6151",
")|	c #8B5846",
"!|	c #502B28",
"~|	c #100203",
"{|	c #20060C",
"]|	c #5A2526",
"^|	c #74372E",
"/|	c #7C3834",
"(|	c #71302B",
"_|	c #7A3432",
":|	c #7F3732",
"<|	c #8D4337",
"[|	c #51201D",
"}|	c #3A1917",
"||	c #965744",
"1|	c #904E3C",
"2|	c #8F4738",
"3|	c #92473A",
"4|	c #974F3E",
"5|	c #9E543D",
"6|	c #793C32",
"7|	c #2E090B",
"8|	c #95503B",
"9|	c #A5583B",
"0|	c #A25538",
"a|	c #A25237",
"b|	c #A05036",
"c|	c #A04F36",
"d|	c #A9533C",
"e|	c #622A24",
"f|	c #422223",
"g|	c #231211",
"h|	c #1F0F10",
"i|	c #190707",
"j|	c #1A0305",
"k|	c #683933",
"l|	c #6C352C",
"m|	c #090002",
"n|	c #2D1615",
"o|	c #673938",
"p|	c #874F4B",
"q|	c #8C574D",
"r|	c #925E53",
"s|	c #925D52",
"t|	c #8E594D",
"u|	c #8C584D",
"v|	c #8A584C",
"w|	c #7D4B3C",
"x|	c #784537",
"y|	c #4E2B27",
"z|	c #392621",
"A|	c #C7B4A2",
"B|	c #D8DBC7",
"C|	c #9B8F89",
"D|	c #20060F",
"E|	c #371316",
"F|	c #3F1718",
"G|	c #3E1415",
"H|	c #421718",
"I|	c #451A1B",
"J|	c #471D1F",
"K|	c #411A1A",
"L|	c #3C1516",
"M|	c #3B1415",
"N|	c #290B0B",
"O|	c #0A0101",
"P|	c #080100",
"Q|	c #2C0911",
"R|	c #6A292B",
"S|	c #77372D",
"T|	c #833D31",
"U|	c #823C2E",
"V|	c #863D31",
"W|	c #8C4030",
"X|	c #AD563B",
"Y|	c #62291C",
"Z|	c #4A1F19",
"`|	c #B26A50",
" 1	c #A4593E",
".1	c #A6553B",
"+1	c #A9563C",
"@1	c #AA583D",
"#1	c #B66242",
"$1	c #8F4736",
"%1	c #3B090B",
"&1	c #A1573B",
"*1	c #AC6038",
"=1	c #AA5E37",
"-1	c #AB5D37",
";1	c #A75933",
">1	c #A65536",
",1	c #9E5139",
"'1	c #461D17",
")1	c #927764",
"!1	c #B39176",
"~1	c #A17B68",
"{1	c #4A2E2A",
"]1	c #2F1714",
"^1	c #622B2C",
"/1	c #69282D",
"(1	c #090001",
"_1	c #140304",
":1	c #2D1110",
"<1	c #341212",
"[1	c #351113",
"}1	c #341010",
"|1	c #331011",
"11	c #320E11",
"21	c #301012",
"31	c #1D090E",
"41	c #302521",
"51	c #DDD6BD",
"61	c #C6BCAC",
"71	c #7A6361",
"81	c #320A0F",
"91	c #895B49",
"01	c #946652",
"a1	c #966853",
"b1	c #926550",
"c1	c #9B6A55",
"d1	c #7E4F3E",
"e1	c #683B30",
"f1	c #7C4C3D",
"g1	c #76483A",
"h1	c #471F1C",
"i1	c #130002",
"j1	c #0B0102",
"k1	c #2A080B",
"l1	c #692C29",
"m1	c #78362E",
"n1	c #874233",
"o1	c #8A4232",
"p1	c #8C4433",
"q1	c #8F4233",
"r1	c #AD593F",
"s1	c #63271D",
"t1	c #4A1F1A",
"u1	c #B67156",
"v1	c #AC6045",
"w1	c #B05D3F",
"x1	c #B25E3F",
"y1	c #B15C3F",
"z1	c #BA6242",
"A1	c #994A36",
"B1	c #400C11",
"C1	c #B26A4A",
"D1	c #BC7145",
"E1	c #AD613B",
"F1	c #AE603B",
"G1	c #AA5B36",
"H1	c #AD5B3B",
"I1	c #552B20",
"J1	c #190A0A",
"K1	c #8E6C65",
"L1	c #B69878",
"M1	c #CFA87B",
"N1	c #A57A5D",
"O1	c #4A2A23",
"P1	c #190309",
"Q1	c #210409",
"R1	c #440E17",
"S1	c #0E0003",
"T1	c #110202",
"U1	c #1E0207",
"V1	c #755447",
"W1	c #87604B",
"X1	c #89614C",
"Y1	c #906350",
"Z1	c #946451",
"`1	c #93634F",
" 2	c #92634C",
".2	c #8F5E49",
"+2	c #865546",
"@2	c #623C32",
"#2	c #2A1514",
"$2	c #CDBDA9",
"%2	c #48171A",
"&2	c #502426",
"*2	c #9D6F5C",
"=2	c #DCA574",
"-2	c #E2AE77",
";2	c #E1AA74",
">2	c #E6AC77",
",2	c #E8AD79",
"'2	c #DCA06F",
")2	c #D69A6D",
"!2	c #DB9F70",
"~2	c #D4976B",
"{2	c #945D49",
"]2	c #7B5751",
"^2	c #110102",
"/2	c #250608",
"(2	c #692D2C",
"_2	c #7A3830",
":2	c #8C4437",
"<2	c #904737",
"[2	c #8F4635",
"}2	c #8F4434",
"|2	c #AD593E",
"12	c #64291E",
"22	c #491E1A",
"32	c #B97358",
"42	c #AE6245",
"52	c #B25F41",
"62	c #B46041",
"72	c #B35E41",
"82	c #BD6644",
"92	c #9E4E3B",
"02	c #B56C4C",
"a2	c #C1774A",
"b2	c #AF633D",
"c2	c #B2633E",
"d2	c #AD5F39",
"e2	c #AB613A",
"f2	c #4B251A",
"g2	c #110406",
"h2	c #AD9179",
"i2	c #C4A47F",
"j2	c #C09874",
"k2	c #B79174",
"l2	c #6C4D46",
"m2	c #260B10",
"n2	c #170103",
"o2	c #420E15",
"p2	c #140205",
"q2	c #461E18",
"r2	c #68352B",
"s2	c #CC987B",
"t2	c #D9A375",
"u2	c #D59F71",
"v2	c #D39B6F",
"w2	c #D59C72",
"x2	c #D39A70",
"y2	c #D1986D",
"z2	c #C78D63",
"A2	c #BF855F",
"B2	c #AB6F53",
"C2	c #542720",
"D2	c #432221",
"E2	c #4D1E21",
"F2	c #775443",
"G2	c #FBE2B3",
"H2	c #F5D69C",
"I2	c #F4D299",
"J2	c #F0CC93",
"K2	c #F1CB91",
"L2	c #F4CB91",
"M2	c #F1C68E",
"N2	c #F0C48B",
"O2	c #F0C589",
"P2	c #EFC38C",
"Q2	c #C99E74",
"R2	c #9A715F",
"S2	c #190508",
"T2	c #210307",
"U2	c #662C2A",
"V2	c #77372E",
"W2	c #8E4738",
"X2	c #924738",
"Y2	c #914737",
"Z2	c #904535",
"`2	c #642A1E",
" 3	c #471C19",
".3	c #BC755C",
"+3	c #B26446",
"@3	c #B55F42",
"#3	c #C06644",
"$3	c #9F4E3B",
"%3	c #3F0E10",
"&3	c #B76F4B",
"*3	c #C5794C",
"=3	c #B46640",
"-3	c #B66840",
";3	c #AF603D",
">3	c #AE613C",
",3	c #52291F",
"'3	c #120205",
")3	c #937569",
"!3	c #7F6055",
"~3	c #7A594C",
"{3	c #7E5F4F",
"]3	c #673C37",
"^3	c #422222",
"/3	c #130105",
"(3	c #420D17",
"_3	c #160207",
":3	c #6C412E",
"<3	c #E6BB92",
"[3	c #F1D19E",
"}3	c #F1CE95",
"|3	c #F1CC93",
"13	c #F2CC94",
"23	c #F1CD93",
"33	c #F3CD93",
"43	c #F5C990",
"53	c #F1C58F",
"63	c #E3B588",
"73	c #905D4D",
"83	c #351115",
"93	c #4E2021",
"03	c #7A5746",
"a3	c #F4DCAC",
"b3	c #F0D298",
"c3	c #EECD95",
"d3	c #ECCB94",
"e3	c #EECE96",
"f3	c #F7D89F",
"g3	c #F5DA9E",
"h3	c #F7DC9F",
"i3	c #FADFA1",
"j3	c #FAE09C",
"k3	c #E5C08A",
"l3	c #986B58",
"m3	c #1B0509",
"n3	c #230509",
"o3	c #692C2D",
"p3	c #76372E",
"q3	c #8D4637",
"r3	c #652C20",
"s3	c #481E1A",
"t3	c #BF785F",
"u3	c #B56749",
"v3	c #B76344",
"w3	c #B56142",
"x3	c #B45E43",
"y3	c #C26946",
"z3	c #A3513F",
"A3	c #3F0F10",
"B3	c #B8704C",
"C3	c #C77B4D",
"D3	c #B56741",
"E3	c #B76941",
"F3	c #B0623E",
"G3	c #5E352B",
"H3	c #331C18",
"I3	c #20040B",
"J3	c #360F14",
"K3	c #3D1817",
"L3	c #320F0F",
"M3	c #140204",
"N3	c #3C0C14",
"O3	c #180207",
"P3	c #734935",
"Q3	c #F0CD9B",
"R3	c #EDD197",
"S3	c #EFCD93",
"T3	c #EDC990",
"U3	c #F0CA92",
"V3	c #F2D095",
"W3	c #F6D699",
"X3	c #EDC78C",
"Y3	c #F5CF8F",
"Z3	c #ECC787",
"`3	c #9A6D55",
" 4	c #3A1214",
".4	c #4F2122",
"+4	c #724A3E",
"@4	c #DDB486",
"#4	c #D29F71",
"$4	c #D09A6E",
"%4	c #D19A70",
"&4	c #CD996B",
"*4	c #E2B983",
"=4	c #F1C995",
"-4	c #D2A577",
";4	c #D0A274",
">4	c #DBB27B",
",4	c #8E6055",
"'4	c #1D0308",
")4	c #230508",
"!4	c #672A2C",
"~4	c #76382F",
"{4	c #8D4938",
"]4	c #924A37",
"^4	c #914837",
"/4	c #8F4835",
"(4	c #AD5B3F",
"_4	c #662E21",
":4	c #461E19",
"<4	c #BE795F",
"[4	c #B76B4B",
"}4	c #B96846",
"|4	c #B76644",
"14	c #B46440",
"24	c #C56E43",
"34	c #A8553D",
"44	c #3F0F0E",
"54	c #B66D4C",
"64	c #C77A4E",
"74	c #B76943",
"84	c #B66B42",
"94	c #B3673F",
"04	c #B3633C",
"a4	c #9B5E48",
"b4	c #2F0F11",
"c4	c #140208",
"d4	c #1B0508",
"e4	c #573028",
"f4	c #58372D",
"g4	c #4D2B29",
"h4	c #0C0203",
"i4	c #0F0002",
"j4	c #3B0A10",
"k4	c #190206",
"l4	c #6B3D2E",
"m4	c #CD9C6F",
"n4	c #CD9E6E",
"o4	c #D09B6E",
"p4	c #CE976B",
"q4	c #DAA974",
"r4	c #E7B885",
"s4	c #D49F73",
"t4	c #E6B57E",
"u4	c #DDB175",
"v4	c #966752",
"w4	c #3F1614",
"x4	c #502323",
"y4	c #6C3F35",
"z4	c #D1A478",
"A4	c #CE9A6D",
"B4	c #CA9569",
"C4	c #CE996F",
"D4	c #C58E69",
"E4	c #B7805B",
"F4	c #BF8A64",
"G4	c #BD8263",
"H4	c #B88262",
"I4	c #C5956B",
"J4	c #C2946F",
"K4	c #835450",
"L4	c #1D0108",
"M4	c #260609",
"N4	c #682A2C",
"O4	c #74352F",
"P4	c #8D4A38",
"Q4	c #914838",
"R4	c #8F4834",
"S4	c #AC5C41",
"T4	c #662E22",
"U4	c #431C17",
"V4	c #BB775B",
"W4	c #B86D4B",
"X4	c #B96A47",
"Y4	c #B86946",
"Z4	c #B86844",
"`4	c #C67044",
" 5	c #AA573E",
".5	c #3F100E",
"+5	c #B56C4B",
"@5	c #C77A4F",
"#5	c #B86A43",
"$5	c #B76C43",
"%5	c #B46940",
"&5	c #B3673C",
"*5	c #B4704E",
"=5	c #3B150F",
"-5	c #442225",
";5	c #1D0407",
">5	c #351918",
",5	c #402723",
"'5	c #351E1F",
")5	c #150403",
"!5	c #56302D",
"~5	c #562121",
"{5	c #1B0106",
"]5	c #663528",
"^5	c #C28B62",
"/5	c #CE986B",
"(5	c #CC9469",
"_5	c #CB9268",
":5	c #CA9168",
"<5	c #C48A64",
"[5	c #B67F5A",
"}5	c #C08864",
"|5	c #C68766",
"15	c #CC9167",
"25	c #CD9968",
"35	c #8F5A46",
"45	c #491A19",
"55	c #512424",
"65	c #6C3E34",
"75	c #CE9E74",
"85	c #C38B65",
"95	c #C18C63",
"05	c #E9BF8C",
"a5	c #E5B886",
"b5	c #B67F61",
"c5	c #AE775D",
"d5	c #B88363",
"e5	c #C7956D",
"f5	c #B88964",
"g5	c #926659",
"h5	c #22040B",
"i5	c #68292C",
"j5	c #73352E",
"k5	c #8E4B3A",
"l5	c #8F4937",
"m5	c #914839",
"n5	c #904835",
"o5	c #AE5C42",
"p5	c #672F23",
"q5	c #431C16",
"r5	c #BB775A",
"s5	c #B86D49",
"t5	c #B96945",
"u5	c #C87145",
"v5	c #AC593F",
"w5	c #3E0E0F",
"x5	c #B56B4C",
"y5	c #C5784D",
"z5	c #B96B44",
"A5	c #B86B43",
"B5	c #B76A42",
"C5	c #B46641",
"D5	c #B9704D",
"E5	c #451813",
"F5	c #7A4A46",
"G5	c #391918",
"H5	c #1E030D",
"I5	c #1B0207",
"J5	c #1B0205",
"K5	c #2A0E0B",
"L5	c #7B4B3A",
"M5	c #6D342D",
"N5	c #1C0006",
"O5	c #673628",
"P5	c #BF845D",
"Q5	c #CB9768",
"R5	c #CE9669",
"S5	c #CB9266",
"T5	c #C89165",
"U5	c #CB9265",
"V5	c #CA8F64",
"W5	c #B97C5B",
"X5	c #BA795A",
"Y5	c #B87359",
"Z5	c #B87F5C",
"`5	c #834A3C",
" 6	c #4D1D1B",
".6	c #522827",
"+6	c #714339",
"@6	c #D29F78",
"#6	c #BB815F",
"$6	c #B5805C",
"%6	c #BE8E61",
"&6	c #C18F6B",
"*6	c #AA7259",
"=6	c #AA7359",
"-6	c #C8946D",
";6	c #A77257",
">6	c #9F7051",
",6	c #906453",
"'6	c #2A070B",
")6	c #6A2B2D",
"!6	c #753731",
"~6	c #8E4C3A",
"{6	c #8D4735",
"]6	c #8F4737",
"^6	c #904734",
"/6	c #683024",
"(6	c #431D17",
"_6	c #BD795A",
":6	c #B86D48",
"<6	c #B76B47",
"[6	c #B76A47",
"}6	c #B66A45",
"|6	c #C57245",
"16	c #A95B40",
"26	c #380F0D",
"36	c #B36C4C",
"46	c #C4774B",
"56	c #B76942",
"66	c #B96B43",
"76	c #B66743",
"86	c #BA714E",
"96	c #451A13",
"06	c #815242",
"a6	c #A36A56",
"b6	c #8D5A4A",
"c6	c #845241",
"d6	c #865243",
"e6	c #885544",
"f6	c #91583F",
"g6	c #7D443D",
"h6	c #1E0106",
"i6	c #602F22",
"j6	c #B57A55",
"k6	c #C89667",
"l6	c #CA9265",
"m6	c #C99064",
"n6	c #C79163",
"o6	c #C78E60",
"p6	c #C4885D",
"q6	c #B67858",
"r6	c #B87859",
"s6	c #B67358",
"t6	c #B07258",
"u6	c #7D4338",
"v6	c #4E1D1B",
"w6	c #522928",
"x6	c #6E3F37",
"y6	c #DCAB82",
"z6	c #CA966A",
"A6	c #C08D60",
"B6	c #DBA77B",
"C6	c #B78062",
"D6	c #A26A53",
"E6	c #9F694F",
"F6	c #B6815F",
"G6	c #C6936A",
"H6	c #9A6850",
"I6	c #8A5A47",
"J6	c #7D4D44",
"K6	c #20040A",
"L6	c #300C12",
"M6	c #6D2E31",
"N6	c #763733",
"O6	c #8F4C39",
"P6	c #8F4734",
"Q6	c #8D4534",
"R6	c #8D4733",
"S6	c #683227",
"T6	c #421D19",
"U6	c #BE7C5D",
"V6	c #B66D48",
"W6	c #B56B47",
"X6	c #B46B46",
"Y6	c #B16A44",
"Z6	c #C27246",
"`6	c #A85C41",
" 7	c #340E10",
".7	c #B06C4B",
"+7	c #C3774A",
"@7	c #B66A41",
"#7	c #B76B42",
"$7	c #B56941",
"%7	c #B56942",
"&7	c #BA724F",
"*7	c #4A1D16",
"=7	c #875744",
"-7	c #AD6E4A",
";7	c #9A5C3F",
">7	c #975A41",
",7	c #965840",
"'7	c #97583F",
")7	c #9B5D41",
"!7	c #81453D",
"~7	c #1D0106",
"{7	c #5B2B21",
"]7	c #B57A57",
"^7	c #C89565",
"/7	c #CC9768",
"(7	c #C99265",
"_7	c #C69364",
":7	c #B77F5D",
"<7	c #B3765C",
"[7	c #B77A5C",
"}7	c #BD805B",
"|7	c #BD7E5C",
"17	c #B37055",
"27	c #7F4538",
"37	c #4E1B19",
"47	c #4F2625",
"57	c #683932",
"67	c #CE9E76",
"77	c #C59468",
"87	c #BD8860",
"97	c #CA966C",
"07	c #BA855F",
"a7	c #AA7455",
"b7	c #C28C6C",
"c7	c #B47E5F",
"d7	c #A06C52",
"e7	c #91604B",
"f7	c #9D7054",
"g7	c #7A4A3F",
"h7	c #300D12",
"i7	c #733530",
"j7	c #8A4836",
"k7	c #8B4434",
"l7	c #8B4535",
"m7	c #89442F",
"n7	c #A95C40",
"o7	c #683428",
"p7	c #431F1B",
"q7	c #BA785A",
"r7	c #B56C48",
"s7	c #B36C46",
"t7	c #B26A45",
"u7	c #B06A44",
"v7	c #C27147",
"w7	c #A95B42",
"x7	c #340D11",
"y7	c #C17748",
"z7	c #B4693F",
"A7	c #B56A41",
"B7	c #B56A42",
"C7	c #B36A42",
"D7	c #BB724F",
"E7	c #50211B",
"F7	c #875746",
"G7	c #B0704A",
"H7	c #9B5B3F",
"I7	c #95573F",
"J7	c #98583F",
"K7	c #97573C",
"L7	c #985B3F",
"M7	c #80443B",
"N7	c #190104",
"O7	c #52271D",
"P7	c #A36845",
"Q7	c #C69066",
"R7	c #C79267",
"S7	c #C68F65",
"T7	c #C39067",
"U7	c #B37D5B",
"V7	c #AF745A",
"W7	c #B1775D",
"X7	c #B0775C",
"Y7	c #B97E60",
"Z7	c #B77959",
"`7	c #7A4336",
" 8	c #4C1C19",
".8	c #4E2625",
"+8	c #64352E",
"@8	c #BC8B66",
"#8	c #BB8761",
"$8	c #BA8561",
"%8	c #B8825E",
"&8	c #C38D66",
"*8	c #BF8962",
"=8	c #BA855E",
"-8	c #B7825E",
";8	c #A8735A",
">8	c #986750",
",8	c #A47654",
"'8	c #8A594B",
")8	c #22060C",
"!8	c #371115",
"~8	c #6C2A2C",
"{8	c #72322F",
"]8	c #813F31",
"^8	c #854134",
"/8	c #87432F",
"(8	c #A85D40",
"_8	c #6A382B",
":8	c #43211B",
"<8	c #B97956",
"[8	c #B26C45",
"}8	c #B36B45",
"|8	c #B26A44",
"18	c #C17147",
"28	c #AF6D4A",
"38	c #C07648",
"48	c #B46840",
"58	c #B66A44",
"68	c #B56843",
"78	c #B46842",
"88	c #BD714F",
"98	c #53241D",
"08	c #855241",
"a8	c #B36E49",
"b8	c #A36146",
"c8	c #884A39",
"d8	c #945441",
"e8	c #92503B",
"f8	c #95583C",
"g8	c #783D35",
"h8	c #0F0001",
"i8	c #5E3227",
"j8	c #B77D58",
"k8	c #AF7355",
"l8	c #B07358",
"m8	c #B27B59",
"n8	c #B17A5A",
"o8	c #AD765B",
"p8	c #A9725B",
"q8	c #AB745A",
"r8	c #B67C5C",
"s8	c #764337",
"t8	c #491E1C",
"u8	c #60322C",
"v8	c #BD8968",
"w8	c #BC8762",
"x8	c #B67F5C",
"y8	c #B57D5D",
"z8	c #BB8562",
"A8	c #C08D63",
"B8	c #BE8C64",
"C8	c #B68664",
"D8	c #A87958",
"E8	c #8C5C4D",
"F8	c #22090C",
"G8	c #381317",
"H8	c #6B2C2E",
"I8	c #703131",
"J8	c #7F3D37",
"K8	c #864237",
"L8	c #854138",
"M8	c #904C3F",
"N8	c #A8614A",
"O8	c #6A3D2E",
"P8	c #3F201B",
"Q8	c #AD6B4B",
"R8	c #AF684B",
"S8	c #AF684C",
"T8	c #AE6847",
"U8	c #BE724D",
"V8	c #A55E43",
"W8	c #330C12",
"X8	c #AF704D",
"Y8	c #C0764C",
"Z8	c #AE6246",
"`8	c #AF6646",
" 9	c #AE6645",
".9	c #B06845",
"+9	c #B97153",
"@9	c #52241F",
"#9	c #815040",
"$9	c #B7724E",
"%9	c #A9664F",
"&9	c #723430",
"*9	c #8E5343",
"=9	c #8C5041",
"-9	c #8B5645",
";9	c #66342F",
">9	c #0B0101",
",9	c #643529",
"'9	c #B87A55",
")9	c #C4895F",
"!9	c #C3805B",
"~9	c #C3855F",
"{9	c #C48662",
"]9	c #BC805D",
"^9	c #C18964",
"/9	c #B77E5E",
"(9	c #B07D5B",
"_9	c #B67E5E",
":9	c #744237",
"<9	c #4A2120",
"[9	c #46201F",
"}9	c #5B2F29",
"|9	c #BF8C6A",
"19	c #C28E63",
"29	c #BE895E",
"39	c #C48F61",
"49	c #C38C63",
"59	c #BE8863",
"69	c #BF8B62",
"79	c #BA885E",
"89	c #B9895F",
"99	c #A67755",
"09	c #895748",
"a9	c #1D0606",
"b9	c #0A0302",
"c9	c #260E0F",
"d9	c #301216",
"e9	c #3B1B1D",
"f9	c #3E1E1F",
"g9	c #3B1D1E",
"h9	c #361A19",
"i9	c #4F302B",
"j9	c #291513",
"k9	c #140708",
"l9	c #52362F",
"m9	c #56322D",
"n9	c #58322E",
"o9	c #5C3732",
"p9	c #532D27",
"q9	c #573329",
"r9	c #462522",
"s9	c #1C0711",
"t9	c #634238",
"u9	c #6B4435",
"v9	c #5D342E",
"w9	c #5E3630",
"x9	c #5C322D",
"y9	c #5F362D",
"z9	c #603832",
"A9	c #2A1016",
"B9	c #3A2021",
"C9	c #57372D",
"D9	c #583830",
"E9	c #3E1A22",
"F9	c #452325",
"G9	c #311417",
"H9	c #281015",
"I9	c #090101",
"J9	c #5F3124",
"K9	c #B67750",
"L9	c #BF8158",
"M9	c #C4805B",
"N9	c #C5855F",
"O9	c #C88861",
"P9	c #BF815A",
"Q9	c #C1875E",
"R9	c #BF865E",
"S9	c #BE8760",
"T9	c #BA865E",
"U9	c #B57B5C",
"V9	c #6F3B31",
"W9	c #4D2524",
"X9	c #461E1E",
"Y9	c #562926",
"Z9	c #BB8A67",
"`9	c #C28D63",
" 0	c #BC865C",
".0	c #C58F62",
"+0	c #C38E5F",
"@0	c #B8835D",
"#0	c #BA8662",
"$0	c #B98560",
"%0	c #B9865D",
"&0	c #B38259",
"*0	c #A8785A",
"=0	c #855246",
"-0	c #160203",
";0	c #200E15",
">0	c #2E1623",
",0	c #331923",
"'0	c #3A2028",
")0	c #311820",
"!0	c #3D232B",
"~0	c #40252D",
"{0	c #432930",
"]0	c #472A33",
"^0	c #4B2E37",
"/0	c #4D2F38",
"(0	c #4A2B34",
"_0	c #45252D",
":0	c #41222A",
"<0	c #47282F",
"[0	c #48292E",
"}0	c #4B2B2F",
"|0	c #4C2C31",
"10	c #4D2C32",
"20	c #4E2D34",
"30	c #502D35",
"40	c #522F37",
"50	c #512F35",
"60	c #4A292F",
"70	c #4A2A30",
"80	c #513139",
"90	c #53333C",
"00	c #4D2D37",
"a0	c #4B2C37",
"b0	c #43272F",
"c0	c #3C262A",
"d0	c #341F24",
"e0	c #090203",
"f0	c #563227",
"g0	c #BC7D58",
"h0	c #C18159",
"i0	c #C7825C",
"j0	c #C88760",
"k0	c #CA8C61",
"l0	c #C4875E",
"m0	c #C48B64",
"n0	c #C58A61",
"o0	c #C38A62",
"p0	c #BA8460",
"q0	c #AF7358",
"r0	c #6A352C",
"s0	c #49251F",
"t0	c #441E1D",
"u0	c #44171C",
"v0	c #A47459",
"w0	c #AB7259",
"x0	c #AF765C",
"y0	c #AB7256",
"z0	c #AF745F",
"A0	c #AE745C",
"B0	c #B07C5B",
"C0	c #AD7A59",
"D0	c #915948",
"E0	c #603130",
"F0	c #0A0001",
"G0	c #220F15",
"H0	c #4B2731",
"I0	c #5E333E",
"J0	c #63333F",
"K0	c #663742",
"L0	c #512731",
"M0	c #62353F",
"N0	c #683B45",
"O0	c #6D3F4A",
"P0	c #6C3D48",
"Q0	c #6D3C48",
"R0	c #6C3C47",
"S0	c #6A3B41",
"T0	c #67383C",
"U0	c #724142",
"V0	c #7C4A49",
"W0	c #7D4A46",
"X0	c #7E4A44",
"Y0	c #7E4B45",
"Z0	c #7E4A46",
"`0	c #7F4B47",
" a	c #7B4744",
".a	c #7A4645",
"+a	c #7A4847",
"@a	c #744443",
"#a	c #734542",
"$a	c #754646",
"%a	c #744647",
"&a	c #714647",
"*a	c #6E4647",
"=a	c #6C4547",
"-a	c #674243",
";a	c #5C3A3C",
">a	c #100509",
",a	c #311B18",
"'a	c #925641",
")a	c #AB6851",
"!a	c #B26B50",
"~a	c #BA7659",
"{a	c #BA795B",
"]a	c #B27458",
"^a	c #A97157",
"/a	c #AB735B",
"(a	c #A9735A",
"_a	c #A46C58",
":a	c #905447",
"<a	c #4C1D1D",
"[a	c #43251C",
"}a	c #A6A094",
"|a	c #746A62",
"1a	c #462722",
"2a	c #8C584E",
"3a	c #945D53",
"4a	c #9A6358",
"5a	c #925B4E",
"6a	c #91584C",
"7a	c #945A50",
"8a	c #92584C",
"9a	c #905848",
"0a	c #875140",
"aa	c #744438",
"ba	c #170610",
"ca	c #321824",
"da	c #4F2F34",
"ea	c #4C2931",
"fa	c #4D252F",
"ga	c #39161E",
"ha	c #572B37",
"ia	c #5C323E",
"ja	c #5F3141",
"ka	c #603141",
"la	c #5A313F",
"ma	c #492631",
"na	c #3F1A23",
"oa	c #643739",
"pa	c #6B3C40",
"qa	c #6A3C3F",
"ra	c #683B3C",
"sa	c #6D3F42",
"ta	c #6A3B40",
"ua	c #6A3A3F",
"va	c #66373D",
"wa	c #633538",
"xa	c #6D3F3F",
"ya	c #66393D",
"za	c #65383E",
"Aa	c #663940",
"Ba	c #66393F",
"Ca	c #5A3238",
"Da	c #603D46",
"Ea	c #5E3B44",
"Fa	c #59373E",
"Ga	c #4F2F37",
"Ha	c #15060C",
"Ia	c #47211D",
"Ja	c #7B4038",
"Ka	c #8A493E",
"La	c #8D4B40",
"Ma	c #8B4C43",
"Na	c #814840",
"Oa	c #7D463E",
"Pa	c #834C44",
"Qa	c #844E47",
"Ra	c #794845",
"Sa	c #261413",
"Ta	c #A49081",
"Ua	c #D0D6C0",
"Va	c #968D84",
"Wa	c #1B0109",
"Xa	c #24080D",
"Ya	c #290D12",
"Za	c #280B10",
"`a	c #290C10",
" b	c #2C0D12",
".b	c #2E0E14",
"+b	c #2F0E14",
"@b	c #310E15",
"#b	c #2D0A13",
"$b	c #27060F",
"%b	c #0D0103",
"&b	c #080002",
"*b	c #1B0B15",
"=b	c #381B28",
"-b	c #58333A",
";b	c #59303B",
">b	c #532C37",
",b	c #260D14",
"'b	c #532D38",
")b	c #5C313E",
"!b	c #5B313F",
"~b	c #5A2F3E",
"{b	c #57323E",
"]b	c #401F2E",
"^b	c #331120",
"/b	c #5C353B",
"(b	c #633D43",
"_b	c #643B40",
":b	c #64383F",
"<b	c #60353D",
"[b	c #5F343D",
"}b	c #562E37",
"|b	c #4A212D",
"1b	c #492129",
"2b	c #603A38",
"3b	c #643C3B",
"4b	c #5E3438",
"5b	c #62393E",
"6b	c #61393D",
"7b	c #5F383E",
"8b	c #45242B",
"9b	c #51363C",
"0b	c #5C4247",
"ab	c #553B40",
"bb	c #4E343A",
"cb	c #1F1217",
"db	c #0C0104",
"eb	c #1E080D",
"fb	c #280910",
"gb	c #2D0B13",
"hb	c #2C0D13",
"ib	c #2E0E15",
"jb	c #320C14",
"kb	c #340C13",
"lb	c #320B10",
"mb	c #28070F",
"nb	c #1D030E",
"ob	c #2C1E1C",
"pb	c #DDD2BD",
"qb	c #CFD0B8",
"rb	c #6D605A",
"sb	c #330709",
"tb	c #936D5A",
"ub	c #A27A65",
"vb	c #A87F67",
"wb	c #A77E65",
"xb	c #A77D65",
"yb	c #A77B64",
"zb	c #A57761",
"Ab	c #A3715A",
"Bb	c #9D6B53",
"Cb	c #7D5344",
"Db	c #2A1117",
"Eb	c #0F0207",
"Fb	c #060203",
"Gb	c #0E0306",
"Hb	c #1C0D10",
"Ib	c #211014",
"Jb	c #1D0E10",
"Kb	c #1D0D0F",
"Lb	c #210C11",
"Mb	c #1D0D10",
"Nb	c #1E0D10",
"Ob	c #200B11",
"Pb	c #1F0D12",
"Qb	c #190810",
"Rb	c #19060E",
"Sb	c #261317",
"Tb	c #2A171B",
"Ub	c #2A161A",
"Vb	c #28171B",
"Wb	c #2F1A20",
"Xb	c #311B21",
"Yb	c #2C171D",
"Zb	c #271419",
"`b	c #251118",
" c	c #301D1E",
".c	c #341F21",
"+c	c #351F21",
"@c	c #382128",
"#c	c #351D25",
"$c	c #311A22",
"%c	c #211018",
"&c	c #201118",
"*c	c #23151C",
"=c	c #201218",
"-c	c #1D1012",
";c	c #0F0607",
">c	c #140203",
",c	c #4B2622",
"'c	c #A67A65",
")c	c #AB7F64",
"!c	c #B08467",
"~c	c #B18468",
"{c	c #B18467",
"]c	c #B18466",
"^c	c #B38668",
"/c	c #AF8365",
"(c	c #986E53",
"_c	c #5A2F25",
":c	c #220408",
"<c	c #CABDAD",
"[c	c #544940",
"}c	c #563730",
"|c	c #AF876E",
"1c	c #EBC597",
"2c	c #E8BF8D",
"3c	c #EABF8E",
"4c	c #E9BF8F",
"5c	c #E3B789",
"6c	c #E0B387",
"7c	c #DDAF82",
"8c	c #DCA87C",
"9c	c #D3A073",
"0c	c #C69B73",
"ac	c #7A5548",
"bc	c #513539",
"cc	c #040202",
"dc	c #291014",
"ec	c #2C0E13",
"fc	c #2F1114",
"gc	c #2E1012",
"hc	c #2E0E0F",
"ic	c #361110",
"jc	c #4C2225",
"kc	c #1E060A",
"lc	c #170304",
"mc	c #441817",
"nc	c #3E0E0C",
"oc	c #451113",
"pc	c #431011",
"qc	c #410E0D",
"rc	c #400F0E",
"sc	c #34100E",
"tc	c #0C0200",
"uc	c #391215",
"vc	c #411316",
"wc	c #411213",
"xc	c #401212",
"yc	c #471616",
"zc	c #451B1F",
"Ac	c #0C0003",
"Bc	c #311419",
"Cc	c #3E181E",
"Dc	c #290C11",
"Ec	c #331014",
"Fc	c #3B1217",
"Gc	c #210508",
"Hc	c #060002",
"Ic	c #794031",
"Jc	c #B28262",
"Kc	c #D8AD82",
"Lc	c #E5B887",
"Mc	c #E1B281",
"Nc	c #E0B180",
"Oc	c #E3B482",
"Pc	c #E4B483",
"Qc	c #DEAF7C",
"Rc	c #CB9D6E",
"Sc	c #95664A",
"Tc	c #6B3B34",
"Uc	c #694C4A",
"Vc	c #2E050F",
"Wc	c #704735",
"Xc	c #F1D3A2",
"Yc	c #F7E3AA",
"Zc	c #F3D19B",
"`c	c #FBDA9C",
" d	c #FAD99B",
".d	c #F9D799",
"+d	c #F8D596",
"@d	c #F2CC8A",
"#d	c #F6D896",
"$d	c #AB7E63",
"%d	c #5F3435",
"&d	c #040201",
"*d	c #4B2225",
"=d	c #522121",
"-d	c #662E28",
";d	c #682E2A",
">d	c #662E2B",
",d	c #712F2B",
"'d	c #9C4E45",
")d	c #481719",
"!d	c #AD6254",
"~d	c #97503E",
"{d	c #9A503D",
"]d	c #954C37",
"^d	c #914832",
"/d	c #A15A3F",
"(d	c #7B4537",
"_d	c #120001",
":d	c #854C3A",
"<d	c #945038",
"[d	c #904B38",
"}d	c #964F3C",
"|d	c #954E3A",
"1d	c #9B523A",
"2d	c #914F40",
"3d	c #1A0208",
"4d	c #77453A",
"5d	c #8C4D39",
"6d	c #70362A",
"7d	c #743A2A",
"8d	c #74382A",
"9d	c #63261F",
"0d	c #652A24",
"ad	c #331111",
"bd	c #915A45",
"cd	c #F3DDAE",
"dd	c #FAECB9",
"ed	c #F4DAAA",
"fd	c #FADDA9",
"gd	c #F8DFA8",
"hd	c #FAE3AD",
"id	c #F9E3AD",
"jd	c #F9E4AE",
"kd	c #F4DDA5",
"ld	c #F1DCA5",
"md	c #EAD4A3",
"nd	c #936E5A",
"od	c #341014",
"pd	c #330612",
"qd	c #754837",
"rd	c #F6DAA9",
"sd	c #FBE6AC",
"td	c #F3CC95",
"ud	c #F9DB9A",
"vd	c #F8DF9D",
"wd	c #F8DE9C",
"xd	c #F9DE9C",
"yd	c #FBDE9E",
"zd	c #F7D395",
"Ad	c #F3CC89",
"Bd	c #F5D68D",
"Cd	c #B27D5E",
"Dd	c #572926",
"Ed	c #7A3C37",
"Fd	c #874135",
"Gd	c #854035",
"Hd	c #7C3C32",
"Id	c #813C31",
"Jd	c #AB5A49",
"Kd	c #521F1F",
"Ld	c #3A1615",
"Md	c #B26B53",
"Nd	c #A85C43",
"Od	c #A75A42",
"Pd	c #A2593F",
"Qd	c #9B5137",
"Rd	c #B06949",
"Sd	c #895141",
"Td	c #180003",
"Ud	c #A3634B",
"Vd	c #B26743",
"Wd	c #A95C3E",
"Xd	c #AA5D3F",
"Yd	c #A85D3E",
"Zd	c #A9613C",
"`d	c #9F5E42",
" e	c #1F0305",
".e	c #88503C",
"+e	c #A35C3A",
"@e	c #914C34",
"#e	c #8D4A2F",
"$e	c #8D4731",
"%e	c #7F3A2A",
"&e	c #7A3C2B",
"*e	c #3E1816",
"=e	c #140504",
"-e	c #995B4C",
";e	c #E4C8A1",
">e	c #F9EEBF",
",e	c #F5E3B2",
"'e	c #FDECB4",
")e	c #F9E9AE",
"!e	c #FCEEB6",
"~e	c #FAEBB2",
"{e	c #FBEBB3",
"]e	c #EFDFA6",
"^e	c #F9F1B8",
"/e	c #FBF1BA",
"(e	c #A1785D",
"_e	c #360F16",
":e	c #340811",
"<e	c #8A5C4B",
"[e	c #E1B48D",
"}e	c #DEB589",
"|e	c #C28F69",
"1e	c #C39268",
"2e	c #C7976C",
"3e	c #C6976B",
"4e	c #C6966A",
"5e	c #C6966C",
"6e	c #BF8C66",
"7e	c #C9946C",
"8e	c #C99A6D",
"9e	c #A96D58",
"0e	c #7B4846",
"ae	c #582B29",
"be	c #7C3C39",
"ce	c #864139",
"de	c #7A3A33",
"ee	c #7D3A30",
"fe	c #A75946",
"ge	c #542222",
"he	c #3D1917",
"ie	c #B46E51",
"je	c #AD5F42",
"ke	c #A85B41",
"le	c #A45940",
"me	c #A0553B",
"ne	c #B46C4A",
"oe	c #8F5441",
"pe	c #1B0003",
"qe	c #A9684D",
"re	c #A85B3D",
"se	c #A85B3F",
"te	c #A95C3F",
"ue	c #AD633F",
"ve	c #A15F44",
"we	c #220306",
"xe	c #8E543D",
"ye	c #A75F3C",
"ze	c #934E32",
"Ae	c #8C4830",
"Be	c #8E4834",
"Ce	c #8A4532",
"De	c #83442F",
"Ee	c #411B17",
"Fe	c #1D0908",
"Ge	c #995C4D",
"He	c #C39A79",
"Ie	c #D7B993",
"Je	c #BC9673",
"Ke	c #BB926C",
"Le	c #B48964",
"Me	c #B28763",
"Ne	c #B08561",
"Oe	c #B08660",
"Pe	c #B18660",
"Qe	c #B9946D",
"Re	c #BA9569",
"Se	c #945F4A",
"Te	c #381116",
"Ue	c #350910",
"Ve	c #926350",
"We	c #C08668",
"Xe	c #AE7356",
"Ye	c #AF7456",
"Ze	c #AC6F56",
"`e	c #AE7059",
" f	c #AD6F58",
".f	c #AD6F57",
"+f	c #AF7159",
"@f	c #AE7259",
"#f	c #AD6F56",
"$f	c #A3674B",
"%f	c #9F634C",
"&f	c #7F4C46",
"*f	c #070103",
"=f	c #582A28",
"-f	c #793A36",
";f	c #813F38",
">f	c #834039",
",f	c #7C3B35",
"'f	c #803C33",
")f	c #A85A45",
"!f	c #552423",
"~f	c #401917",
"{f	c #B87053",
"]f	c #AD6042",
"^f	c #A95C43",
"/f	c #A95C44",
"(f	c #A3573F",
"_f	c #B56D4A",
":f	c #8F5340",
"<f	c #1C0005",
"[f	c #A96B4E",
"}f	c #B66C47",
"|f	c #A75D3C",
"1f	c #A95E41",
"2f	c #AA5F42",
"3f	c #B06541",
"4f	c #A36044",
"5f	c #230306",
"6f	c #8E543A",
"7f	c #A9603D",
"8f	c #9A5338",
"9f	c #99543A",
"0f	c #9B5439",
"af	c #934E35",
"bf	c #864632",
"cf	c #421C17",
"df	c #230E0C",
"ef	c #9B6151",
"ff	c #AC7457",
"gf	c #B47C5E",
"hf	c #B47D62",
"if	c #AF785D",
"jf	c #AC755A",
"kf	c #AB7459",
"lf	c #AA7357",
"mf	c #A97356",
"nf	c #A97355",
"of	c #A0684C",
"pf	c #854A3C",
"qf	c #381216",
"rf	c #370811",
"sf	c #8B5B4C",
"tf	c #C48A68",
"uf	c #AF7356",
"vf	c #AB6E53",
"wf	c #AC6E55",
"xf	c #AD7054",
"yf	c #AE7155",
"zf	c #AD7154",
"Af	c #AB6E52",
"Bf	c #9E6249",
"Cf	c #A3674F",
"Df	c #804E47",
"Ef	c #060103",
"Ff	c #512827",
"Gf	c #763A36",
"Hf	c #7E3E36",
"If	c #814139",
"Jf	c #7D3E37",
"Kf	c #813D36",
"Lf	c #A25746",
"Mf	c #4E201E",
"Nf	c #3C1816",
"Of	c #C07A5C",
"Pf	c #AE6143",
"Qf	c #AE6147",
"Rf	c #AC6147",
"Sf	c #A65C41",
"Tf	c #B86F4C",
"Uf	c #905441",
"Vf	c #1A0104",
"Wf	c #AC6B4F",
"Xf	c #B56B46",
"Yf	c #A95E42",
"Zf	c #AA6043",
"`f	c #A85F41",
" g	c #AE6743",
".g	c #A06047",
"+g	c #24040A",
"@g	c #8D543B",
"#g	c #9E583B",
"$g	c #97533B",
"%g	c #995439",
"&g	c #934F35",
"*g	c #884A37",
"=g	c #411B19",
"-g	c #25110F",
";g	c #9F6655",
">g	c #AE7159",
",g	c #B0725A",
"'g	c #B1775F",
")g	c #AA7058",
"!g	c #AA7257",
"~g	c #A97256",
"{g	c #AB7357",
"]g	c #AC7257",
"^g	c #AC7357",
"/g	c #AB7254",
"(g	c #A3694F",
"_g	c #8A5142",
":g	c #391216",
"<g	c #370911",
"[g	c #845546",
"}g	c #C08763",
"|g	c #B87C5B",
"1g	c #A2644B",
"2g	c #A46650",
"3g	c #A3654E",
"4g	c #A96B53",
"5g	c #A96B52",
"6g	c #AD6F52",
"7g	c #AD6F53",
"8g	c #AA6D53",
"9g	c #7E4E46",
"0g	c #291215",
"ag	c #492022",
"bg	c #592929",
"cg	c #592A2A",
"dg	c #5C2C2D",
"eg	c #602E2D",
"fg	c #6C3933",
"gg	c #321113",
"hg	c #250B0D",
"ig	c #85503F",
"jg	c #8E4E3E",
"kg	c #925243",
"lg	c #8F5040",
"mg	c #8C4C3E",
"ng	c #965747",
"og	c #6E3B34",
"pg	c #160005",
"qg	c #885445",
"rg	c #90543E",
"sg	c #894C3E",
"tg	c #884E3E",
"ug	c #834939",
"vg	c #6F3C34",
"wg	c #643830",
"xg	c #7A4232",
"yg	c #723C32",
"zg	c #6A3832",
"Ag	c #693831",
"Bg	c #62332C",
"Cg	c #4C2721",
"Dg	c #1E090E",
"Eg	c #1F0C0A",
"Fg	c #98604F",
"Gg	c #AA6E59",
"Hg	c #AC705B",
"Ig	c #AE7160",
"Jg	c #A16454",
"Kg	c #9D6251",
"Lg	c #9B6250",
"Mg	c #9F6451",
"Ng	c #A56854",
"Og	c #AA6C56",
"Pg	c #B57853",
"Qg	c #B27550",
"Rg	c #8A5242",
"  . + @ # $ % & * = - ; > , ' ) ! ~ { ] ^ / ( _ : < [ } | 1 2 3 4 5 6 7 8 9 0 a b c d e f g h i j k l m n o p q r s t u v w x y ",
"z A B C D E F G H I J K L M N O P Q R S T U V W X Y Z `  ...+.@.#.$.%.&.*.=.-.;.>.,.'.).!.~.{.].^./.(._.:.<.[.}.|.1.2.3.4.5.6.7.",
"8.9.0.a.b.c.d.e.f.g.h.i.j.k.l.= m.n.o.p.q.r.s.t.u.v.w.x.y.z.A.B.C.D.E.F.G.H.I.J.K.L.M.N.O.P.Q.R.S.T.U.V.W.X.Y.Z.`. +.+++@+#+$+%+",
"&+*+=+-+;+>+,+'+)+!+~+{+]+^+/+(+_+:+<+[+}+|+t.1+2+3+c.4+I 5+6+7+8+9+0+a+b+c+d+e+f+g+h+i+j+k+l+m+n+o+p+q+r+s+t+u+v+w+x+y+z+A+B+C+",
"D+E+F+G+H+I+J+K+L+M+N+O+P+Q+R+S+T+U+V+W+X+Y+t.Z+`+ @.@+@@@;.#@$@%@&@*@=@-@;@>@,@g+'@K.)@!@~@{@]@^@/@(@_@:@<@[@}@w+|@1@2@3@4@5@6@",
"7@8@9@0@a@b@c@d@e@f@g@h@i@j@k@l@m@n@o@p@q@r@s@t@u@v@w@=@x@y@z@A@B@C@D@E@F@G@H@I@J@K@L@M@N@O@P@Q@R@S@T@U@V@W@X@[@& & Y@Z@`@ #.#+#",
"@###$#%#&#*#=#-#;#>#,#'#E )#!#~#{#]#^#/#(#_#:#w+<#[#}#|#N.1#2#).3#4#5#6#7#8#9#0#a#b#c#d#e#f#g#h#i#$ j#k#l#m#n#o#o#m#p#q#r#s#t#u#",
"v#w#x#9 y#z#A#B#C#D#D#D#E#} F#G#H#I#J#K#L#M#N#O#P#Q#R#S#T#U#V#W#X#Y#Z#`# $.$+$@$#$$$%$&$*$=$-$;$>$,$'$)$!$~${$]$^$/$($_$:$<$[$}$",
"|$1$2$3$4$5$6$7$8$9$0$a$b$c$d$e$f$g$h$i$j$k$l$m$n$o$p$q$r$s$t$u$v$w$x$y$z$A$B$C$D$E$F$G$H$I$J$K$L$M$N$O$P$Q$R$S$T$U$V$W$X$Y$Z$`$",
" %.%+%@%#%$%%%%%&%*%=%=%-%;%>%,%'%)%!%~%{%]%^%/%(%_%:%<%[%}%|%1%2%3%4%5%6%7%8%9%0%a%b%c%d%e%f%g%h%i%j%k%l%m%n%o%*%p%q%r%s%t%u%v%",
"w%x%y%z%A%B%C%D%E%F%G%H%I%J%K%L%M%N%O%P%Q%R%S%T%U%V%W%X%Y%Z%`% &.&+&@&#&$&%&&&*&=&-&;&>&,&'&)&!&~&{&q%]&F%^&^&/&(&_&:&<&[&}&|&1&",
"2&3&4&5&6&7&8&9&0&a&G%H%b&c&d&e&f&g&h&i&j&k&l&m&n&o&p&q&r&s&t&u&v&w&x&y&z&A&B&C&D&E&F&G&H&I&J&K&L&M&N&O&O&P&Q&Q&R&S&T&U&V&W&X&Y&",
"Z&`& *.*l%+*9&0&@*@*=%G%b&#*$*%*&***=*-*;*>*,*'*)*!*~*{*]*^*/*(*/*_*:*<*[*}*|*1*2*3*4*5*6*7*8*9*0*a*b*c*d*@*e*e*@*f*g*h*i*j*k*l*",
"m*n*o*p*q*r*s*t*u*v*w*x*y*z*A*B*C*D*E*F*G*H*I*J*K*L*M*N*O*P*H Q*R*S*T*C U*V*W*X*Y*Z*`* =.=+=@=#=$=%=&=*===-=;=>=,='=)=!=~={=]=^=",
"/=(=_=:=<=[=}=|=1=2=3=4=5=6=7=8=9=0=a=b=c=d=e=f=g=h=i=j=k=l=y.m=n=n=o=7+p=q=r=s=t=u=v=w=x=y=z=A=B=C=D=E=F=G=H=I=J=K=L=M=N=O=P=Q=",
"R=S=T=U=V=W=X=Y=Z=`= -.-+-@-#-$-%-&-*-=---;->-,-'-)-!-~-{-]-^-/-(-T.j._-:-<-[-}-|-1-2-3-4-5-6-7-8-9-0-a-b-c-d-e-f-g-h-i-j-k-l-m-",
"n-o-p-q-r-s-t-u-v-w-x-y-z-A-B-C-D-E-F-G-H-I-J-K-L-M-N-O-P-Q-R-S-T-U-V-W-X-Y-Z-`- ;.;+;@;#;$;%;&;*;=;-;;;>;,;';);!;~;{;];^;/;(;_;",
":;<;[;};|;1;2;3;4;5;6;7;8;9;0;a;b;c;d;e;f;g;h;i;j;k;l;m;n;o;p;q;r;s;t;u;v;w;x;y;z;A;B;C;D;E;F;G;H;I;J;K;L;M;N;O;P;Q;R;a%S;T;U;V;",
"W;X;Y;Z;`; >.>+>@>#>$>%>&>*>=>->;>>>,>'>)>P !>~>{>]>^>/>(>_>:><>[>}>|>1>2>3>4>5>6>7>8>9>0>a>b>c>d>e>f>g>h>i>j>k>l>m>n>o>p>q>r>s>",
"t>u>v>w>x>y>z>A>B>C>D>E>F>G>H>I>J>K>L>M>N>O>P>Q>R>S>T>U>V>W>X>Y>Z>`>`>`> ,.,+,@,#,$,%,&,*,=,-,;,| >,,,',),!,~,{,],^,/,(,_,:,<,[,",
"},|,1,2,3,4,5,6,7,7;8,9,0,a,b,c,d,e,f,g,h,i,j,k,l,m,n,o,p,q,r,s,s,r,r,t,u,v,w,x,y,z,A,B,C,D,E,F,G,H,I,J,K,L,M,N,O,P,Q,R,S,T,<,[,",
"U,V,W,X,Y,Z,5,`, '.'+'@'#'$'%'&'*'='-';'>',''')'!'~'{']'^'/'('_':':'<'<'['}'|'1'2'3'4'5'6'7'8'F,9'0'a'b'c'd'e'f'g'h'i'j'k'l'm'n'",
"o'p'q'r's't'u'v'w'x'y'z'A'B'C'D'E'F'G'H'I'J'K'L'M'N'O'P'Q'R'S'T'U'Y>V'W'X'Y'Z'`' )L$.)+)@)#)$)%)&)*)=)-);)>),)')))!)~){)])^)/)()",
"_):)<)[)})|)1)2)3)4)5)6)7)8)9)0)a)b)c)d)e)f)g)h)i)j)k)l)m)n)o)p)q)r)s)t)u)v)w)x)y)z)A)B)C)D)E)F)G)H)I)J)K)L)M)N)O)P)Q)R)S)T)U)V)",
"W)X)Y)Z)`) !.!+!@!#!$!%!&!*!=!0)-!;!>!,!'!)!!!~!{!]!^!/!(!_!:!<![!}!|!1!2!3!4!5!6!7!8!9!0!a!b!c!d!e!f!g!h!i!j!k!l!m!n!o!p!q!r!s!",
"t!u!v!w!x!3;y!z!A!B!C!D!E!F!G!H!I!;!J!K!L!M!N!O!P!Q!R!S!T!U!V!W!W!X!W!Y!V!Z!`! ~.~+~@~#~$~a!%~&~*~=~-~;~>~,~'~)~!~~~{~]~^~/~(~_~",
":~<~[~}~|~1~2~3~4~5~6~7~8~9~0~a~b~c~d~e~f~g~h~i~j~k~l~m~n~o~p~q~r~s~t~u~v~w~x~y~z~A~B~C~D~E~F~G~H~I~J~K~L~M~N~O~P~Q~R~S~T~U~V~W~",
"X~Y~Z~3;`~ {.{+{@{#{${%{&{*{={-{;{>{,{'{){!{~{{{]{^{/{({_{:{<{[{U!}{|{1{2{3{4{5{6{7{8{9{0{a{b{c{d{e{f{g{~>h{i{j{k{l{m{n{o{p{q{r{",
"s{t{u{v{w{x{y{z{A{B{C{D{E{F{G{H{I{J{K{L{M{N{O{P{Q{R{S{T{U{V{W{X{Y{Z{`{`{ ].]+]@]r~#]$]%]&]*]=]-];]>],]'])]!]~]{]]]^]/](]_]:]<][]",
"}]|]1]2]3]4]5]6]7]8]9]0]a]b]-'c]d]e]f]g]h]i]j]k]l]m]n]o]p]q]r]s]Y{t]u]v]w]x]y]z]A]B]C]D]E]F]G]H]I]J]K]L]M]N]O]P]Q]R]S]T]U]V]W]X]",
"Y]Z]`] ^.^+^@^#^$^%^&^*^=^=^-^;^>^,^'^)^!^~^{^]^^^/^(^_^:^<^[^}^Y{|^1^2^3^4^5^6^7^8^9^0^a^b^c^d^e^f^g^h^i^j^k^l^m^n^o^p^q^r^s^t^",
"u^v^w^x^y^z^A^B^C^D^E^F^G^H^I^J^K^L^M^N^O^P^Q^R^S^T^U^V^V^W^X^Y^Z^`^ /./+/@/#/$/%/&/*/=/-/;/>/,/'/)/!/~/{/]/^///(/_/:/</[/}/|/1/",
"2/3/4/5/6/7/8/9/0/a/b/c/d/e/f/g/h/i/j/w~k/l/m/n/o/p/q/r/s/t/u/v/w/x/y/z/A/B/C/D/E/F/G/H/I/J/K/L/M/N/O/P/Q/R/S/T/U/V/W/X/Y/Z/`/ (",
".(+(@(#($(%(&(*(=(-(;(>(,('()(!(~({(](^(/(((_(:(<([(}(|(1(2(3(4(=*5(6(7(8(9(0(a(b(c(d(e(f(g(h(i(j(k(l(m(n(o(p(q(r(s(t(u(v(w(x(y(",
"z(A(B(C(D(E(:.F(G(H(I(J(K(L(M(N(O(P(Q(R(S(T(U(V(W(X(Y(Z(`( _._+_@_#_$_%_&_*_=_-_;_>_,_'_)_!_~_{_]_^_/_(___:_<_[_}_|_1_2_3_4_5_6_",
"7_8_9_0_a_b_c_d_e_f_g_h_i_j_k_l_x~m_n_o_p_q_r_s_S^t_u_v_w_x_y_z_A_B_C_D_E_F_G_H_I_J_K_L_M_N_O_P_Q_R_S_T_U_V_W_X_z;Y_Z_`_ :.:+:@:",
"#:$:%:&:*:=:-:;:>:,:':):!:~:{:T!]:^:/:(:_:::<:[:}:|:1:2:3:4:5:6:7:8:9:0:a:b:c:d:e:f:g:h:i:j:k:l:m:n:o:p:q:r:s:t:u:$~v:w:x:y:z:A:",
"B:C:D:E:F:=:G:H:I:J:K:L:M:N:O:P:Q:R:S:T:U:V:W:X:Y:Z:`: <.<+<@<#<$<%<&<*<=<-<;<><,<'<)<!<~<{<]<^</<(<_<:<<<[<}<|<1<2<3<4<5<6<7<8<",
"9<0<a<b<c<d<e<f<g<h<i<j<k<l<m<l]n<o<p<q<r<s<t<u<v<w<`:x<y<z<A<B<w_C<D<D<E<F<G<H<I<J<K<L<M<N<O<P<Q<R<S<T<U<V<W<X<V<Y<Z<`< [.[+[8<",
"@[#[$[%[&[*[=[G:-[&[;[>[,['[)[![~[{[][^[/[t<([_[:[<[[[}[|[1[2[3[4[5[6[7[8[9[0[a[b[c[d[e[f[g[h[i[j[k[l[m[n[o[3<p[q[r[s[t[u[v[w[x[",
"y[z[A[B[C[D[E[F[G[H[I[J[K[L[M[![N[O[P[Q[R[S[T[U[V[W[X[Y[Z[`[ }.}+}@}#}$}%}%}&}*}=}-};}>},}'})}!}~}{}]}^}/}(}_}:}<}[}}}|}1}2}3}4}",
"5}6}7}8}9}0}a}b}c}d}e}f}g}h}i}j}k}l}m}n}o}p}q}r}s}t}u}v}w}x}y}z}A}B}C}D}E}E}F}G}H}I}J}K}L}M}N}O}P}Q}R}S}T}U}V}W}X}a}Y}Z}`} |.|+|",
"@|#|$|%|&|*|=|-|;|>|,|'|)|!|~|{|]|^|/|(|_|:|<|[|}|||1|2|3|4|5|6|7|8|9|0|a|b|c|d|e|f|g|h|i|j|k|l|.=m|n|o|p|q|r|s|t|u|v|w|x|y|z|A|",
"B|C|D|E|F|G|H|I|J|K|L|M|N|O|P|Q|R|S|T|U|V|W|X|Y|Z|`| 1.1+1@1#1$1%1&1*1=1-1;1>1,1'1u~)1!1~1{1]1^1/1(1R<_1:1<1H=[1I=}1|11121314151",
"6171819101a1b1c1d1e1f1g1h1i1j1k1l1m1n1o1p1q1r1s1t1u1v1w1x1y1z1A1B1C1D1E1F1G1H1I1J1K1L1M1N1O1P1Q1R1S1T1U1V1W1X1Y1Z1`1 2.2+2@2#2$2",
"%2&2*2=2-2;2>2,2'2)2!2~2{2]2^2/2(2_2:2<2[2}2|2122232425262728292Z&02a2b2c2d2e2f2g2h2i2j2k2l2m2n2o2p2q2r2s2t2u2v2w2x2y2z2A2B2C2D2",
"E2F2G2H2I2J2K2L2M2N2O2P2Q2R2S2T2U2V2W2X2Y2Z2|2`2 3.3+36262@3#3$3%3&3*3=3-3;3>3,3'3)3!3~3{3]3^3/3(3_3:3<3[3}3|3 ;1323334353637383",
"9303a3b3c3d3e3f3g3h3i3j3k3l3m3n3o3p3q3X2X2[2r1r3s3t3u3v3w3x3y3z3A3B3C3D3E3F3F3G3j}H3I3J3K3L3M3]^N3O3P3Q3R3S3T3 ;U3V3W3X3Y3Z3`3 4",
".4+4@4#4$4%4&4*4=4-4;4>49>,4'4)4!4~4{4]4^4/4(4_4:4<4[4}4|414243444546474849404a4b4c4d4e4f4g4h4i4j4k4l4m4n4o4p4p4e<q4r4s4t4u4v4w4",
"x4y4z4A4B4C4D4E4F4G4H4I4J4K4L4M4N4O4P4]4Q4R4S4T4U4V4W4X4Y4Z4`4 5.5+5@5#5$5%5&5*5=5-5;5>5,5'5)5!5~5{5]5^5/5(5_5:5<5[5}5|515253545",
"556575859505a5i^b5c5d5e5f5g5h5W*i5j5k5l5m5n5o5p5q5r5s5X4X4t5u5v5w5x5y5z5A5B5C5D5E5F5G5H5I5J5K5L5M5N5O5P5Q5R5S5T5U5V5W5X5Y5Z5`5 6",
".6+6@6#6$6%6&6*6=6d}-6;6>6,6n3'6)6!6~6{6]6^6o5/6(6_6:6<6[6}6|6162636465666E376869606a6b6c6d6e6f6g6h6i6j6k6l6m6n6o6p6q6r6s6t6u6v6",
"w6x6y6z6A6B6C6D6E6F6G6H6I6J6K6L6M6N6O6P6Q6R6S4S6T6U6V6W6X6Y6Z6`6 7.7+7@7#7$7%7&7*7=7-7;7>7,7'7)7!7~7{7]7^7/7(7_7:7<7[7}7|7172737",
"47576777879707a7b7c7d7e7f7g7I3h7)6i7j7k7l7m7n7o7p7q7r7s7t7u7v7w7x7.7y7z7A7B7C7D7E7F7G7H7I7J7K7L7M7N7O7P7Q7R7S7T7U7V7W7X7Y7Z7`7 8",
".8+8@8#8$8%8&8*8=8-8;8>8,8'8)8!8~8{8D&]8^8/8(8_8:8<8[8}8|8u718`6B&283848586878889808a8b8c8d8e8f8g8h8i8 )j8k8l8V'm8n8o8p8q8r8s8t8",
"Y'u8v8w8M]x8y8z8K]A8B8C8D8E8F8G8H8I8J8K8L8M8N8O8P8Y7Q8R8S8T8U8V8W8X8Y8Z8`8 9.9+9@9#9$9%9&9*9=9-9;9>9,9'9)9!9~9{9]9^9/9G#(9_9:9<9",
"[9}9|919293949596979B8899909a9b9c9d9e9f9g9h9i9j9k9l9m9n9o9p9q9r9s9t9u9v9w9x9y9z9A9B9C9D9E9F9G9H9D|I9J9K9L9M9N9O9P9Q9R9S9T9U9V9W9",
"X9Y9Z9`9 0.0+0@0#0$0%0&0*0=0-0k[;0>0,0'0)0!0~0{0]0^0/0(0_0:0<0[0}0|01020203040506070809000a0b0c0d0e0f0g0h0i0j0k0l0m0n0o0p0q0r0s0",
"t0u0v0o8w0x0V'y0z0A0B0C0D0E0F0G0H0I0J0K0L0M0N0O0P0Q0R0S0T0U0V0W0X0Y0Z0`0W0 a.a+a@a#a$a%a&a*a=a-a;a>a,a'a)a!a~a{a]a^a/a(a_a:a<a[a",
"}a|a1a2a3a4a5a6a7a8a9a0aaaM=l_bacadaeafagahaiajajakalamanaoapaqarasatauavawa<!xayazaAaBaCaDaEaFaGaHa{}IaJaKaLaMaNaOaPaQaRa_)SaTa",
"UaVaWaXaYaZa`a b.b+b@b#b$b%b&b*b=b-b;b>b,b'b)b!b!b~b{b]b^b/b(b_b:b<b[b}b|b1b2b3b4b5b6b7b8b9b0babbbcbA]dbebfbgbhbibjbkblbmbnbobpb",
"qbrbsbtbubvbwbxbybzbAbBbCbDbEbFbGbHbIbJbh4KbLbMbNbObPbQbRbSbTbUbVbWbXbYbZb`b c.c+c@c#c$c%c&c*c=c-c;c>c,c'c)c!c~c{c]c^c/c(c_c:c<c",
"[c}c|c1c2c3c4c5c6c7c8c9c0cacbcccdcecfcgchcicjckclcmcncocpcqcrcsctcucvcI<wcxcyczcAcBcCcDcEcFcE|Gch4HcIcJcKcLcMcNcMcOcPcQcRcScTcUc",
"VcWcXcYcZc`cx. d.d d+d@d#d$d%d&d*d=d-d;d>d,d'd)dX=!d~d{d]d^d/d(d_d:d<d[d}d|d1d2d3d4d5d6d7d8d9d0dadP:bdcdddedfdgdhdidjdkdldmdndod",
"pdqdrdsdtdudvdwdxdydzdAdBdCd<!T!DdEdFdGdHdIdJdKdLdMdNdOdPdQdRdSdTdUdVdWdXdYdZd`d e.e+e@e#e$e%e&e*e=e-e;e>e,e'e)e!e~e{e]e^e/e(e_e",
":e<e[e}e|e1e2e3e4e5e6e7e8e9e0ek[aebeceL<deeefegeheiejekelemeneoepeqe<6reseteuevewexeyezeAeBeCeDeEeFeGeHeIeJeKeLeMeNeOePeQeReSeTe",
"UeVeWeXeYeZe`e f.f+f@f#f$f%f&f*f=f-f;f>f,f'f)f!f~f{f]f^f/f(f_f:f<f[f}f|f1f2f3f4f5f6f7f8f9f0fafbfcfdfefffgfhfifjfkflfmf8}nfofpfqf",
"rfsftfk8ufvfwf#fxfyfzfAfBfCfDfEfFfGfHfIfJfKfLfMfNfOfPfQfRfSfTfUfVfWfXfYfZf`f g.g+g@gZd#g$g%g&g*g=g-g;g>g,g'g)g!g~g{g]g^g/g(g_g:g",
"<g[g}g|g1g2g3g4g5gg*6g7g8g-=9g(<0gagbgcgdgegfggghgigjgkglgmgngogpgqgrgsgtgugq!vgH5wgxgygzgAgBgCgDgEgFgGgHgIgJgKgLgMgNgOgPgQgRg:g"};
