/* XPM */
static char * floor_xpm[] = {
"64 62 3604 2",
"  	c #E5E1C9",
". 	c #C8C8B1",
"+ 	c #212320",
"@ 	c #1A1D1F",
"# 	c #1A1D1E",
"$ 	c #1C1D1F",
"% 	c #1E1F20",
"& 	c #43463D",
"* 	c #4D5F32",
"= 	c #87AB5A",
"- 	c #A6CE82",
"; 	c #AACE88",
"> 	c #AACE8A",
", 	c #A3C089",
"' 	c #89A577",
") 	c #4D5E41",
"! 	c #949587",
"~ 	c #848279",
"{ 	c #35362B",
"] 	c #34422B",
"^ 	c #4A5A3C",
"/ 	c #5C6E4E",
"( 	c #6A7B5A",
"_ 	c #5F6B51",
": 	c #181B17",
"< 	c #1B1819",
"[ 	c #2D3025",
"} 	c #3F4933",
"| 	c #444E38",
"1 	c #546540",
"2 	c #647A4C",
"3 	c #6D8652",
"4 	c #738E56",
"5 	c #76925B",
"6 	c #789660",
"7 	c #72905C",
"8 	c #3D4B37",
"9 	c #2D2D2B",
"0 	c #2A2928",
"a 	c #262725",
"b 	c #242523",
"c 	c #272424",
"d 	c #242123",
"e 	c #242124",
"f 	c #252125",
"g 	c #2F3831",
"h 	c #445543",
"i 	c #3D4A3F",
"j 	c #556942",
"k 	c #7E9D5D",
"l 	c #7C9761",
"m 	c #4B5B45",
"n 	c #4D514C",
"o 	c #ADAEA0",
"p 	c #DCDDCB",
"q 	c #DCDCC3",
"r 	c #909182",
"s 	c #202B2B",
"t 	c #1C272B",
"u 	c #1B2529",
"v 	c #1B242A",
"w 	c #192127",
"x 	c #A6A49C",
"y 	c #DFDEC7",
"z 	c #68706D",
"A 	c #374338",
"B 	c #809C76",
"C 	c #6F9663",
"D 	c #51784B",
"E 	c #405C41",
"F 	c #3C483A",
"G 	c #414F33",
"H 	c #7D9252",
"I 	c #8FAC52",
"J 	c #B9D182",
"K 	c #D4E5A3",
"L 	c #D4E6A2",
"M 	c #D3E8AA",
"N 	c #D1EEA9",
"O 	c #BDD29B",
"P 	c #2B2B25",
"Q 	c #2B221E",
"R 	c #A0B97C",
"S 	c #C1EB96",
"T 	c #CEF2A6",
"U 	c #D4F7AB",
"V 	c #D8F6B2",
"W 	c #D3F0AC",
"X 	c #687C4D",
"Y 	c #3A3F26",
"Z 	c #92A974",
"` 	c #C5EA9A",
" .	c #C4EB95",
"..	c #C5ED91",
"+.	c #C6F091",
"@.	c #C9F392",
"#.	c #CAF492",
"$.	c #CAF594",
"%.	c #CAF595",
"&.	c #C7F28E",
"*.	c #A7CF74",
"=.	c #839D55",
"-.	c #5C703A",
";.	c #A0C071",
">.	c #A3C974",
",.	c #9FC275",
"'.	c #8DAF67",
").	c #6D854E",
"!.	c #414F28",
"~.	c #4C6335",
"{.	c #85AA61",
"].	c #759A52",
"^.	c #A0C677",
"/.	c #CAEE90",
"(.	c #CBEA94",
"_.	c #B9DA8B",
":.	c #869C6E",
"<.	c #2C3026",
"[.	c #282A2B",
"}.	c #373B2D",
"|.	c #46593D",
"1.	c #537848",
"2.	c #80AF62",
"3.	c #89BA69",
"4.	c #8BBD6A",
"5.	c #7CAE69",
"6.	c #283124",
"7.	c #413C35",
"8.	c #18273B",
"9.	c #516B4D",
"0.	c #B7E195",
"a.	c #BBE98F",
"b.	c #B1E385",
"c.	c #96C774",
"d.	c #95B46C",
"e.	c #98B66D",
"f.	c #9CBC62",
"g.	c #AABD60",
"h.	c #B7C476",
"i.	c #D4E2A2",
"j.	c #D6E4A6",
"k.	c #D5EAA7",
"l.	c #D3EFA5",
"m.	c #CBE4A1",
"n.	c #4E553D",
"o.	c #4B4B37",
"p.	c #C9E59C",
"q.	c #D3FAA1",
"r.	c #D9F8A9",
"s.	c #DAF9AA",
"t.	c #D9F8B0",
"u.	c #D9F7AD",
"v.	c #B5D884",
"w.	c #88AC59",
"x.	c #A0BF76",
"y.	c #C9EE96",
"z.	c #C9EE91",
"A.	c #CAF092",
"B.	c #CDF396",
"C.	c #CEF498",
"D.	c #CFF599",
"E.	c #D0F69C",
"F.	c #D1F69C",
"G.	c #D1F798",
"H.	c #C9F493",
"I.	c #C2EA87",
"J.	c #B1D97B",
"K.	c #C9F28E",
"L.	c #CFF393",
"M.	c #CFF199",
"N.	c #CAEF90",
"O.	c #AAD277",
"P.	c #7E9E4D",
"Q.	c #7F9E4E",
"R.	c #ADD271",
"S.	c #B3D877",
"T.	c #B7DB81",
"U.	c #D1EE92",
"V.	c #D5EF96",
"W.	c #CDEC90",
"X.	c #C9E897",
"Y.	c #7D9066",
"Z.	c #1C1D1E",
"`.	c #485F3B",
" +	c #5F8749",
".+	c #739C53",
"++	c #C3F487",
"@+	c #BCED81",
"#+	c #B7EF7E",
"$+	c #9ED677",
"%+	c #41543B",
"&+	c #171118",
"*+	c #172033",
"=+	c #618653",
"-+	c #B0DE82",
";+	c #C4EB8F",
">+	c #C7EC8B",
",+	c #C1E983",
"'+	c #B9E27B",
")+	c #AFD870",
"!+	c #A5CC65",
"~+	c #9FC158",
"{+	c #A2C062",
"]+	c #BDD889",
"^+	c #C7E193",
"/+	c #D2EE9F",
"(+	c #D3F29F",
"_+	c #D0F49A",
":+	c #BDDA8D",
"<+	c #8EA863",
"[+	c #D2F2A0",
"}+	c #D6F8A2",
"|+	c #D8F7A6",
"1+	c #D9F7A7",
"2+	c #D8F7A9",
"3+	c #D8F9A6",
"4+	c #BFE482",
"5+	c #B1D96F",
"6+	c #B5D978",
"7+	c #BBDD7E",
"8+	c #B9DA7A",
"9+	c #BADB7C",
"0+	c #C2E588",
"a+	c #D0F396",
"b+	c #D2F69A",
"c+	c #D4F79D",
"d+	c #D3F79A",
"e+	c #D0F998",
"f+	c #CBF68E",
"g+	c #C9F38C",
"h+	c #CBF28F",
"i+	c #CEF296",
"j+	c #D0F198",
"k+	c #CEEF95",
"l+	c #AACD78",
"m+	c #7EA14B",
"n+	c #8AAC54",
"o+	c #9EBF62",
"p+	c #BCDD7F",
"q+	c #C5E48B",
"r+	c #D1EB95",
"s+	c #DCF098",
"t+	c #D4EC96",
"u+	c #CEEC93",
"v+	c #A8BF7F",
"w+	c #242720",
"x+	c #5B7A41",
"y+	c #76A751",
"z+	c #A8D37E",
"A+	c #BDE984",
"B+	c #C1EA83",
"C+	c #C6EE8F",
"D+	c #A8D082",
"E+	c #5B6D5C",
"F+	c #171016",
"G+	c #151C30",
"H+	c #556E54",
"I+	c #99B87D",
"J+	c #C1E294",
"K+	c #C9EC93",
"L+	c #CBF08F",
"M+	c #C3E881",
"N+	c #B8DE76",
"O+	c #AED56D",
"P+	c #A4CC63",
"Q+	c #9DC35C",
"R+	c #9ABF5A",
"S+	c #9ABF5C",
"T+	c #C6E791",
"U+	c #D4F59E",
"V+	c #D3F699",
"W+	c #D2F699",
"X+	c #D3F69C",
"Y+	c #D6F8A1",
"Z+	c #D7F7A4",
"`+	c #D8F8A4",
" @	c #D5F7A1",
".@	c #D3F79B",
"+@	c #BFE381",
"@@	c #B4D974",
"#@	c #B4D975",
"$@	c #B6D875",
"%@	c #B4D574",
"&@	c #B2D273",
"*@	c #B1D273",
"=@	c #B7DB7C",
"-@	c #C9ED8E",
";@	c #D0F495",
">@	c #D3F697",
",@	c #D1F697",
"'@	c #D0F694",
")@	c #CEF491",
"!@	c #C9EE8F",
"~@	c #C3E78D",
"{@	c #C8EB92",
"]@	c #CBED94",
"^@	c #B5D87E",
"/@	c #9FC268",
"(@	c #98BB60",
"_@	c #95B85D",
":@	c #B5D67B",
"<@	c #C2E287",
"[@	c #C7E48D",
"}@	c #D4EA96",
"|@	c #DCEF9D",
"1@	c #D6ED97",
"2@	c #C9E091",
"3@	c #586841",
"4@	c #688947",
"5@	c #96C26C",
"6@	c #C3EE8F",
"7@	c #BEE988",
"8@	c #BCE583",
"9@	c #C2E68D",
"0@	c #AACC83",
"a@	c #708764",
"b@	c #161115",
"c@	c #161E32",
"d@	c #1E222D",
"e@	c #445247",
"f@	c #98B580",
"g@	c #BEDF8E",
"h@	c #CBED8F",
"i@	c #C2E782",
"j@	c #B8DF76",
"k@	c #B0D86F",
"l@	c #AAD36A",
"m@	c #A1CA62",
"n@	c #9DC65F",
"o@	c #9AC15E",
"p@	c #C2E28E",
"q@	c #D6F7A1",
"r@	c #D5F89B",
"s@	c #D5F89C",
"t@	c #D5F89E",
"u@	c #D6F7A2",
"v@	c #CBEB97",
"w@	c #C4E68A",
"x@	c #BFE282",
"y@	c #B0D570",
"z@	c #B3D773",
"A@	c #B3D775",
"B@	c #B1D371",
"C@	c #AFD070",
"D@	c #ADCD6F",
"E@	c #ABCD6E",
"F@	c #A7CB6B",
"G@	c #A9CD6D",
"H@	c #B0D574",
"I@	c #B9DE7D",
"J@	c #BEE583",
"K@	c #C3EA89",
"L@	c #C4EA8A",
"M@	c #BEE486",
"N@	c #A1C76D",
"O@	c #96BC64",
"P@	c #97C066",
"Q@	c #ADD378",
"R@	c #A1C56A",
"S@	c #99BC5F",
"T@	c #96B85B",
"U@	c #97B85D",
"V@	c #A6C76D",
"W@	c #B8DB80",
"X@	c #B0D27A",
"Y@	c #9CBE67",
"Z@	c #B0CC79",
"`@	c #C1DC84",
" #	c #BDDB84",
".#	c #8BAB64",
"+#	c #759A50",
"@#	c #ABD37B",
"##	c #B7E17E",
"$#	c #ADD879",
"%#	c #A5CF78",
"&#	c #99BE79",
"*#	c #81A26C",
"=#	c #587251",
"-#	c #131317",
";#	c #344647",
">#	c #1E2825",
",#	c #29342D",
"'#	c #4D6043",
")#	c #869F64",
"!#	c #A0B66E",
"~#	c #B2D176",
"{#	c #B2DA72",
"]#	c #AED86E",
"^#	c #AAD46B",
"/#	c #A7D067",
"(#	c #9FC663",
"_#	c #9AC063",
":#	c #B9DB88",
"<#	c #D7F9A4",
"[#	c #D6F9A0",
"}#	c #D6F99F",
"|#	c #D7F9A0",
"1#	c #D7F7A1",
"2#	c #D6F6A0",
"3#	c #D7F7A5",
"4#	c #AFCF7B",
"5#	c #9CBE5E",
"6#	c #A6C866",
"7#	c #A5C765",
"8#	c #A7CA68",
"9#	c #ACCD6D",
"0#	c #ABCC6D",
"a#	c #A9CB6C",
"b#	c #AACB6E",
"c#	c #A8CC6E",
"d#	c #A7CC6F",
"e#	c #A7CC70",
"f#	c #A4CA6F",
"g#	c #9EC369",
"h#	c #9AC667",
"i#	c #A2C76B",
"j#	c #A9D275",
"k#	c #9DC66A",
"l#	c #94BE64",
"m#	c #91BD64",
"n#	c #95BC63",
"o#	c #91B55B",
"p#	c #94B75B",
"q#	c #95B75C",
"r#	c #96B75D",
"s#	c #96B75F",
"t#	c #95B85F",
"u#	c #97B963",
"v#	c #97BA63",
"w#	c #97BA65",
"x#	c #9CBF6A",
"y#	c #9EC36C",
"z#	c #8CB062",
"A#	c #8FB664",
"B#	c #A6D170",
"C#	c #A3CF6C",
"D#	c #9BC769",
"E#	c #98BF6D",
"F#	c #80996A",
"G#	c #65735A",
"H#	c #3B4135",
"I#	c #191A22",
"J#	c #9BBD83",
"K#	c #9CC282",
"L#	c #83A46A",
"M#	c #6F8757",
"N#	c #4B5A31",
"O#	c #758149",
"P#	c #93A958",
"Q#	c #A5CB6A",
"R#	c #AAD46C",
"S#	c #A9D26C",
"T#	c #A2C96B",
"U#	c #99BF65",
"V#	c #B2D481",
"W#	c #D8FAA6",
"X#	c #D8F9A5",
"Y#	c #D7F9A5",
"Z#	c #D8F7A2",
"`#	c #D6F6A4",
" $	c #BCDC87",
".$	c #9FC161",
"+$	c #A4C767",
"@$	c #A2C566",
"#$	c #9ABE5F",
"$$	c #9BBF62",
"%$	c #A4C669",
"&$	c #A9CA6D",
"*$	c #ABCC6F",
"=$	c #ACCF73",
"-$	c #ADD075",
";$	c #ABD175",
">$	c #A0C76D",
",$	c #9AC167",
"'$	c #9DC469",
")$	c #C3E187",
"!$	c #CAEB8F",
"~$	c #C3E689",
"{$	c #B1D67A",
"]$	c #A0CA73",
"^$	c #91B75F",
"/$	c #8DB058",
"($	c #92B55C",
"_$	c #94B55E",
":$	c #95B55E",
"<$	c #94B45F",
"[$	c #92B55E",
"}$	c #93B65F",
"|$	c #95B864",
"1$	c #96B965",
"2$	c #9ABE67",
"3$	c #9FC469",
"4$	c #96BA66",
"5$	c #A7CF73",
"6$	c #A6D16E",
"7$	c #A6D068",
"8$	c #9FC96E",
"9$	c #8EAF6C",
"0$	c #768468",
"a$	c #595E50",
"b$	c #252420",
"c$	c #343939",
"d$	c #C6EBAD",
"e$	c #CCF2A1",
"f$	c #CFF59E",
"g$	c #CCF49B",
"h$	c #BEE78E",
"i$	c #A1C871",
"j$	c #829F4F",
"k$	c #8CAA57",
"l$	c #9EC665",
"m$	c #ADD770",
"n$	c #B2DC75",
"o$	c #B3DD78",
"p$	c #A8D16F",
"q$	c #AFCF7E",
"r$	c #DDF8AA",
"s$	c #DCF8AD",
"t$	c #D5F0A7",
"u$	c #DAF7A9",
"v$	c #D9F7A4",
"w$	c #D0EFA1",
"x$	c #B5D880",
"y$	c #9ABE61",
"z$	c #9FC467",
"A$	c #9DC367",
"B$	c #97BC62",
"C$	c #95BA60",
"D$	c #9BC164",
"E$	c #A3C768",
"F$	c #A8CB6D",
"G$	c #B7D683",
"H$	c #BADC87",
"I$	c #ADD579",
"J$	c #97C064",
"K$	c #ABCC75",
"L$	c #E3F8A2",
"M$	c #E4F8A0",
"N$	c #E1F8A0",
"O$	c #D8F39B",
"P$	c #DBF5A3",
"Q$	c #9EBE6C",
"R$	c #8AAE57",
"S$	c #90B35C",
"T$	c #91B45E",
"U$	c #91B35F",
"V$	c #90B25D",
"W$	c #8EB25C",
"X$	c #8FB561",
"Y$	c #91B965",
"Z$	c #95BA66",
"`$	c #9BC067",
" %	c #A3C967",
".%	c #A9D06F",
"+%	c #ABD471",
"@%	c #ACD671",
"#%	c #ADD672",
"$%	c #ABD277",
"%%	c #96B86F",
"&%	c #738764",
"*%	c #2F3128",
"=%	c #20181C",
"-%	c #595F5E",
";%	c #BCE0AD",
">%	c #CAEEA3",
",%	c #CEF2A0",
"'%	c #CFF59A",
")%	c #CFF595",
"!%	c #CCF393",
"~%	c #AFD97B",
"{%	c #84A353",
"]%	c #9FC567",
"^%	c #B7E07A",
"/%	c #BAE77A",
"(%	c #BCE97C",
"_%	c #BDE77C",
":%	c #A4CB72",
"<%	c #BCD995",
"[%	c #C2DEA0",
"}%	c #9DB97C",
"|%	c #C0DD99",
"1%	c #C4E49B",
"2%	c #C5E59B",
"3%	c #A2C375",
"4%	c #98BD64",
"5%	c #93B95E",
"6%	c #94BC61",
"7%	c #96BE62",
"8%	c #96BD63",
"9%	c #9ABF65",
"0%	c #9EC266",
"a%	c #A4C76C",
"b%	c #ABCE77",
"c%	c #C8E698",
"d%	c #C9E999",
"e%	c #AFD67F",
"f%	c #99C369",
"g%	c #95BF65",
"h%	c #A4C770",
"i%	c #E2F7A2",
"j%	c #E5F7A0",
"k%	c #E3F9A2",
"l%	c #DBF59E",
"m%	c #E1F8A9",
"n%	c #B4D283",
"o%	c #8AAE59",
"p%	c #8FB25D",
"q%	c #8FB25E",
"r%	c #8FB15D",
"s%	c #8EB05C",
"t%	c #93B463",
"u%	c #BFDD93",
"v%	c #C5E094",
"w%	c #A6C776",
"x%	c #98BF65",
"y%	c #A7CD6B",
"z%	c #ACD371",
"A%	c #ABD470",
"B%	c #ADD772",
"C%	c #B0D875",
"D%	c #B3D97E",
"E%	c #AAD27D",
"F%	c #A9CD82",
"G%	c #789262",
"H%	c #373F2C",
"I%	c #232224",
"J%	c #8EAB94",
"K%	c #B2D498",
"L%	c #B7DD93",
"M%	c #C5EA9D",
"N%	c #CAED9C",
"O%	c #C9EC97",
"P%	c #C3E98E",
"Q%	c #9EC46B",
"R%	c #A9CF72",
"S%	c #B3DC78",
"T%	c #BAE67C",
"U%	c #BEE97F",
"V%	c #BEE881",
"W%	c #ACD479",
"X%	c #8CAF5E",
"Y%	c #8CAF60",
"Z%	c #8DB162",
"`%	c #8DB160",
" &	c #8FB361",
".&	c #90B462",
"+&	c #91B563",
"@&	c #96BB63",
"#&	c #90B95D",
"$&	c #93BC62",
"%&	c #94BC63",
"&&	c #95BC64",
"*&	c #97BD65",
"=&	c #98BD67",
"-&	c #9BBF66",
";&	c #9EC168",
">&	c #A9CB77",
",&	c #CFEEA2",
"'&	c #CEEDA0",
")&	c #B3D984",
"!&	c #99C16B",
"~&	c #95BD67",
"{&	c #95BA64",
"]&	c #CBE490",
"^&	c #E0F5A3",
"/&	c #DEF5A5",
"(&	c #BDD687",
"_&	c #C2DE90",
":&	c #A8C97A",
"<&	c #8AAE5B",
"[&	c #8EB25E",
"}&	c #8DB05C",
"|&	c #8BAF5B",
"1&	c #ACCA82",
"2&	c #DCF4AE",
"3&	c #D9EFA4",
"4&	c #CCE99A",
"5&	c #9CC06A",
"6&	c #A3CA6C",
"7&	c #ACD373",
"8&	c #AAD373",
"9&	c #ABD474",
"0&	c #B3DA7B",
"a&	c #BDE489",
"b&	c #BBE289",
"c&	c #B7E286",
"d&	c #B1DF84",
"e&	c #92BC7C",
"f&	c #283125",
"g&	c #3F4A50",
"h&	c #99AF9C",
"i&	c #ABCB9E",
"j&	c #ACD190",
"k&	c #B2D48E",
"l&	c #AFD189",
"m&	c #B0D47F",
"n&	c #A0C56F",
"o&	c #9CC169",
"p&	c #ACD374",
"q&	c #B8E17E",
"r&	c #BFE884",
"s&	c #BEE683",
"t&	c #AED378",
"u&	c #94B863",
"v&	c #92B663",
"w&	c #91B562",
"x&	c #92B662",
"y&	c #92B761",
"z&	c #92B762",
"A&	c #94B966",
"B&	c #92B960",
"C&	c #8FB65D",
"D&	c #94BB63",
"E&	c #94BB64",
"F&	c #95BC65",
"G&	c #95BC66",
"H&	c #98BC67",
"I&	c #98BD65",
"J&	c #9ABE65",
"K&	c #A3C571",
"L&	c #CAE99D",
"M&	c #C7E79A",
"N&	c #A8CD79",
"O&	c #96BD67",
"P&	c #94BB65",
"Q&	c #90B761",
"R&	c #94B662",
"S&	c #9EBD6C",
"T&	c #9AB769",
"U&	c #90AF62",
"V&	c #8BAF60",
"W&	c #88AD5C",
"X&	c #88AE5C",
"Y&	c #8DB35F",
"Z&	c #8DB25F",
"`&	c #8BAF5C",
" *	c #88AD5A",
".*	c #A8C97D",
"+*	c #D6F3A7",
"@*	c #D9F1A4",
"#*	c #D5F0A2",
"$*	c #A3C573",
"%*	c #9BC26B",
"&*	c #A2C96F",
"**	c #A0C76E",
"=*	c #9AC269",
"-*	c #AAD179",
";*	c #BCE38B",
">*	c #B9E189",
",*	c #B7E188",
"'*	c #B7E288",
")*	c #9DCD81",
"!*	c #40573B",
"~*	c #66675B",
"{*	c #262B31",
"]*	c #3C4844",
"^*	c #6B8461",
"/*	c #82A366",
"(*	c #8CB262",
"_*	c #8BB258",
":*	c #8CB359",
"<*	c #93B862",
"[*	c #9DC46A",
"}*	c #9FC76A",
"|*	c #A2C86A",
"1*	c #99BF64",
"2*	c #94B866",
"3*	c #93B865",
"4*	c #93B863",
"5*	c #92B863",
"6*	c #8DB45C",
"7*	c #8EB55F",
"8*	c #93BB65",
"9*	c #94BB66",
"0*	c #95BB66",
"a*	c #97BB66",
"b*	c #99BD66",
"c*	c #9DC06B",
"d*	c #AECF81",
"e*	c #9DBF70",
"f*	c #96BC67",
"g*	c #92B963",
"h*	c #8DB460",
"i*	c #8CB260",
"j*	c #8BB060",
"k*	c #8BB061",
"l*	c #8BB162",
"m*	c #8BB160",
"n*	c #89B05E",
"o*	c #8EB562",
"p*	c #8CB05D",
"q*	c #8AB05D",
"r*	c #8FB562",
"s*	c #B4D686",
"t*	c #C4DF91",
"u*	c #BAD889",
"v*	c #93B665",
"w*	c #96BC68",
"x*	c #91B864",
"y*	c #96BD6C",
"z*	c #B3DA89",
"A*	c #B6DE8B",
"B*	c #B7E08D",
"C*	c #A8D184",
"D*	c #77A464",
"E*	c #3D5D40",
"F*	c #989684",
"G*	c #17161F",
"H*	c #303F2B",
"I*	c #668554",
"J*	c #759B51",
"K*	c #8AB35A",
"L*	c #8AB358",
"M*	c #8BB459",
"N*	c #91B85F",
"O*	c #91B960",
"P*	c #90B860",
"Q*	c #91B65E",
"R*	c #94BA62",
"S*	c #93BA64",
"T*	c #92B964",
"U*	c #92B862",
"V*	c #8FB55F",
"W*	c #8DB55F",
"X*	c #91BA64",
"Y*	c #91BA66",
"Z*	c #93BB67",
"`*	c #94BA67",
" =	c #97BC66",
".=	c #98BD66",
"+=	c #99BE67",
"@=	c #99BC68",
"#=	c #95BA65",
"$=	c #93B965",
"%=	c #8EB662",
"&=	c #8DB562",
"*=	c #8DB563",
"==	c #8EB664",
"-=	c #8BB462",
";=	c #8EB560",
">=	c #90B461",
",=	c #8EB561",
"'=	c #8EB75F",
")=	c #8FB860",
"!=	c #90B862",
"~=	c #93B966",
"{=	c #8EB762",
"]=	c #86AE63",
"^=	c #81A860",
"/=	c #84AB64",
"(=	c #85AB69",
"_=	c #799E63",
":=	c #64885B",
"<=	c #384C37",
"[=	c #423F3C",
"}=	c #181E25",
"|=	c #6E925D",
"1=	c #81AC60",
"2=	c #85AE5D",
"3=	c #8CB75C",
"4=	c #8EB85D",
"5=	c #91B961",
"6=	c #91B862",
"7=	c #90B961",
"8=	c #8FB861",
"9=	c #89B25C",
"0=	c #8FB563",
"a=	c #8FB663",
"b=	c #90B763",
"c=	c #91B762",
"d=	c #91B761",
"e=	c #8FB761",
"f=	c #8BB55E",
"g=	c #8AB35E",
"h=	c #90B965",
"i=	c #92BA66",
"j=	c #95B967",
"k=	c #97BB67",
"l=	c #96BA67",
"m=	c #92B865",
"n=	c #90B664",
"o=	c #8FB564",
"p=	c #8FB661",
"q=	c #90B562",
"r=	c #8CB562",
"s=	c #8DB663",
"t=	c #90B865",
"u=	c #8EB665",
"v=	c #89B363",
"w=	c #85AE62",
"x=	c #80A661",
"y=	c #75995B",
"z=	c #59734F",
"A=	c #1A1F17",
"B=	c #232022",
"C=	c #172228",
"D=	c #729865",
"E=	c #85AF61",
"F=	c #86AF5E",
"G=	c #89B15C",
"H=	c #8CB35E",
"I=	c #8BB25D",
"J=	c #95BD68",
"K=	c #92BD6B",
"L=	c #90BB68",
"M=	c #7BA459",
"N=	c #83AC5E",
"O=	c #8AB15F",
"P=	c #8CB362",
"Q=	c #90B563",
"R=	c #91B662",
"S=	c #8DB660",
"T=	c #88B15C",
"U=	c #88B15D",
"V=	c #8FB764",
"W=	c #8FB765",
"X=	c #90B765",
"Y=	c #93B764",
"Z=	c #95B965",
"`=	c #98BC68",
" -	c #96BD69",
".-	c #94BB67",
"+-	c #91B966",
"@-	c #8DB664",
"#-	c #8CB563",
"$-	c #8CB565",
"%-	c #8AB161",
"&-	c #8CB363",
"*-	c #8CB461",
"=-	c #8BB362",
"--	c #8BB262",
";-	c #8CB263",
">-	c #8AB061",
",-	c #8AB063",
"'-	c #89B063",
")-	c #89AE63",
"!-	c #88AE61",
"~-	c #8CB665",
"{-	c #8BB665",
"]-	c #88B263",
"^-	c #86B063",
"/-	c #85AF67",
"(-	c #82AA69",
"_-	c #6F9060",
":-	c #1F251C",
"<-	c #211F22",
"[-	c #18232B",
"}-	c #6E9269",
"|-	c #789F5F",
"1-	c #8AB261",
"2-	c #81A855",
"3-	c #99C16E",
"4-	c #95BF6F",
"5-	c #93BE6D",
"6-	c #83AC63",
"7-	c #81AD60",
"8-	c #8AB562",
"9-	c #A9CA7B",
"0-	c #BCDB8D",
"a-	c #AFD080",
"b-	c #8CB662",
"c-	c #88B15F",
"d-	c #82AA59",
"e-	c #86AE5D",
"f-	c #8DB564",
"g-	c #8DB565",
"h-	c #8FB565",
"i-	c #91B566",
"j-	c #92B665",
"k-	c #91B463",
"l-	c #93B866",
"m-	c #98BC69",
"n-	c #95BC68",
"o-	c #93B968",
"p-	c #8DB665",
"q-	c #8CB564",
"r-	c #8BB464",
"s-	c #8BB365",
"t-	c #8AB466",
"u-	c #88B262",
"v-	c #92B96C",
"w-	c #BFDC99",
"x-	c #C8DF9E",
"y-	c #BAD390",
"z-	c #82A45C",
"A-	c #86A95F",
"B-	c #B0D287",
"C-	c #B1D58B",
"D-	c #8CB46B",
"E-	c #79A55A",
"F-	c #88B162",
"G-	c #8BB566",
"H-	c #88B265",
"I-	c #85B064",
"J-	c #85B063",
"K-	c #84AD65",
"L-	c #81A966",
"M-	c #729562",
"N-	c #1E241C",
"O-	c #1F1E21",
"P-	c #19232D",
"Q-	c #60845E",
"R-	c #779D5C",
"S-	c #8CB468",
"T-	c #90BA62",
"U-	c #8AB45C",
"V-	c #85AF59",
"W-	c #8CB45F",
"X-	c #95BD6B",
"Y-	c #92BB6B",
"Z-	c #92BB6C",
"`-	c #88B065",
" ;	c #BDDA8C",
".;	c #DAECA3",
"+;	c #DAEAA3",
"@;	c #D5E99F",
"#;	c #B1D081",
"$;	c #89B361",
"%;	c #85AF5E",
"&;	c #82AB5C",
"*;	c #85AD5D",
"=;	c #8BB364",
"-;	c #8CB464",
";;	c #8DB364",
">;	c #8FB364",
",;	c #90B465",
"';	c #91B365",
");	c #8EB263",
"!;	c #90B564",
"~;	c #95BB69",
"{;	c #93BB68",
"];	c #91B967",
"^;	c #90B766",
"/;	c #88B264",
"(;	c #87B264",
"_;	c #83AE60",
":;	c #83AF5F",
"<;	c #ADCF8C",
"[;	c #D9EFB6",
"};	c #DEECB5",
"|;	c #DEEFB6",
"1;	c #91AC6D",
"2;	c #98B470",
"3;	c #D0EDA1",
"4;	c #CDEB99",
"5;	c #C0E291",
"6;	c #79A156",
"7;	c #8AB367",
"8;	c #87B265",
"9;	c #85B066",
"0;	c #82AD65",
"a;	c #81AB65",
"b;	c #7FA965",
"c;	c #719564",
"d;	c #1D241D",
"e;	c #1A1A1E",
"f;	c #17212C",
"g;	c #648A5D",
"h;	c #93BD6F",
"i;	c #97C06A",
"j;	c #94BF61",
"k;	c #8DBA5C",
"l;	c #88B35A",
"m;	c #87B05A",
"n;	c #8BB361",
"o;	c #8DB566",
"p;	c #8EB667",
"q;	c #83AD5D",
"r;	c #7BA558",
"s;	c #B7D38C",
"t;	c #D8E9A6",
"u;	c #DAEAA8",
"v;	c #D5EAA4",
"w;	c #B0CF84",
"x;	c #84AE5F",
"y;	c #83AE5E",
"z;	c #80AA5C",
"A;	c #89B162",
"B;	c #8AB264",
"C;	c #8BB264",
"D;	c #8FB365",
"E;	c #8FB265",
"F;	c #90B266",
"G;	c #8EB264",
"H;	c #8DB362",
"I;	c #8EB765",
"J;	c #8FB865",
"K;	c #8FB566",
"L;	c #89B264",
"M;	c #86B162",
"N;	c #81AC5E",
"O;	c #80AB5B",
"P;	c #AAC986",
"Q;	c #D9EBB5",
"R;	c #DEEAB9",
"S;	c #DBEDB6",
"T;	c #93B06F",
"U;	c #8FAD6B",
"V;	c #CBEAA0",
"W;	c #C9EA99",
"X;	c #BADD8E",
"Y;	c #82AB60",
"Z;	c #86B164",
"`;	c #84AE64",
" >	c #82AB65",
".>	c #7FA966",
"+>	c #7EA866",
"@>	c #7CA765",
"#>	c #6D9263",
"$>	c #1B221C",
"%>	c #16151B",
"&>	c #171F2C",
"*>	c #6E9562",
"=>	c #97C370",
"->	c #93BC67",
";>	c #91BA63",
">>	c #8BB75E",
",>	c #88B15B",
"'>	c #86AE5B",
")>	c #88B05E",
"!>	c #8AB262",
"~>	c #87B061",
"{>	c #81AB5E",
"]>	c #7A9F57",
"^>	c #9CBA78",
"/>	c #ABC887",
"(>	c #A6C680",
"_>	c #86AD61",
":>	c #80AB5E",
"<>	c #7DA85A",
"[>	c #81A95C",
"}>	c #87AE61",
"|>	c #88B062",
"1>	c #89B163",
"2>	c #8BB063",
"3>	c #8BB163",
"4>	c #8CB165",
"5>	c #8DB265",
"6>	c #8DB264",
"7>	c #8EB463",
"8>	c #8EB565",
"9>	c #8CB365",
"0>	c #89B164",
"a>	c #88B163",
"b>	c #85B061",
"c>	c #84AF61",
"d>	c #84AE60",
"e>	c #7FA95B",
"f>	c #7FAA5A",
"g>	c #83A95F",
"h>	c #A2BD81",
"i>	c #C3DAA5",
"j>	c #A7C186",
"k>	c #84A761",
"l>	c #81A660",
"m>	c #8BAE6A",
"n>	c #90B56F",
"o>	c #83AA60",
"p>	c #83AC61",
"q>	c #85AF63",
"r>	c #84AD62",
"s>	c #82AA63",
"t>	c #79A060",
"u>	c #779E63",
"v>	c #779F65",
"w>	c #769E64",
"x>	c #668A5D",
"y>	c #1B211B",
"z>	c #13131B",
"A>	c #171F2B",
"B>	c #61875E",
"C>	c #7BA661",
"D>	c #7FA85D",
"E>	c #84AC5C",
"F>	c #88AE5E",
"G>	c #86AD5D",
"H>	c #87B05E",
"I>	c #87B060",
"J>	c #7EA85D",
"K>	c #7EAA5D",
"L>	c #7FAA5D",
"M>	c #7FAA5C",
"N>	c #80AB5D",
"O>	c #80AA5F",
"P>	c #7CA65B",
"Q>	c #7FA75A",
"R>	c #85AC60",
"S>	c #83AA5E",
"T>	c #8AAF63",
"U>	c #8AB064",
"V>	c #8BB165",
"W>	c #8AB263",
"X>	c #8BB263",
"Y>	c #8EB465",
"Z>	c #8CB466",
"`>	c #87AF63",
" ,	c #8AB165",
".,	c #8BB266",
"+,	c #87B164",
"@,	c #83AF5E",
"#,	c #83AD5E",
"$,	c #84AB61",
"%,	c #83AB5F",
"&,	c #81A85E",
"*,	c #7DA45E",
"=,	c #789F5A",
"-,	c #799F59",
";,	c #7FA65C",
">,	c #84AC61",
",,	c #84AC63",
"',	c #84AA62",
"),	c #799E61",
"!,	c #6E8F63",
"~,	c #6F8D65",
"{,	c #6C8C62",
"],	c #698A5F",
"^,	c #5B775A",
"/,	c #13131C",
"(,	c #181F2C",
"_,	c #517656",
":,	c #658F57",
"<,	c #7AA25E",
"[,	c #7FA759",
"},	c #83AB5C",
"|,	c #87AD5F",
"1,	c #88AE60",
"2,	c #88AE5F",
"3,	c #87AE5F",
"4,	c #87AF5F",
"5,	c #85B05F",
"6,	c #81AE5F",
"7,	c #80AD5E",
"8,	c #80AC5D",
"9,	c #80AA60",
"0,	c #7CA65A",
"a,	c #7CA459",
"b,	c #89AF62",
"c,	c #8DB266",
"d,	c #8CB465",
"e,	c #8CB364",
"f,	c #8DB465",
"g,	c #91B767",
"h,	c #90B867",
"i,	c #86AB64",
"j,	c #C7E29F",
"k,	c #DBF0AF",
"l,	c #B9D592",
"m,	c #7FAA5B",
"n,	c #83AD5C",
"o,	c #84AC5E",
"p,	c #84AC5F",
"q,	c #83AB5E",
"r,	c #7FA65B",
"s,	c #7DA55B",
"t,	c #7DA559",
"u,	c #7FA75C",
"v,	c #82AA62",
"w,	c #82A961",
"x,	c #789A62",
"y,	c #6C8B63",
"z,	c #688260",
"A,	c #627C5A",
"B,	c #5E7756",
"C,	c #4C5C4B",
"D,	c #212021",
"E,	c #161725",
"F,	c #171F32",
"G,	c #4A6658",
"H,	c #547856",
"I,	c #658C53",
"J,	c #779F59",
"K,	c #85AC61",
"L,	c #88AF60",
"M,	c #88B061",
"N,	c #86AF60",
"O,	c #85AF60",
"P,	c #83AE5F",
"Q,	c #80AC60",
"R,	c #80AC5F",
"S,	c #7FAB5F",
"T,	c #82AC5F",
"U,	c #80AA5A",
"V,	c #81AA5A",
"W,	c #88B05F",
"X,	c #8DB666",
"Y,	c #8EB666",
"Z,	c #8FB767",
"`,	c #92B86A",
" '	c #8EB368",
".'	c #89AD65",
"+'	c #D6EDAC",
"@'	c #EAF8BD",
"#'	c #DCF1B4",
"$'	c #86AC66",
"%'	c #80A95B",
"&'	c #84AC5D",
"*'	c #83AD5B",
"='	c #81AD5B",
"-'	c #82A95F",
";'	c #82A95E",
">'	c #80A75C",
",'	c #7FA65D",
"''	c #7EA55D",
")'	c #80A55E",
"!'	c #81A761",
"~'	c #81A963",
"{'	c #80A962",
"]'	c #7DA460",
"^'	c #779E5E",
"/'	c #72985A",
"('	c #678653",
"_'	c #586D48",
":'	c #242534",
"<'	c #202A39",
"['	c #3B4F47",
"}'	c #4A6A4E",
"|'	c #698F58",
"1'	c #79A25D",
"2'	c #7AA25A",
"3'	c #87AF62",
"4'	c #87AF61",
"5'	c #86AF61",
"6'	c #83AD5F",
"7'	c #80AC61",
"8'	c #80AC5E",
"9'	c #85B05E",
"0'	c #87B25C",
"a'	c #89B25D",
"b'	c #89B15F",
"c'	c #88B060",
"d'	c #8EB868",
"e'	c #8EB969",
"f'	c #90B868",
"g'	c #AAD17D",
"h'	c #A9CF80",
"i'	c #87AC63",
"j'	c #B7D394",
"k'	c #CDE8B0",
"l'	c #C3DFA1",
"m'	c #7FA55F",
"n'	c #7EA75C",
"o'	c #80A75D",
"p'	c #7EA75D",
"q'	c #7EA95E",
"r'	c #80AA5E",
"s'	c #82A960",
"t'	c #81A85F",
"u'	c #80A65F",
"v'	c #7FA65F",
"w'	c #80A660",
"x'	c #80A862",
"y'	c #7FA861",
"z'	c #7EA762",
"A'	c #7DA661",
"B'	c #7AA35F",
"C'	c #79A25F",
"D'	c #729C58",
"E'	c #678C4F",
"F'	c #5D7A4B",
"G'	c #1E1E2C",
"H'	c #364A43",
"I'	c #5F8359",
"J'	c #699159",
"K'	c #7AA361",
"L'	c #79A35A",
"M'	c #7DA55C",
"N'	c #85AD63",
"O'	c #85AE61",
"P'	c #84AE62",
"Q'	c #84AD61",
"R'	c #83AD60",
"S'	c #82AD62",
"T'	c #81AD62",
"U'	c #80AC62",
"V'	c #81AD5F",
"W'	c #85AF62",
"X'	c #86B160",
"Y'	c #87B05D",
"Z'	c #89B062",
"`'	c #8BB466",
" )	c #8CB566",
".)	c #8CB666",
"+)	c #90BA69",
"@)	c #8FB867",
"#)	c #8FB768",
"$)	c #91B96A",
"%)	c #BFE58E",
"&)	c #C1E796",
"*)	c #8AB067",
"=)	c #87AC67",
"-)	c #81A863",
";)	c #7DA35F",
">)	c #79A05E",
",)	c #7CA15F",
"')	c #7EA45F",
"))	c #7AA45D",
"!)	c #7BA65E",
"~)	c #81AA5F",
"{)	c #81AA60",
"])	c #81A861",
"^)	c #7FA760",
"/)	c #7DA660",
"()	c #7EA761",
"_)	c #7DA860",
":)	c #7DA761",
"<)	c #7CA561",
"[)	c #7BA461",
"})	c #78A15F",
"|)	c #6F9658",
"1)	c #638051",
"2)	c #404E35",
"3)	c #181624",
"4)	c #2E4438",
"5)	c #719D66",
"6)	c #739F5C",
"7)	c #78A35E",
"8)	c #78A35C",
"9)	c #81AB60",
"0)	c #82AC60",
"a)	c #82AD61",
"b)	c #83AD61",
"c)	c #82AD63",
"d)	c #81AD63",
"e)	c #80AB64",
"f)	c #80AB63",
"g)	c #7FA962",
"h)	c #78A15C",
"i)	c #86AE61",
"j)	c #87AE62",
"k)	c #87AF64",
"l)	c #86AF64",
"m)	c #85AF64",
"n)	c #86B065",
"o)	c #89B368",
"p)	c #89B267",
"q)	c #90B76C",
"r)	c #8DB469",
"s)	c #8AB168",
"t)	c #86AD64",
"u)	c #99C273",
"v)	c #A1CB7C",
"w)	c #8AB468",
"x)	c #8AB268",
"y)	c #789E57",
"z)	c #779B5A",
"A)	c #789D5A",
"B)	c #85B062",
"C)	c #87B862",
"D)	c #7CA45D",
"E)	c #80A761",
"F)	c #80AA63",
"G)	c #7EAA63",
"H)	c #7CA860",
"I)	c #7AA45F",
"J)	c #7BA460",
"K)	c #7CA662",
"L)	c #78A35F",
"M)	c #77A15E",
"N)	c #77A05E",
"O)	c #79A15F",
"P)	c #78A060",
"Q)	c #6F955B",
"R)	c #638059",
"S)	c #2B302B",
"T)	c #161422",
"U)	c #273C35",
"V)	c #6F9A68",
"W)	c #729D5D",
"X)	c #77A25E",
"Y)	c #78A25C",
"Z)	c #79A261",
"`)	c #79A162",
" !	c #7AA360",
".!	c #7BA25F",
"+!	c #7EAA61",
"@!	c #81AF62",
"#!	c #82B065",
"$!	c #82AF65",
"%!	c #82AE65",
"&!	c #82AE67",
"*!	c #81AB67",
"=!	c #769F5A",
"-!	c #79A25B",
";!	c #7FA75D",
">!	c #83AE63",
",!	c #83AE64",
"'!	c #83AD64",
")!	c #83AD65",
"!!	c #82AC65",
"~!	c #85AC66",
"{!	c #7CA35D",
"]!	c #7CA35E",
"^!	c #7DA560",
"/!	c #81A961",
"(!	c #ABCA86",
"_!	c #C9DFA1",
":!	c #C1D899",
"<!	c #B6D18E",
"[!	c #A0BC7C",
"}!	c #7AA05A",
"|!	c #8AB962",
"1!	c #95C866",
"2!	c #91BE6A",
"3!	c #7B9F60",
"4!	c #7BA662",
"5!	c #79A761",
"6!	c #7BA961",
"7!	c #7AA861",
"8!	c #79A661",
"9!	c #7BA764",
"0!	c #76A15E",
"a!	c #739D5D",
"b!	c #759E5D",
"c!	c #779F5D",
"d!	c #79A063",
"e!	c #769C65",
"f!	c #6C8D6A",
"g!	c #242F2D",
"h!	c #151422",
"i!	c #243834",
"j!	c #6B9665",
"k!	c #77A263",
"l!	c #79A361",
"m!	c #759F5F",
"n!	c #79A062",
"o!	c #78A061",
"p!	c #78A063",
"q!	c #78A062",
"r!	c #759C5E",
"s!	c #769C5E",
"t!	c #769D5B",
"u!	c #7AA55E",
"v!	c #82B164",
"w!	c #81B165",
"x!	c #82B268",
"y!	c #83B269",
"z!	c #84B16C",
"A!	c #84B16D",
"B!	c #7EAB65",
"C!	c #7AA45C",
"D!	c #7FA95E",
"E!	c #81AB61",
"F!	c #81AC62",
"G!	c #7FAA63",
"H!	c #7EA963",
"I!	c #7CA660",
"J!	c #7FA862",
"K!	c #7EA760",
"L!	c #7CA55D",
"M!	c #7EA85F",
"N!	c #82AC63",
"O!	c #B0CA8C",
"P!	c #D9E4AE",
"Q!	c #DCE4AE",
"R!	c #D8E5AE",
"S!	c #C7D8A1",
"T!	c #7BA15C",
"U!	c #99C570",
"V!	c #92BD70",
"W!	c #719858",
"X!	c #74995E",
"Y!	c #7AA665",
"Z!	c #78A463",
"`!	c #7AA561",
" ~	c #7CA863",
".~	c #7BA864",
"+~	c #79A664",
"@~	c #74A160",
"#~	c #739D5F",
"$~	c #719A60",
"%~	c #6F9661",
"&~	c #7A9F67",
"*~	c #7CA16A",
"=~	c #698B60",
"-~	c #628164",
";~	c #1F2C2E",
">~	c #141422",
",~	c #213632",
"'~	c #689362",
")~	c #76A264",
"!~	c #77A064",
"~~	c #638B56",
"{~	c #6F955F",
"]~	c #779F62",
"^~	c #779E61",
"/~	c #729B5E",
"(~	c #749D5F",
"_~	c #739C5B",
":~	c #79A55F",
"<~	c #7CAB65",
"[~	c #78A763",
"}~	c #7CAB69",
"|~	c #83B271",
"1~	c #82B271",
"2~	c #7FB06F",
"3~	c #79A967",
"4~	c #779F5C",
"5~	c #80A961",
"6~	c #80AA64",
"7~	c #7FAA65",
"8~	c #7FAA64",
"9~	c #7BA561",
"0~	c #7BA55D",
"a~	c #7DA75D",
"b~	c #83AC64",
"c~	c #8FB16F",
"d~	c #C3DA9E",
"e~	c #D2E6AA",
"f~	c #CADCA3",
"g~	c #B9D197",
"h~	c #7AA05C",
"i~	c #81AA62",
"j~	c #7BA35F",
"k~	c #719A5A",
"l~	c #71995C",
"m~	c #79A464",
"n~	c #759F63",
"o~	c #729C60",
"p~	c #78A464",
"q~	c #739F60",
"r~	c #749E60",
"s~	c #729B66",
"t~	c #4E6F4F",
"u~	c #709168",
"v~	c #7EA36F",
"w~	c #60825F",
"x~	c #4B6452",
"y~	c #1B2326",
"z~	c #141423",
"A~	c #203532",
"B~	c #639268",
"C~	c #6E9960",
"D~	c #5C8157",
"E~	c #62855A",
"F~	c #749A5F",
"G~	c #769E60",
"H~	c #739C5D",
"I~	c #719C5D",
"J~	c #729E5D",
"K~	c #719E5D",
"L~	c #6F9D5E",
"M~	c #6F9D5F",
"N~	c #709F61",
"O~	c #78A669",
"P~	c #73A064",
"Q~	c #6F995D",
"R~	c #709459",
"S~	c #789C5C",
"T~	c #7EA962",
"U~	c #80AB65",
"V~	c #7CA661",
"W~	c #7CA55C",
"X~	c #7FA960",
"Y~	c #81AC63",
"Z~	c #7FAB64",
"`~	c #82AD68",
" {	c #88B16D",
".{	c #83AD6A",
"+{	c #7AA461",
"@{	c #75A05C",
"#{	c #76A05D",
"${	c #75A05E",
"%{	c #749F5E",
"&{	c #729C5E",
"*{	c #74A061",
"={	c #709B5F",
"-{	c #6F9A5F",
";{	c #719D62",
">{	c #719D63",
",{	c #6F9B61",
"'{	c #719B61",
"){	c #749E61",
"!{	c #75A06C",
"~{	c #3B5C4A",
"{{	c #496450",
"]{	c #779A71",
"^{	c #678D66",
"/{	c #4F6F5A",
"({	c #191D22",
"_{	c #141424",
":{	c #1F3435",
"<{	c #5E8D69",
"[{	c #64925E",
"}{	c #659060",
"|{	c #59825B",
"1{	c #60885A",
"2{	c #689159",
"3{	c #6F9A5C",
"4{	c #709B5B",
"5{	c #719D5C",
"6{	c #709F5D",
"7{	c #709E5F",
"8{	c #6F9D60",
"9{	c #6F9C60",
"0{	c #709C60",
"a{	c #709A60",
"b{	c #71975E",
"c{	c #779B5E",
"d{	c #7EA662",
"e{	c #7DA862",
"f{	c #7FAA62",
"g{	c #80AC63",
"h{	c #7EA85E",
"i{	c #80AA61",
"j{	c #82AB62",
"k{	c #83AB64",
"l{	c #81AC64",
"m{	c #7EAA64",
"n{	c #7CA963",
"o{	c #7BA862",
"p{	c #7AA762",
"q{	c #76A45E",
"r{	c #749F5D",
"s{	c #749E5D",
"t{	c #739D5E",
"u{	c #719D5E",
"v{	c #6F9C5F",
"w{	c #6F9B5F",
"x{	c #6E9A5F",
"y{	c #6F9B62",
"z{	c #6D9A62",
"A{	c #6B995D",
"B{	c #6F9C67",
"C{	c #385747",
"D{	c #354F45",
"E{	c #6A8C6B",
"F{	c #6B926B",
"G{	c #557762",
"H{	c #131525",
"I{	c #21373A",
"J{	c #598969",
"K{	c #5F905F",
"L{	c #5C8C5F",
"M{	c #56855D",
"N{	c #5B865A",
"O{	c #62885A",
"P{	c #6A945D",
"Q{	c #6E9A5C",
"R{	c #6F9E5C",
"S{	c #709E5E",
"T{	c #709D5F",
"U{	c #709C5F",
"V{	c #6E9F60",
"W{	c #729E5F",
"X{	c #7EA960",
"Y{	c #7FAB62",
"Z{	c #80AB61",
"`{	c #7BA660",
" ]	c #7EA961",
".]	c #81AA64",
"+]	c #80AA65",
"@]	c #7CA762",
"#]	c #7BA762",
"$]	c #7BA664",
"%]	c #76A162",
"&]	c #709B5C",
"*]	c #719D5D",
"=]	c #719C5E",
"-]	c #6E9B60",
";]	c #6D9A60",
">]	c #6D9A61",
",]	c #6E9B62",
"']	c #6B9B61",
")]	c #67975E",
"!]	c #689562",
"~]	c #3C5C4C",
"{]	c #304C47",
"]]	c #597C63",
"^]	c #66916B",
"/]	c #547863",
"(]	c #161F22",
"_]	c #121527",
":]	c #1F393B",
"<]	c #508566",
"[]	c #54875F",
"}]	c #517B60",
"|]	c #39594A",
"1]	c #30453D",
"2]	c #384E3F",
"3]	c #5C8158",
"4]	c #67945C",
"5]	c #6C9C5D",
"6]	c #709E60",
"7]	c #709E61",
"8]	c #719D61",
"9]	c #6F9B60",
"0]	c #6F9A61",
"a]	c #719861",
"b]	c #749C5F",
"c]	c #7DA65F",
"d]	c #7FA964",
"e]	c #7EA864",
"f]	c #7DA763",
"g]	c #7BA763",
"h]	c #7DA864",
"i]	c #80A964",
"j]	c #7BA663",
"k]	c #7BA566",
"l]	c #759E67",
"m]	c #6B975C",
"n]	c #709D5E",
"o]	c #709D5D",
"p]	c #6F9C5E",
"q]	c #6C995E",
"r]	c #6B985F",
"s]	c #6A9860",
"t]	c #6B9962",
"u]	c #6C9A65",
"v]	c #6A9963",
"w]	c #679660",
"x]	c #618E62",
"y]	c #3A5F50",
"z]	c #2F4E4C",
"A]	c #496E5B",
"B]	c #64916E",
"C]	c #557A66",
"D]	c #151F23",
"E]	c #1C3939",
"F]	c #427B62",
"G]	c #3E7059",
"H]	c #294546",
"I]	c #1A253D",
"J]	c #466054",
"K]	c #88AE7D",
"L]	c #89B578",
"M]	c #6D9C5E",
"N]	c #66955D",
"O]	c #6B9960",
"P]	c #6E9C61",
"Q]	c #6F9C62",
"R]	c #709C62",
"S]	c #6F9A63",
"T]	c #6E9964",
"U]	c #6D9863",
"V]	c #6B9660",
"W]	c #6D9460",
"X]	c #6D915F",
"Y]	c #70965E",
"Z]	c #76A061",
"`]	c #76A062",
" ^	c #79A462",
".^	c #7AA563",
"+^	c #7BA564",
"@^	c #7BA565",
"#^	c #7AA564",
"$^	c #7AA565",
"%^	c #79A564",
"&^	c #7CA861",
"*^	c #7DA962",
"=^	c #7DA963",
"-^	c #7EA863",
";^	c #7AA468",
">^	c #759D68",
",^	c #6C975F",
"'^	c #699660",
")^	c #66925E",
"!^	c #648F5F",
"~^	c #669063",
"{^	c #669565",
"]^	c #659465",
"^^	c #527E5E",
"/^	c #375F54",
"(^	c #305452",
"_^	c #3E6458",
":^	c #5B866B",
"<^	c #476B5B",
"[^	c #161E25",
"}^	c #121526",
"|^	c #1E3A3B",
"1^	c #3C7364",
"2^	c #315250",
"3^	c #212C40",
"4^	c #456261",
"5^	c #709C79",
"6^	c #91C57F",
"7^	c #94C77B",
"8^	c #86B96E",
"9^	c #5D8D5C",
"0^	c #629163",
"a^	c #639361",
"b^	c #659264",
"c^	c #689466",
"d^	c #6D9867",
"e^	c #6E9867",
"f^	c #6D9765",
"g^	c #6D9764",
"h^	c #6C9662",
"i^	c #6D9662",
"j^	c #6A8E5F",
"k^	c #6A8E60",
"l^	c #749C65",
"m^	c #719B65",
"n^	c #709A63",
"o^	c #709B61",
"p^	c #79A364",
"q^	c #7AA464",
"r^	c #7AA466",
"s^	c #78A465",
"t^	c #77A461",
"u^	c #7AA761",
"v^	c #7CA763",
"w^	c #7BA666",
"x^	c #77A365",
"y^	c #76A165",
"z^	c #78A168",
"A^	c #6B9360",
"B^	c #68905C",
"C^	c #719C5F",
"D^	c #6C995F",
"E^	c #6A9660",
"F^	c #6A955F",
"G^	c #68935E",
"H^	c #65905F",
"I^	c #648F60",
"J^	c #618B5F",
"K^	c #59815C",
"L^	c #577E5F",
"M^	c #598261",
"N^	c #567D62",
"O^	c #22433E",
"P^	c #315C5A",
"Q^	c #315C5C",
"R^	c #345E58",
"S^	c #3F6A60",
"T^	c #406258",
"U^	c #111325",
"V^	c #192935",
"W^	c #253F46",
"X^	c #172038",
"Y^	c #334D4C",
"Z^	c #629474",
"`^	c #72AA7D",
" /	c #82B67C",
"./	c #8CBF7B",
"+/	c #85B875",
"@/	c #5B8562",
"#/	c #4A6F5C",
"$/	c #426355",
"%/	c #304848",
"&/	c #2B4343",
"*/	c #5A7E5F",
"=/	c #6A9367",
"-/	c #6B9662",
";/	c #6C9663",
">/	c #698D5F",
",/	c #678A5C",
"'/	c #719B64",
")/	c #72A068",
"!/	c #699863",
"~/	c #65925F",
"{/	c #78A567",
"]/	c #78A566",
"^/	c #77A465",
"//	c #76A362",
"(/	c #77A460",
"_/	c #77A561",
":/	c #7AA566",
"</	c #79A468",
"[/	c #77A369",
"}/	c #729F66",
"|/	c #709D65",
"1/	c #6F9B65",
"2/	c #658F5F",
"3/	c #628D5D",
"4/	c #69955F",
"5/	c #69945E",
"6/	c #689360",
"7/	c #689161",
"8/	c #669061",
"9/	c #658E60",
"0/	c #628D61",
"a/	c #5E8A60",
"b/	c #59855E",
"c/	c #537F5F",
"d/	c #517D61",
"e/	c #51805E",
"f/	c #4A7661",
"g/	c #25454C",
"h/	c #325D5F",
"i/	c #305F5C",
"j/	c #2F5F58",
"k/	c #346459",
"l/	c #426A5F",
"m/	c #132026",
"n/	c #151726",
"o/	c #10121E",
"p/	c #111323",
"q/	c #1D2E37",
"r/	c #517E71",
"s/	c #5E9376",
"t/	c #629C75",
"u/	c #6C9F79",
"v/	c #6A9F6D",
"w/	c #7EB374",
"x/	c #49735A",
"y/	c #20313E",
"z/	c #1A2938",
"A/	c #425F5C",
"B/	c #364E4C",
"C/	c #345346",
"D/	c #5F8664",
"E/	c #679164",
"F/	c #6A9165",
"G/	c #6A9264",
"H/	c #63875F",
"I/	c #5F845B",
"J/	c #81AA71",
"K/	c #94BF79",
"L/	c #82AE6F",
"M/	c #5E8C5C",
"N/	c #75A369",
"O/	c #76A465",
"P/	c #75A366",
"Q/	c #73A164",
"R/	c #73A163",
"S/	c #72A162",
"T/	c #72A060",
"U/	c #74A265",
"V/	c #74A067",
"W/	c #709A68",
"X/	c #739C6A",
"Y/	c #729C68",
"Z/	c #6E9B68",
"`/	c #6B9A68",
" (	c #689564",
".(	c #618B5E",
"+(	c #669062",
"@(	c #668F61",
"#(	c #688F64",
"$(	c #668D63",
"%(	c #648E63",
"&(	c #628D62",
"*(	c #5F8964",
"=(	c #5E8865",
"-(	c #588262",
";(	c #517D62",
">(	c #4D7B5F",
",(	c #4B7D5D",
"'(	c #417260",
")(	c #21474A",
"!(	c #305F5D",
"~(	c #31615B",
"{(	c #2E615B",
"](	c #30625A",
"^(	c #38695F",
"/(	c #0F1F28",
"((	c #212329",
"_(	c #101120",
":(	c #131E28",
"<(	c #3E625D",
"[(	c #4D7F6F",
"}(	c #4F846E",
"|(	c #4F876D",
"1(	c #4F8069",
"2(	c #4F8264",
"3(	c #76A679",
"4(	c #2F4B42",
"5(	c #1A3140",
"6(	c #35524E",
"7(	c #578D72",
"8(	c #4E7D68",
"9(	c #2A4A48",
"0(	c #466858",
"a(	c #618B63",
"b(	c #638A5F",
"c(	c #61895D",
"d(	c #597D56",
"e(	c #598258",
"f(	c #638F5C",
"g(	c #87B473",
"h(	c #7BA96E",
"i(	c #568658",
"j(	c #70A066",
"k(	c #73A364",
"l(	c #72A164",
"m(	c #709E64",
"n(	c #6F9D63",
"o(	c #6F9D62",
"p(	c #6E9B66",
"q(	c #649060",
"r(	c #76A276",
"s(	c #6F9A71",
"t(	c #6A956C",
"u(	c #69986D",
"v(	c #649469",
"w(	c #5F8D65",
"x(	c #5C855F",
"y(	c #5E8861",
"z(	c #638C65",
"A(	c #648B67",
"B(	c #628A64",
"C(	c #5E8A67",
"D(	c #405D49",
"E(	c #33473D",
"F(	c #364B41",
"G(	c #3C5349",
"H(	c #3E5D50",
"I(	c #436C5C",
"J(	c #477861",
"K(	c #3E695F",
"L(	c #1C4146",
"M(	c #2D5C5A",
"N(	c #305E59",
"O(	c #34605D",
"P(	c #2E5A58",
"Q(	c #254B4C",
"R(	c #0D1B29",
"S(	c #191A29",
"T(	c #0F1124",
"U(	c #243D40",
"V(	c #3E6C62",
"W(	c #417667",
"X(	c #427869",
"Y(	c #417468",
"Z(	c #417166",
"`(	c #457767",
" _	c #517764",
"._	c #122131",
"+_	c #254446",
"@_	c #4D7E72",
"#_	c #528A70",
"$_	c #588E70",
"%_	c #3A6058",
"&_	c #3C5C51",
"*_	c #5F8861",
"=_	c #60885E",
"-_	c #5E8759",
";_	c #5E8658",
">_	c #577C54",
",_	c #598457",
"'_	c #538257",
")_	c #4E7E54",
"!_	c #54855B",
"~_	c #5B8D60",
"{_	c #6A9B65",
"]_	c #6E9E65",
"^_	c #6E9C64",
"/_	c #6D9A63",
"(_	c #6B9862",
"__	c #699560",
":_	c #648F5E",
"<_	c #578055",
"[_	c #99C794",
"}_	c #8CB989",
"|_	c #4C7957",
"1_	c #5B8965",
"2_	c #598964",
"3_	c #588763",
"4_	c #52765C",
"5_	c #547A62",
"6_	c #5A8266",
"7_	c #5C8665",
"8_	c #5D8764",
"9_	c #5C8763",
"0_	c #578366",
"a_	c #213536",
"b_	c #303F3B",
"c_	c #404F48",
"d_	c #2D3C35",
"e_	c #151F1E",
"f_	c #11121B",
"g_	c #1B292F",
"h_	c #1A3138",
"i_	c #1E434C",
"j_	c #265555",
"k_	c #265551",
"l_	c #264D4F",
"m_	c #15343F",
"n_	c #0E283B",
"o_	c #0C192B",
"p_	c #151628",
"q_	c #0C1123",
"r_	c #2B4D4D",
"s_	c #36665E",
"t_	c #376C63",
"u_	c #3A6E65",
"v_	c #396A65",
"w_	c #376966",
"x_	c #356765",
"y_	c #1C3640",
"z_	c #101B2E",
"A_	c #437268",
"B_	c #4C8371",
"C_	c #4D836C",
"D_	c #548A6F",
"E_	c #3D635A",
"F_	c #284642",
"G_	c #567D5C",
"H_	c #5B845A",
"I_	c #5A8454",
"J_	c #5C8353",
"K_	c #557B54",
"L_	c #5A855B",
"M_	c #54845C",
"N_	c #4D805B",
"O_	c #558860",
"P_	c #5D8F62",
"Q_	c #609262",
"R_	c #649363",
"S_	c #659263",
"T_	c #649260",
"U_	c #63905E",
"V_	c #638F60",
"W_	c #628E5F",
"X_	c #5F8A5B",
"Y_	c #517B53",
"Z_	c #7BA678",
"`_	c #7CA97C",
" :	c #4F7B5D",
".:	c #538262",
"+:	c #538163",
"@:	c #507E61",
"#:	c #3B5A52",
"$:	c #293B46",
"%:	c #273A44",
"&:	c #30494A",
"*:	c #36544D",
"=:	c #3D5C55",
"-:	c #324F48",
";:	c #324433",
">:	c #BDDC9D",
",:	c #C9E9A4",
"':	c #C5E7A2",
"):	c #B1DA9A",
"!:	c #50644D",
"~:	c #131523",
"{:	c #121B30",
"]:	c #1E3C4B",
"^:	c #285358",
"/:	c #235254",
"(:	c #1C404B",
"_:	c #0E2139",
"::	c #0F2038",
"<:	c #0C182B",
"[:	c #131326",
"}:	c #091222",
"|:	c #2B5251",
"1:	c #2F625D",
"2:	c #326663",
"3:	c #346865",
"4:	c #326664",
"5:	c #316665",
"6:	c #336064",
"7:	c #1D2F40",
"8:	c #1F3438",
"9:	c #47796C",
"0:	c #457C6D",
"a:	c #497D6C",
"b:	c #518570",
"c:	c #3D645B",
"d:	c #1C373C",
"e:	c #496F54",
"f:	c #568156",
"g:	c #578257",
"h:	c #547B5A",
"i:	c #3F6150",
"j:	c #33574D",
"k:	c #46725E",
"l:	c #4B7E5E",
"m:	c #578A63",
"n:	c #5D8D64",
"o:	c #5C8E65",
"p:	c #608F65",
"q:	c #619065",
"r:	c #618E63",
"s:	c #5E8C61",
"t:	c #5D8A60",
"u:	c #5C895F",
"v:	c #59865B",
"w:	c #517F58",
"x:	c #538058",
"y:	c #547F5C",
"z:	c #4F7D5D",
"A:	c #4E7E5F",
"B:	c #4E7D5F",
"C:	c #4A7B5C",
"D:	c #2D4B48",
"E:	c #29383E",
"F:	c #2D4142",
"G:	c #1C2C36",
"H:	c #172531",
"I:	c #16202E",
"J:	c #151727",
"K:	c #394C33",
"L:	c #CBEF9F",
"M:	c #D4F79F",
"N:	c #D1F79F",
"O:	c #CBF69E",
"P:	c #BAE097",
"Q:	c #6D8665",
"R:	c #14212F",
"S:	c #0F1929",
"T:	c #182E3B",
"U:	c #163041",
"V:	c #102236",
"W:	c #0B1D2D",
"X:	c #0A1927",
"Y:	c #0D172A",
"Z:	c #121224",
"`:	c #0B1124",
" <	c #2A5455",
".<	c #2C635D",
"+<	c #2D6161",
"@<	c #306364",
"#<	c #336565",
"$<	c #336564",
"%<	c #326064",
"&<	c #1A2F3F",
"*<	c #294747",
"=<	c #42746C",
"-<	c #41756B",
";<	c #3F7366",
"><	c #4C786A",
",<	c #325450",
"'<	c #192B35",
")<	c #3C6052",
"!<	c #44725A",
"~<	c #376557",
"{<	c #2F5C59",
"]<	c #2A5059",
"^<	c #1D424D",
"/<	c #3F6C5B",
"(<	c #497E5D",
"_<	c #4F8060",
":<	c #4F7C5F",
"<<	c #4B795C",
"[<	c #4F7D5A",
"}<	c #598660",
"|<	c #58845C",
"1<	c #57845C",
"2<	c #56835D",
"3<	c #55825C",
"4<	c #517F5A",
"5<	c #507E5C",
"6<	c #507E5D",
"7<	c #4E7C5D",
"8<	c #4A7B5E",
"9<	c #477B5D",
"0<	c #44745C",
"a<	c #254144",
"b<	c #405E53",
"c<	c #6CA273",
"d<	c #76AF7B",
"e<	c #70A775",
"f<	c #5D8A62",
"g<	c #1B2C2B",
"h<	c #1B2D24",
"i<	c #BBDE94",
"j<	c #D3F99D",
"k<	c #D4F89F",
"l<	c #D1F599",
"m<	c #C9EE94",
"n<	c #ADD78F",
"o<	c #648464",
"p<	c #0F1A23",
"q<	c #0A0E23",
"r<	c #0E1D30",
"s<	c #456956",
"t<	c #497155",
"u<	c #2E4B45",
"v<	c #11192A",
"w<	c #0E0E23",
"x<	c #080F22",
"y<	c #285355",
"z<	c #295F5B",
"A<	c #2B5E5F",
"B<	c #306365",
"C<	c #306765",
"D<	c #2D6562",
"E<	c #2A5D60",
"F<	c #1A3443",
"G<	c #29484D",
"H<	c #366664",
"I<	c #356863",
"J<	c #386B60",
"K<	c #2C4F4C",
"L<	c #182531",
"M<	c #16222F",
"N<	c #192F38",
"O<	c #284F59",
"P<	c #255D61",
"Q<	c #275C61",
"R<	c #26555C",
"S<	c #214C50",
"T<	c #40735B",
"U<	c #4E865F",
"V<	c #548560",
"W<	c #53805D",
"X<	c #51805C",
"Y<	c #578660",
"Z<	c #55865D",
"`<	c #55855E",
" [	c #56855E",
".[	c #56845E",
"+[	c #56825F",
"@[	c #53805C",
"#[	c #517F5D",
"$[	c #48785A",
"%[	c #46775C",
"&[	c #43775C",
"*[	c #3F6F5C",
"=[	c #213B44",
"-[	c #385B50",
";[	c #66A46C",
">[	c #78B873",
",[	c #7BBB73",
"'[	c #75B86F",
")[	c #466C4F",
"![	c #1B2829",
"~[	c #89A76B",
"{[	c #BFE48E",
"][	c #C6EB91",
"^[	c #C6EA8E",
"/[	c #C2E58B",
"([	c #B4DC88",
"_[	c #9CC784",
":[	c #364842",
"<[	c #090B24",
"[[	c #223A37",
"}[	c #558267",
"|[	c #4C7958",
"1[	c #496B61",
"2[	c #0E1320",
"3[	c #0D0D21",
"4[	c #050F23",
"5[	c #234E51",
"6[	c #265656",
"7[	c #20424E",
"8[	c #244655",
"9[	c #285158",
"0[	c #29585D",
"a[	c #29545E",
"b[	c #173448",
"c[	c #22484E",
"d[	c #295F5D",
"e[	c #2F605F",
"f[	c #315B5B",
"g[	c #1A393A",
"h[	c #284236",
"i[	c #2B4733",
"j[	c #1F372F",
"k[	c #224C4D",
"l[	c #285E64",
"m[	c #2B5F65",
"n[	c #244F56",
"o[	c #153039",
"p[	c #3F6A5B",
"q[	c #4F8464",
"r[	c #568763",
"s[	c #57865D",
"t[	c #588760",
"u[	c #56855F",
"v[	c #53825C",
"w[	c #55825E",
"x[	c #568360",
"y[	c #55825F",
"z[	c #527F5C",
"A[	c #517E5B",
"B[	c #527F5E",
"C[	c #4D7C5E",
"D[	c #47765C",
"E[	c #44765D",
"F[	c #42745D",
"G[	c #3F705D",
"H[	c #213F42",
"I[	c #2B4344",
"J[	c #5B8F66",
"K[	c #6FAB70",
"L[	c #73B371",
"M[	c #6DB36A",
"N[	c #598A60",
"O[	c #1D2930",
"P[	c #56714D",
"Q[	c #A2C97C",
"R[	c #A7CF7A",
"S[	c #ADD57F",
"T[	c #AAD27E",
"U[	c #A6CE81",
"V[	c #9BC77F",
"W[	c #59755F",
"X[	c #0B0F20",
"Y[	c #355443",
"Z[	c #588666",
"`[	c #517F5E",
" }	c #507465",
".}	c #11131E",
"+}	c #0C0B21",
"@}	c #060B22",
"#}	c #132933",
"$}	c #11212A",
"%}	c #101C26",
"&}	c #0C1922",
"*}	c #0F1C22",
"=}	c #0F1A22",
"-}	c #0F2031",
";}	c #152D42",
">}	c #254D52",
",}	c #275C5A",
"'}	c #285757",
")}	c #1E3E47",
"!}	c #5E8664",
"~}	c #87BD79",
"{}	c #8AC276",
"]}	c #78A870",
"^}	c #305648",
"/}	c #295C61",
"(}	c #2C5B62",
"_}	c #203C4A",
":}	c #152336",
"<}	c #1B2C33",
"[}	c #243C3A",
"}}	c #395A4C",
"|}	c #548264",
"1}	c #558361",
"2}	c #538160",
"3}	c #52815F",
"4}	c #517E60",
"5}	c #527E62",
"6}	c #507D60",
"7}	c #4D7B5E",
"8}	c #4C7B5E",
"9}	c #4D7A5E",
"0}	c #4A7960",
"a}	c #457660",
"b}	c #44765F",
"c}	c #41725D",
"d}	c #3B735E",
"e}	c #37695E",
"f}	c #0D2028",
"g}	c #44685D",
"h}	c #5E9474",
"i}	c #64A074",
"j}	c #60A26E",
"k}	c #609672",
"l}	c #1F3534",
"m}	c #192C29",
"n}	c #7FA372",
"o}	c #93BF7A",
"p}	c #91BB77",
"q}	c #8CB572",
"r}	c #87B576",
"s}	c #668C70",
"t}	c #122528",
"u}	c #456A54",
"v}	c #598764",
"w}	c #528062",
"x}	c #4B7263",
"y}	c #10141D",
"z}	c #090D23",
"A}	c #142124",
"B}	c #607958",
"C}	c #90B084",
"D}	c #8DAE7A",
"E}	c #9EC389",
"F}	c #9ABC83",
"G}	c #769A6B",
"H}	c #192A27",
"I}	c #15272F",
"J}	c #22434F",
"K}	c #16313C",
"L}	c #203C3C",
"M}	c #91C28C",
"N}	c #93C975",
"O}	c #8FC56D",
"P}	c #89BB79",
"Q}	c #49715C",
"R}	c #254F57",
"S}	c #1C3746",
"T}	c #1B3844",
"U}	c #2C5751",
"V}	c #2A544B",
"W}	c #284945",
"X}	c #2F4F46",
"Y}	c #4C7C60",
"Z}	c #4E7D5E",
"`}	c #4C7A5F",
" |	c #4B795F",
".|	c #4A775E",
"+|	c #48765C",
"@|	c #457259",
"#|	c #44715A",
"$|	c #45725B",
"%|	c #44745E",
"&|	c #407260",
"*|	c #3F725E",
"=|	c #3C6E5E",
"-|	c #345B54",
";|	c #33544F",
">|	c #0E1623",
",|	c #121B2A",
"'|	c #233F42",
")|	c #345C54",
"!|	c #3B6659",
"~|	c #3B675C",
"{|	c #213D41",
"]|	c #1E333F",
"^|	c #2E5042",
"/|	c #67956D",
"(|	c #72A570",
"_|	c #72A46D",
":|	c #75A06B",
"<|	c #6D9A6C",
"[|	c #5A8369",
"}|	c #213D3B",
"||	c #49725C",
"1|	c #588567",
"2|	c #4B7A65",
"3|	c #366258",
"4|	c #0F1720",
"5|	c #06132F",
"6|	c #1B2C35",
"7|	c #8BA87B",
"8|	c #C5E49D",
"9|	c #C2E597",
"0|	c #C5EA95",
"a|	c #BEE58C",
"b|	c #BEE68C",
"c|	c #B2DF8A",
"d|	c #5D8458",
"e|	c #172324",
"f|	c #131E2E",
"g|	c #365248",
"h|	c #7AAA83",
"i|	c #99CD8A",
"j|	c #92C775",
"k|	c #90C276",
"l|	c #75A470",
"m|	c #406756",
"n|	c #183341",
"o|	c #172F40",
"p|	c #33605D",
"q|	c #3A7362",
"r|	c #38725E",
"s|	c #376E5F",
"t|	c #386859",
"u|	c #3E7459",
"v|	c #46795E",
"w|	c #4D7C5F",
"x|	c #46785E",
"y|	c #46755D",
"z|	c #43725A",
"A|	c #417058",
"B|	c #406D56",
"C|	c #3D6957",
"D|	c #3E6A59",
"E|	c #3B6A5A",
"F|	c #396A5C",
"G|	c #36695A",
"H|	c #2F5653",
"I|	c #0B0F28",
"J|	c #0E0B24",
"K|	c #0A0C1E",
"L|	c #0D111C",
"M|	c #151E1E",
"N|	c #131E20",
"O|	c #121C2B",
"P|	c #162432",
"Q|	c #102331",
"R|	c #193241",
"S|	c #204347",
"T|	c #31594D",
"U|	c #5E8C68",
"V|	c #609364",
"W|	c #5D8D61",
"X|	c #598666",
"Y|	c #456E5E",
"Z|	c #224142",
"`|	c #386258",
" 1	c #427063",
".1	c #396E64",
"+1	c #34615F",
"@1	c #101923",
"#1	c #06112C",
"$1	c #487765",
"%1	c #8CB980",
"&1	c #AFD88E",
"*1	c #B7E092",
"=1	c #BBE491",
"-1	c #BBE591",
";1	c #C5EE98",
">1	c #C6E98F",
",1	c #8FB779",
"'1	c #16252C",
")1	c #101527",
"!1	c #47614A",
"~1	c #94C683",
"{1	c #93C576",
"]1	c #88BA6F",
"^1	c #81AF74",
"/1	c #68946D",
"(1	c #466B5D",
"_1	c #192C3E",
":1	c #2A4E55",
"<1	c #3A7867",
"[1	c #38735F",
"}1	c #38725D",
"|1	c #36705F",
"11	c #356759",
"21	c #3C6E58",
"31	c #386153",
"41	c #396155",
"51	c #417761",
"61	c #45735D",
"71	c #41705A",
"81	c #3E6E59",
"91	c #3F6D59",
"01	c #3D6B5A",
"a1	c #3A6759",
"b1	c #396759",
"c1	c #37675A",
"d1	c #32645A",
"e1	c #203B45",
"f1	c #141A34",
"g1	c #556C5D",
"h1	c #89AE82",
"i1	c #90B97E",
"j1	c #95C17E",
"k1	c #8FBC7A",
"l1	c #82AC73",
"m1	c #466446",
"n1	c #15262E",
"o1	c #192234",
"p1	c #142135",
"q1	c #182C3B",
"r1	c #36574C",
"s1	c #4D795E",
"t1	c #507C60",
"u1	c #497461",
"v1	c #355F59",
"w1	c #23474D",
"x1	c #33625F",
"y1	c #376A60",
"z1	c #336D5F",
"A1	c #315F5D",
"B1	c #0F1824",
"C1	c #051231",
"D1	c #457F6D",
"E1	c #508F72",
"F1	c #57926F",
"G1	c #579268",
"H1	c #5E9869",
"I1	c #669F6B",
"J1	c #70A86E",
"K1	c #88B878",
"L1	c #7BA578",
"M1	c #1B2F3B",
"N1	c #213B39",
"O1	c #5F8A69",
"P1	c #85BC79",
"Q1	c #81B673",
"R1	c #7BAC72",
"S1	c #669169",
"T1	c #5A836A",
"U1	c #4A7065",
"V1	c #122F3B",
"W1	c #34605F",
"X1	c #3B7566",
"Y1	c #3C7564",
"Z1	c #3C7464",
"`1	c #346A5C",
" 2	c #214F4B",
".2	c #274B47",
"+2	c #0F1E2E",
"@2	c #111B2E",
"#2	c #122932",
"$2	c #2C4E4B",
"%2	c #3C6159",
"&2	c #3E6E5D",
"*2	c #3B6F5A",
"=2	c #3E6C59",
"-2	c #3B6959",
";2	c #396757",
">2	c #376558",
",2	c #356258",
"'2	c #2F5A59",
")2	c #0E1D2F",
"!2	c #152332",
"~2	c #8BB28D",
"{2	c #A1CE86",
"]2	c #A3D183",
"^2	c #9FCF7B",
"/2	c #9ECE79",
"(2	c #9DCD79",
"_2	c #91C97A",
":2	c #669765",
"<2	c #192A2E",
"[2	c #101529",
"}2	c #141A2D",
"|2	c #141E31",
"12	c #162636",
"22	c #1F313A",
"32	c #1D353B",
"42	c #1B3A45",
"52	c #234451",
"62	c #346460",
"72	c #356560",
"82	c #2D665E",
"92	c #2B5B59",
"02	c #0E1723",
"a2	c #051135",
"b2	c #447B70",
"c2	c #447D69",
"d2	c #4A8469",
"e2	c #4C8768",
"f2	c #4C866A",
"g2	c #4E8B68",
"h2	c #4E8E69",
"i2	c #4C8166",
"j2	c #1A3136",
"k2	c #4D7A66",
"l2	c #70AA77",
"m2	c #75AB72",
"n2	c #6FA172",
"o2	c #567E60",
"p2	c #557E68",
"q2	c #517D69",
"r2	c #487066",
"s2	c #1A3C44",
"t2	c #2F665E",
"u2	c #316A60",
"v2	c #346462",
"w2	c #2C5B5B",
"x2	c #274C51",
"y2	c #152B3C",
"z2	c #091C28",
"A2	c #466A65",
"B2	c #376159",
"C2	c #183737",
"D2	c #0D202E",
"E2	c #163038",
"F2	c #3D6E5B",
"G2	c #3F6D5B",
"H2	c #3A6856",
"I2	c #396658",
"J2	c #325E5A",
"K2	c #295257",
"L2	c #1E3B46",
"M2	c #070F24",
"N2	c #081225",
"O2	c #78A387",
"P2	c #A0CF8A",
"Q2	c #A0CF81",
"R2	c #9CCC79",
"S2	c #9ECE7A",
"T2	c #9DD178",
"U2	c #9AD37D",
"V2	c #547956",
"W2	c #101528",
"X2	c #0D1426",
"Y2	c #152033",
"Z2	c #172833",
"`2	c #3C5344",
" 3	c #48664B",
".3	c #324D3F",
"+3	c #132E37",
"@3	c #2E5F5A",
"#3	c #265F58",
"$3	c #235252",
"%3	c #0B1422",
"&3	c #081135",
"*3	c #192C3B",
"=3	c #325B61",
"-3	c #326566",
";3	c #386D68",
">3	c #367265",
",3	c #377365",
"'3	c #377463",
")3	c #387661",
"!3	c #376D60",
"~3	c #152E35",
"{3	c #55836D",
"]3	c #6EA472",
"^3	c #6CA079",
"/3	c #53816C",
"(3	c #446C62",
"_3	c #51796C",
":3	c #4E7A6A",
"<3	c #436B65",
"[3	c #1F434B",
"}3	c #27605E",
"|3	c #28605E",
"13	c #244D57",
"23	c #13303F",
"33	c #122137",
"43	c #122336",
"53	c #284E47",
"63	c #5A9C75",
"73	c #52976F",
"83	c #41886D",
"93	c #1D4C4A",
"03	c #071C2D",
"a3	c #2B5753",
"b3	c #396E5D",
"c3	c #3C6C5A",
"d3	c #366355",
"e3	c #2F5B56",
"f3	c #285554",
"g3	c #265255",
"h3	c #22404C",
"i3	c #061027",
"j3	c #081125",
"k3	c #40635D",
"l3	c #649673",
"m3	c #71A875",
"n3	c #7CB276",
"o3	c #86B97B",
"p3	c #91C37D",
"q3	c #92C77B",
"r3	c #5E9462",
"s3	c #14212C",
"t3	c #0F152B",
"u3	c #3B5647",
"v3	c #74A171",
"w3	c #80B374",
"x3	c #75AA68",
"y3	c #619A65",
"z3	c #1E4132",
"A3	c #19383E",
"B3	c #27585B",
"C3	c #215556",
"D3	c #133538",
"E3	c #0C101F",
"F3	c #717874",
"G3	c #070A18",
"H3	c #071422",
"I3	c #112736",
"J3	c #213D4B",
"K3	c #254755",
"L3	c #264955",
"M3	c #234652",
"N3	c #23404F",
"O3	c #1D3846",
"P3	c #18333D",
"Q3	c #446D64",
"R3	c #517F65",
"S3	c #4B7463",
"T3	c #375F58",
"U3	c #436C65",
"V3	c #4D776B",
"W3	c #497666",
"X3	c #3E6863",
"Y3	c #21464E",
"Z3	c #24585F",
"`3	c #214D55",
" 4	c #173343",
".4	c #0F1D32",
"+4	c #0A1129",
"@4	c #264747",
"#4	c #4E8A74",
"$4	c #5A9F74",
"%4	c #549A6E",
"&4	c #4E9475",
"*4	c #447F70",
"=4	c #102D3F",
"-4	c #0B2431",
";4	c #2F5957",
">4	c #2E5A57",
",4	c #244F50",
"'4	c #224D55",
")4	c #234F57",
"!4	c #245258",
"~4	c #254B54",
"{4	c #09192F",
"]4	c #09112B",
"^4	c #102633",
"/4	c #295A58",
"(4	c #347869",
"_4	c #377D67",
":4	c #3B7D66",
"<4	c #407C63",
"[4	c #478064",
"}4	c #538C65",
"|4	c #528D6A",
"14	c #1F3A39",
"24	c #0C1926",
"34	c #6C9572",
"44	c #7BAE74",
"54	c #7CB36C",
"64	c #77AE67",
"74	c #69A564",
"84	c #4A7E61",
"94	c #0D2030",
"04	c #102E3E",
"a4	c #0E2333",
"b4	c #0A0B1C",
"c4	c #0C0C1D",
"d4	c #4B5049",
"e4	c #070A1F",
"f4	c #070A1A",
"g4	c #080B19",
"h4	c #091225",
"i4	c #101F34",
"j4	c #142438",
"k4	c #142539",
"l4	c #16273E",
"m4	c #1B3341",
"n4	c #294F51",
"o4	c #2F5856",
"p4	c #2E5954",
"q4	c #2F5854",
"r4	c #335C58",
"s4	c #3B655F",
"t4	c #477367",
"u4	c #457265",
"v4	c #3A6661",
"w4	c #20494E",
"x4	c #1B3E4C",
"y4	c #0E273A",
"z4	c #102B3E",
"A4	c #153445",
"B4	c #0C1F33",
"C4	c #274D49",
"D4	c #45876E",
"E4	c #4E916F",
"F4	c #539672",
"G4	c #509271",
"H4	c #4C8E74",
"I4	c #2F5E63",
"J4	c #091B39",
"K4	c #03142B",
"L4	c #1C404F",
"M4	c #225556",
"N4	c #225156",
"O4	c #214F55",
"P4	c #225157",
"Q4	c #245058",
"R4	c #11293B",
"S4	c #0E1530",
"T4	c #0D1328",
"U4	c #112A33",
"V4	c #27605F",
"W4	c #297066",
"X4	c #2D7465",
"Y4	c #317465",
"Z4	c #347665",
"`4	c #2F6E61",
" 5	c #2D6158",
".5	c #1D393E",
"+5	c #263936",
"@5	c #73A370",
"#5	c #73A86C",
"$5	c #79AE6D",
"%5	c #71A665",
"&5	c #67A363",
"*5	c #457C5E",
"=5	c #102239",
"-5	c #0D1833",
";5	c #0D0C2A",
">5	c #0D0A1E",
",5	c #111628",
"'5	c #0D0C25",
")5	c #070F20",
"!5	c #142C31",
"~5	c #2A4C4A",
"{5	c #345E54",
"]5	c #386455",
"^5	c #284E4A",
"/5	c #1E4148",
"(5	c #2A5457",
"_5	c #2C5957",
":5	c #2C5956",
"<5	c #2D5956",
"[5	c #305B58",
"}5	c #315F5A",
"|5	c #34615B",
"15	c #36635D",
"25	c #39655F",
"35	c #34635F",
"45	c #2E5E5D",
"55	c #20434D",
"65	c #0D2037",
"75	c #194351",
"85	c #1A515C",
"95	c #1A4354",
"05	c #133240",
"a5	c #2D6263",
"b5	c #276460",
"c5	c #347267",
"d5	c #43806E",
"e5	c #458272",
"f5	c #306469",
"g5	c #0A203C",
"h5	c #05102A",
"i5	c #204752",
"j5	c #225459",
"k5	c #1F5256",
"l5	c #1F5156",
"m5	c #215258",
"n5	c #1E5157",
"o5	c #1A414A",
"p5	c #1A3B43",
"q5	c #0D1F2D",
"r5	c #091023",
"s5	c #122D37",
"t5	c #235756",
"u5	c #2C6962",
"v5	c #2D6F65",
"w5	c #2C7063",
"x5	c #286560",
"y5	c #214850",
"z5	c #172F3D",
"A5	c #273B3C",
"B5	c #679370",
"C5	c #669B69",
"D5	c #6DA16D",
"E5	c #689D69",
"F5	c #5A936A",
"G5	c #224944",
"H5	c #172C40",
"I5	c #2C4A5B",
"J5	c #193243",
"K5	c #081323",
"L5	c #0D0C1D",
"M5	c #090D20",
"N5	c #0B0F25",
"O5	c #1B363E",
"P5	c #31605B",
"Q5	c #396F5D",
"R5	c #40765C",
"S5	c #40765E",
"T5	c #3B725D",
"U5	c #275552",
"V5	c #2C5A55",
"W5	c #2C5A56",
"X5	c #2E5957",
"Y5	c #2E5C58",
"Z5	c #305E5A",
"`5	c #2E5B5A",
" 6	c #2F5E5A",
".6	c #183845",
"+6	c #0D253A",
"@6	c #1C505B",
"#6	c #195661",
"$6	c #1B535D",
"%6	c #0B283A",
"&6	c #1F4656",
"*6	c #245A65",
"=6	c #266065",
"-6	c #296168",
";6	c #2E666A",
">6	c #295B69",
",6	c #0F2741",
"'6	c #041423",
")6	c #1F4A51",
"!6	c #23545B",
"~6	c #205459",
"{6	c #1F5557",
"]6	c #205558",
"^6	c #1E5256",
"/6	c #23595B",
"(6	c #225C59",
"_6	c #1C454A",
":6	c #0B1728",
"<6	c #081526",
"[6	c #051925",
"}6	c #17383B",
"|6	c #204D4C",
"16	c #215452",
"26	c #1E4C51",
"36	c #1A3B46",
"46	c #17303E",
"56	c #18303C",
"66	c #41695F",
"76	c #548768",
"86	c #548C66",
"96	c #568C69",
"06	c #30554A",
"a6	c #0E2039",
"b6	c #2C505D",
"c6	c #2C5F65",
"d6	c #2C6165",
"e6	c #20414A",
"f6	c #0B0D1E",
"g6	c #08091C",
"h6	c #061022",
"i6	c #294E52",
"j6	c #31645D",
"k6	c #396B60",
"l6	c #37695B",
"m6	c #3A6C60",
"n6	c #35665D",
"o6	c #2A5857",
"p6	c #2A5858",
"q6	c #295958",
"r6	c #2A5958",
"s6	c #2B5858",
"t6	c #2C5857",
"u6	c #2C5554",
"v6	c #2D5957",
"w6	c #2A5957",
"x6	c #2D5A59",
"y6	c #275458",
"z6	c #143149",
"A6	c #225760",
"B6	c #1A5561",
"C6	c #1A5362",
"D6	c #1A4457",
"E6	c #0B233B",
"F6	c #204457",
"G6	c #265968",
"H6	c #245A68",
"I6	c #265D6A",
"J6	c #205466",
"K6	c #13344F",
"L6	c #031228",
"M6	c #1D4850",
"N6	c #22565B",
"O6	c #21565B",
"P6	c #21575B",
"Q6	c #1E4F56",
"R6	c #1B4A52",
"S6	c #23585E",
"T6	c #1F575B",
"U6	c #205259",
"V6	c #153846",
"W6	c #163648",
"X6	c #102D40",
"Y6	c #0D273A",
"Z6	c #0E2C3B",
"`6	c #1D4650",
" 7	c #1D4B51",
".7	c #1F4A52",
"+7	c #183C46",
"@7	c #1A3E48",
"#7	c #224C4E",
"$7	c #38685E",
"%7	c #366358",
"&7	c #2F4E50",
"*7	c #0A1A33",
"=7	c #1E4056",
"-7	c #265362",
";7	c #2D6066",
">7	c #2E6867",
",7	c #27555B",
"'7	c #070E22",
")7	c #08081C",
"!7	c #040F20",
"~7	c #2C5557",
"{7	c #31615F",
"]7	c #27565A",
"^7	c #27565D",
"/7	c #225052",
"(7	c #285657",
"_7	c #29575A",
":7	c #29585B",
"<7	c #285759",
"[7	c #28595A",
"}7	c #264F54",
"|7	c #18333C",
"17	c #285055",
"27	c #285459",
"37	c #1E4756",
"47	c #122F48",
"57	c #112E40",
"67	c #205560",
"77	c #1A5563",
"87	c #195765",
"97	c #175361",
"07	c #102F45",
"a7	c #071A33",
"b7	c #244F61",
"c7	c #245867",
"d7	c #205462",
"e7	c #215464",
"f7	c #1A425A",
"g7	c #03102C",
"h7	c #1B3D49",
"i7	c #225559",
"j7	c #23585D",
"k7	c #21575C",
"l7	c #21545B",
"m7	c #245860",
"n7	c #20555E",
"o7	c #1F525E",
"p7	c #1E5461",
"q7	c #1A4F5E",
"r7	c #184C5D",
"s7	c #134358",
"t7	c #133F55",
"u7	c #0F3C50",
"v7	c #1C4F56",
"w7	c #1D565B",
"x7	c #1F585D",
"y7	c #205258",
"z7	c #1D5055",
"A7	c #1F5056",
"B7	c #1E4B52",
"C7	c #1A3C49",
"D7	c #081028",
"E7	c #1A2C43",
"F7	c #204D60",
"G7	c #265463",
"H7	c #2C6067",
"I7	c #2B6567",
"J7	c #295860",
"K7	c #060E23",
"L7	c #080520",
"M7	c #040F23",
"N7	c #2C585B",
"O7	c #2D5E62",
"P7	c #2B5D61",
"Q7	c #275A60",
"R7	c #285860",
"S7	c #26525B",
"T7	c #244B53",
"U7	c #265458",
"V7	c #26585B",
"W7	c #27595D",
"X7	c #28585C",
"Y7	c #254E57",
"Z7	c #1C2D3D",
"`7	c #23424C",
" 8	c #235258",
".8	c #23515C",
"+8	c #1A4357",
"@8	c #112D49",
"#8	c #103145",
"$8	c #1E5463",
"%8	c #1B5665",
"&8	c #155664",
"*8	c #165363",
"=8	c #09273E",
"-8	c #0E1B34",
";8	c #274B61",
">8	c #205263",
",8	c #1D5162",
"'8	c #1F5365",
")8	c #17435C",
"!8	c #040E2B",
"~8	c #0E2231",
"{8	c #265159",
"]8	c #24585E",
"^8	c #24575F",
"/8	c #22565E",
"(8	c #24535E",
"_8	c #1F535E",
":8	c #1E5361",
"<8	c #1D5263",
"[8	c #1A5765",
"}8	c #1B5967",
"|8	c #155362",
"18	c #134962",
"28	c #0F3E54",
"38	c #1A4F57",
"48	c #1D595E",
"58	c #1E575D",
"68	c #21535B",
"78	c #1D5058",
"88	c #1A4D55",
"98	c #1F4455",
"08	c #060A23",
"a8	c #13273C",
"b8	c #215465",
"c8	c #225A64",
"d8	c #296066",
"e8	c #296366",
"f8	c #2A5B63",
"g8	c #051024",
"h8	c #090521",
"i8	c #040827",
"j8	c #2A4F57",
"k8	c #2E6066",
"l8	c #2E5E65",
"m8	c #2A5D63",
"n8	c #265961",
"o8	c #254B56",
"p8	c #0E2531",
"q8	c #24434C",
"r8	c #25565A",
"s8	c #2E6063",
"t8	c #2F6164",
"u8	c #275B5E",
"v8	c #234952",
"w8	c #091124",
"x8	c #1A2E3B",
"y8	c #254F58",
"z8	c #22505C",
"A8	c #174053",
"B8	c #132841",
"C8	c #0E2337",
"D8	c #1E5061",
"E8	c #195666",
"F8	c #185564",
"G8	c #1A5263",
"H8	c #082239",
"I8	c #020821",
"J8	c #153347",
"K8	c #215364",
"L8	c #235767",
"M8	c #1F5364",
"N8	c #1B4359",
"O8	c #020622",
"P8	c #081929",
"Q8	c #1F4851",
"R8	c #285B63",
"S8	c #245B63",
"T8	c #215962",
"U8	c #20505C",
"V8	c #1F4F61",
"W8	c #1B5362",
"X8	c #1B5C68",
"Y8	c #1C5E6A",
"Z8	c #1A5D68",
"`8	c #165467",
" 9	c #113B4F",
".9	c #1D4B56",
"+9	c #205961",
"@9	c #245C62",
"#9	c #296167",
"$9	c #245E63",
"%9	c #225B60",
"&9	c #21575F",
"*9	c #163245",
"=9	c #05031E",
"-9	c #0A1029",
";9	c #295667",
">9	c #2C636B",
",9	c #2E676D",
"'9	c #2E666B",
")9	c #284D58",
"!9	c #0A0924",
"~9	c #A19EA0",
"{9	c #0B0622",
"]9	c #0D192F",
"^9	c #1A3246",
"/9	c #1F3949",
"(9	c #193342",
"_9	c #142A3B",
":9	c #101B30",
"<9	c #0A0921",
"[9	c #0F1D2C",
"}9	c #36646C",
"|9	c #36656D",
"19	c #24575C",
"29	c #1C3D48",
"39	c #09071C",
"49	c #0A1020",
"59	c #203A46",
"69	c #112E3D",
"79	c #04091B",
"89	c #050517",
"99	c #0F3043",
"09	c #134154",
"a9	c #0F364B",
"b9	c #030F2A",
"c9	c #06041B",
"d9	c #091F2F",
"e9	c #1E4658",
"f9	c #224B5E",
"g9	c #1D4457",
"h9	c #102C40",
"i9	c #05041A",
"j9	c #08111F",
"k9	c #16353D",
"l9	c #1D424C",
"m9	c #234753",
"n9	c #214752",
"o9	c #1D434F",
"p9	c #102939",
"q9	c #0C2337",
"r9	c #0E2C3F",
"s9	c #143849",
"t9	c #163B4C",
"u9	c #153B4A",
"v9	c #0F3445",
"w9	c #081C30",
"x9	c #0C2032",
"y9	c #133241",
"z9	c #1F4855",
"A9	c #275862",
"B9	c #255B65",
"C9	c #255863",
"D9	c #204B59",
"E9	c #051026",
"F9	c #05031C",
"G9	c #080422",
"H9	c #13293C",
"I9	c #244A56",
"J9	c #295060",
"K9	c #274B5A",
"L9	c #081325",
"M9	c #4C4C51",
"N9	c #F1EFE1",
"O9	c #6D6A6A",
"P9	c #37373B",
"Q9	c #0A0A25",
"R9	c #090926",
"S9	c #090923",
"T9	c #0A0923",
"U9	c #070620",
"V9	c #08061A",
"W9	c #0A061A",
"X9	c #0A1226",
"Y9	c #0E1A30",
"Z9	c #0F1B32",
"`9	c #0B182E",
" 0	c #0C1029",
".0	c #0A0516",
"+0	c #070416",
"@0	c #060618",
"#0	c #060516",
"$0	c #070517",
"%0	c #070417",
"&0	c #06051A",
"*0	c #050822",
"=0	c #040A23",
"-0	c #060720",
";0	c #06041C",
">0	c #080617",
",0	c #060718",
"'0	c #050819",
")0	c #05081C",
"!0	c #04041A",
"~0	c #050314",
"{0	c #070513",
"]0	c #070615",
"^0	c #07071A",
"/0	c #07061C",
"(0	c #07081C",
"_0	c #0B041A",
":0	c #09051A",
"<0	c #09051B",
"[0	c #09061D",
"}0	c #09071E",
"|0	c #09061E",
"10	c #08061C",
"20	c #08061B",
"30	c #08051F",
"40	c #07081F",
"50	c #090D22",
"60	c #081126",
"70	c #07071E",
"80	c #080213",
"90	c #080318",
"00	c #09031F",
"a0	c #080420",
"b0	c #06041F",
"c0	c #04021E",
"d0	c #050219",
"e0	c #585656",
"f0	c #A9A8A3",
"g0	c #F1EFD4",
"h0	c #F4F0E0",
"i0	c #9C9890",
"j0	c #100B10",
"k0	c #1F1C1B",
"l0	c #2D2A28",
"m0	c #3B3836",
"n0	c #44413F",
"o0	c #504C4B",
"p0	c #3D373A",
"q0	c #050210",
"r0	c #060113",
"s0	c #060216",
"t0	c #030116",
"u0	c #090015",
"v0	c #09010F",
"w0	c #09010E",
"x0	c #09030D",
"y0	c #110912",
"z0	c #181218",
"A0	c #302B2D",
"B0	c #4B4647",
"C0	c #211C1F",
"D0	c #1B141B",
"E0	c #140F18",
"F0	c #171218",
"G0	c #1D191C",
"H0	c #282325",
"I0	c #0A040B",
"J0	c #050008",
"K0	c #030007",
"L0	c #050009",
"M0	c #08010E",
"N0	c #0A030F",
"O0	c #0E0711",
"P0	c #0E0913",
"Q0	c #0E0813",
"R0	c #100815",
"S0	c #110714",
"T0	c #110613",
"U0	c #100412",
"V0	c #0C010F",
"W0	c #0E0211",
"X0	c #0B0110",
"Y0	c #07000F",
"Z0	c #070010",
"`0	c #06000E",
" a	c #05000E",
".a	c #040012",
"+a	c #00000D",
"@a	c #03000B",
"#a	c #06000C",
"$a	c #07000B",
"%a	c #060008",
"&a	c #4D4846",
"*a	c #454041",
"=a	c #3C373B",
"-a	c #29242A",
";a	c #150C18",
">a	c #080013",
",a	c #1E1A1E",
"'a	c #D6D2C8",
")a	c #E6E2CF",
"  . + @ # $ % & * = - ; > , ' ) ! ~ { ] ^ / ( _ : < [ } | 1 2 3 4 5 6 7 8 9 0 a b c d e f g h i j k l m n o p q r s t u v w x y ",
"z A B C D E F G H I J K L M N O P Q R S T U V W X Y Z `  ...+.@.#.$.%.&.*.=.-.;.>.,.'.).!.~.{.].^./.(._.:.<.[.}.|.1.2.3.4.5.6.7.",
"8.9.0.a.b.c.d.e.f.g.h.i.j.k.l.m.n.o.p.q.r.s.t.u.v.w.x.y.z.A.B.C.D.E.F.G.H.I.J.K.L.M.N.O.P.Q.R.S.T.U.V.W.X.Y.Z.`. +.+++@+#+$+%+&+",
"*+=+-+;+>+,+'+)+!+~+{+]+^+/+(+_+:+<+[+}+|+1+2+3+4+5+6+7+8+9+0+a+b+c+c+d+e+f+g+h+i+j+k+l+m+n+o+p+q+r+s+t+u+v+w+x+y+z+A+B+C+D+E+F+",
"G+H+I+J+K+L+M+N+O+P+Q+R+S+T+U+V+W+X+Y+}+Z+`+ @.@+@@@#@$@%@&@*@=@-@;@>@,@'@)@h+!@~@{@]@^@/@(@_@:@<@[@}@|@1@2@3@4@5@6@7@8@9@0@a@b@",
"c@d@e@f@g@h@i@j@k@l@m@n@o@p@q@r@s@t@q@u@Z+v@w@x@y@z@A@B@C@D@E@F@G@H@I@J@K@L@M@N@O@P@Q@R@S@T@U@V@W@X@Y@Z@`@ #.#+#@###$#%#&#*#=#-#",
";#>#,#'#)#!#~#{#]#^#/#(#_#:#<#[#}#|#1#2#3#4#5#6#7#8#9#0#a#b#b#c#d#e#f#g#h#i#j#k#l#m#n#o#p#q#r#s#t#u#v#w#x#y#z#A#B#C#D#E#F#G#H#I#",
"J#K#L#M#N#O#P#Q#R#R#S#T#U#V#W#X#Y#`+Z#Z#`# $.$+$@$#$$$%$&$b#*$=$-$;$>$,$'$)$!$~${$]$^$/$($_$:$<$[$}$|$1$2$3$4$5$6$7$8$9$0$a$b$c$",
"d$e$f$g$h$i$j$k$l$m$n$o$p$q$r$s$t$u$v$3#w$x$y$z$A$B$C$D$E$F$-$G$H$I$k#J$K$L$M$N$O$P$Q$R$S$T$U$V$W$X$Y$Z$`$ %.%+%@%#%$%%%&%*%=%-%",
";%>%,%'%)%!%~%{%]%^%/%(%_%:%<%[%}%|%1%2%3%4%5%6%7%8%4%9%0%a%b%c%d%e%f%g%h%i%j%k%l%m%n%o%p%q%r%s%t%u%v%w%x%y%z%A%B%C%D%E%F%G%H%I%",
"J%K%L%M%N%O%P%Q%R%S%T%U%V%W%X%Y%Z%`% &.&+&@&#&$&%&&&*&=&-&;&>&,&'&)&!&~&{&]&^&/&(&_&:&<&[&[&}&|&1&2&3&4&5&6&7&8&9&0&a&b&c&d&e&f&",
"g&h&i&j&k&l&m&n&o&p&q&r&s&t&u&v&w&x&y&z&A&B&C&D&E&F&G&H&I&J&K&L&M&N&O&P&Q&R&S&T&U&V&W&X&Y&Z&`& *.*+*@*#*$*%*&***=*-*;*>*,*'*)*!*",
"~*{*]*^*/*(*_*:*<*[*}*|*z$1*{&2*3*4*<*<*5*6*7*8*8*9*0*a*I&b*c*d*e*f*f*P&g*h*i*j*k*l*m*n*o*Y&p*q*r*s*t*u*v*w*G&9*x*y*z*A*B*C*D*E*",
"F*G*H*I*J*K*L*M*N*O*P*Q*R*D&E&S*T*5*<*U*U*V*W*X*Y*Z*`*G& =.=+=@=H&a*a*#=$=%=&=*=====*=-=%=;=X$>=,=;='=)=!=w*~=Y*{=]=^=/=(=_=:=<=",
"[=}=|=1=2=K*3=4=5=6=7=8=9=o*0=a=b=c=d=e=e=f=g=h=Y*i=~=~=j=k=#=j=l=a*a*l=m=n=o=======*=-=o*p=X$q=,=,=r=s=&=~=~=t===u=v=w=x=y=z=A=",
"B=C=D=E=F=G=H=I=9*J=K=L=M=N=n*O=P=Q=R={=S=T=U=V=W=W=A#X=X=Y=z&v&Z=`= -.-+-==@-#-#-$-$-%-&-*-=---;->-,-'-)-!-v=@-~-{-]-^-/-(-_-:-",
"<-[-}-|-x=1-n*2-x*3-4-5-6-7-8-9-0-a-.&b-c-d-e-*=f-g-u=h-o=i-j-k-l-m-n-o-t=u=p-q-r-s-t-E=u-v-w-x-y-z-A-B-C-D-E-F-G-H-I-J-K-L-M-N-",
"O-P-Q-R-S-T-U-V-W-X-Y-Z-`-N= ;.;+;@;#;$;%;&;*;r-r-=;-;;;>;,;';);!;~;{;];^;u=$-r-v=/;(;_;:;<;[;};|;1;2;3;4;5;6;H-7;8;9;0;a;b;c;d;",
"e;f;g;h;i;j;k;l;m;n;o;p;q;r;s;t;u;v;w;x;y;z;&;A;B;B;C;;;D;E;F;G;H;X=I;J;K;o;s-L;M;^-^-N;O;P;Q;R;S;T;U;V;W;X;Y;Z;^-`; >.>+>@>#>$>",
"%>&>*>=>->;>>>,>'>)>A;!>~>{>]>^>/>(>_>{>:><>[>}>}>|>1>2>3>4>5>6>H;7>f-W=8>9>0>a>b>c>d>e>f>g>h>i>j>k>l>m>n>o>p>q>r>s>t>u>v>w>x>y>",
"z>A>B>C>D>E>E>*;F>F>G>H>I>d>J>K>L>M>M>N>O>P>Q>R>S>!-T>U>V>W>W>X>;-Y>7>A#u=Z>`> ,.,+,@,z;q;#,$,]=%,&,*,=,-,;,>,,,',),!,~,{,],^,Z.",
"/,(,_,:,<,[,},|,1,2,3,4,4,5,x;6,7,8,N>N>9,0,a,R>R>b,,-4>c,d,=;e,e,f,7>g,h,S-i,j,k,l,,,m,n,n,o,p,q,[>r,s,t,u,v,v,w,x,y,z,A,B,C,D,",
"E,F,G,H,I,J,K,L,M,}>N,5,O,d>P,Q,Q,R,S,S,T,U,V,W,W,1>0>d,$-X,X,X,X,X,Y,Z,`, '.'+'@'#'$'%'&'*'='{>-';'>',''')'!'~'{']'|-|-^'/'('_'",
":'<'['}'|'1'2'K,3'4'5'E=d>d>6'7-Q,7'Q,8'9'0'a'b'c'|>0>W>d,X,Z,d'e'd'Z,f'g'h'i'j'k'l'm'n'o'p'q'r'-'s't'u'v'w'w'x'y'z'A'B'C'D'E'F'",
"G'H'I'J'K'L'2'M'N'w=O'P'P'Q'R'S'T'U'7'V'W'X'Y'c-M,Z'1>a>L;`' ).)+)@)#)$)%)&)*)=)-);)>),)')))!)~){)v,])^)/)()()_):)<)[)C'})|)1)2)",
"3)4)5)6)7)8)1'B'<)y'9)0)9)a)b)c)d)d)e)f)g)h);,i)j)`>k)l)m)n)o)p)q)r)s)t)u)v)w)x)$,y)z)A)B)C)K>D)E)F)G)H)I)J)K)L)M)N)})O)P)Q)R)S)",
"T)U)V)W)X)Y)C'Z)`)C' !.!J)+!@!#!$!%!&!*!=!-!;!Q'r>>!,!'!)!!!)!s>~!-){!]!^!/!(!_!:!<![!}!|!1!2!R-3!4!5!6!7!8!9!0!a!b!c!t>d!e!f!g!",
"h!i!j!k!l!m!n!o!p!q!r!s!t!u!v!w!x!y!z!A!B!C!D!E!F!d)d)d)e)G!H!I!J!K!L!M!N!6-O!P!Q!R!S!T!c>U!V!W!X!Y!Z!`! ~.~+~@~#~$~%~&~*~=~-~;~",
">~,~'~)~!~~~{~]~o!^~/~(~_~:~<~[~}~|~1~2~3~4~{!5~6~e)e)e)e)7~8~9~K!0~a~E!6-b~c~d~e~f~g~h~C!i~j~k~l~m~n~o~k!p~q~q~r~s~t~u~v~w~x~y~",
"z~A~B~C~%~D~E~F~G~H~I~J~K~K~L~M~N~O~O~P~Q~R~S~y'T~G!G!U'e)e)U~V~A'W~X~6-,,Y~Z~`~ {.{+{@{#{${%{a!&{*{={-{;{>{,{'{){!{~{{{]{^{/{({",
"_{:{<{[{}{|{1{2{3{4{5{K~K~6{7{8{8{9{0{0{a{b{c{d{e{f{G!U'g{e)e)V~K!h{i{j{k{l{m{n{o{p{q{r{${s{t{t{u{v{w{x{,{,{y{z{A{B{C{D{E{F{G{({",
"H{I{J{K{L{M{N{O{P{Q{R{6{6{K~S{T{v{v{U{M~V{W{4~h{X{+!Y{i{Z{F)T~`{ ]Z{f{F).]+]m{@]#]$]%]&]W)*]u{=]v{w{-];]>],]z{'])]!]~]{]]]^]/](]",
"_]:]<][]}]|]1]2]3]4]5]6]7]8]0{0{9],{0],{0]a]b]c]_)T~d]d]d]e]f]g]h]f{G!T~d]i]d]@]j]k]l]m]n]o]T{p]w{w{q]r]s]t]u]v]w]x]y]z]A]B]C]D]",
"_]E]F]G]H]I]J]K]L]M]N]O]P]Q]R]S]S]T]U]V]W]X]Y]Z]`] ^.^+^@^#^$^%^j]&^*^=^-^-^e]j]@^;^>^,^T{n]0{-{x{C~r]'^)^!^~^{^]^^^/^(^_^:^<^[^",
"}^|^1^2^3^4^5^6^7^8^9^0^a^b^c^d^e^f^g^h^i^j^k^l^m^n^o^p^q^r^s^D*t^5!u^o{v^@>w^x^y^z^A^B^C^0{D^E^F^G^H^I^J^K^L^M^N^O^P^Q^R^S^T^[^",
"U^V^W^X^Y^Z^`^ /./+/@/#/$/%/&/*/=/-/;/h^i^>/,/'/)/!/~/{/]/^/)~)~//(/_/+~:/</[/}/|/1/2/3/4/5/6/7/8/9/0/a/b/c/d/e/f/g/h/i/j/k/l/m/",
"n/o/p/q/r/s/t/u/v/w/x/y/z/A/B/C/D/E/F/G/G/H/I/J/K/L/M/N/O/P/Q/R/S/T/U/V/W/X/Y/Z/`/ (.(.(+(@(#($(%(&(*(=(-(;(>(,('()(!(~({(](^(/(",
"((_(:(<([(}(|(1(2(3(4(5(6(7(8(9(0(a(b(c(c(d(e(f(g(h(i(j(k(l(m(n(o(,]p(q(r(s(t(u(v(w(x(y(a(z(A(B(C(D(E(F(G(H(I(J(K(L(M(N(O(P(Q(R(",
"S(T(U(V(W(X(Y(Z(`( _._+_@_#_$_%_&_*_=_-_;_>_,_'_)_!_~_{_]_^_/_(_(___:_<_[_}_|_1_2_3_4_5_6_7_8_9_0_a_b_c_d_e_f_g_h_i_j_k_l_m_n_o_",
"p_q_r_s_t_u_v_w_x_y_z_A_B_C_D_E_F_G_H_I_J_K_L_M_N_O_P_Q_R_S_T_U_V_W_X_Y_Z_`_ :.:+:@:#:$:%:&:*:=:-:;:>:,:':):!:~:{:]:^:/:(:_:::<:",
"[:}:|:1:2:3:4:5:6:7:8:9:0:a:b:c:d:e:f:g:h:i:j:k:l:m:n:o:p:q:r:s:t:u:v:w:x:y:z:A:B:C:D:E:F:G:H:I:J:K:L:M:N:O:P:Q:R:S:T:U:V:W:X:Y:",
"Z:`: <.<+<@<#<$<%<&<*<=<-<;<><,<'<)<!<~<{<]<^</<(<_<:<<<[<}<|<1<1<2<3<4<5<6<7<8<9<0<a<b<c<d<e<f<g<h<i<j<k<l<m<n<o<p<q<r<s<t<u<v<",
"w<x<y<z<A<B<C<D<E<F<G<H<I<J<K<L<M<N<O<P<Q<R<S<T<U<V<W<X<Y<Z<`< [.[2<+[@[#[z:$[%[&[*[=[-[;[>[,['[)[![~[{[][^[/[([_[:[<[[[}[|[1[2[",
"3[4[5[6[7[8[9[0[a[b[c[d[e[f[g[h[i[j[k[l[m[n[o[p[q[r[s[t[u[`<v[w[x[y[z[A[B[C[D[E[F[G[H[I[J[K[L[M[N[O[P[Q[R[S[T[U[V[W[X[Y[Z[`[ }.}",
"+}@}#}$}%}&}*}=}-};}>},}'})}!}~}{}]}^}/}(}_}:}<}[}}}|}1}2}3}#[4}5}6}7}8}9}0}a}b}c}d}e}f}g}h}i}j}k}l}m}n}o}p}q}q}r}s}t}u}v}w}x}y}",
"z}z}A}B}C}D}E}F}G}H}I}J}K}L}M}N}O}P}Q}R}S}T}U}V}W}X}Y}B:B:Z}`} |.|+|@|#|$|%|&|*|=|-|;|>|,|'|)|!|~|{|]|^|/|(|_|:|<|[|}|||1|2|3|4|",
"5|6|7|8|9|0|a|b|c|d|e|f|g|h|i|j|k|l|m|n|o|p|q|r|s|t|u|v|w|Y}x|y|z|A|B|C|D|E|F|G|H|I|J|K|L|M|N|O|P|Q|R|S|T|U|V|W|X|Y|Z|`| 1.1+1@1",
"#1$1%1&1*1=1-1;1>1,1'1)1!1~1{1]1^1/1(1_1:1<1[1}1|1112131u<41516171819101a1b1c1d1e1f1g1h1i1j1k1l1m1n1o1p1q1r1s1t1u1v1w1x1y1z1A1B1",
"C1D1E1F1G1H1I1J1K1L1M1N1O1P1Q1R1S1T1U1V1W1X1Y1Z1`1 2.2+2@2#2$2%2&2*2=2-2;2>2,2'2)2!2~2{2]2^2/2(2_2:2<2[2}2|212223242526272829202",
"a2W1b2c2d2e2f2g2h2i2j2k2l2m2n2o2p2q2r2s2t2u2v2w2x2y2z2A2B2C2D2E2y1F2G2H2I2J2K2L2M2N2O2P2Q2R2S2S2T2U2V2W2X2Y2Z2`2 3.3+3'2@3#3$3%3",
"&3*3=3-3;3>3,3'3)3!3~3{3]3^3/3(3_3:3<3[3}3|313233343536373839303a3b3c3d3e3f3g3h3i3j3k3l3m3n3o3P}p3q3r3s3t3u3v3w3x3y3z3A3B3C3D3E3",
"F3G3H3I3J3K3L3M3N3O3P3Q3R3S3T3U3V3W3X3Y3Z3`3 4.4+4@4#4$4%4&4*4=4-4;4>4,4'4)4!4~4{4]4^4/4(4_4:4<4[4}4|414243444546474849404a4b4c4",
"d4e4f4g4h4i4j4k4l4m4n4o4p4q4r4s4t4u4v4w4x4y4z4A4B4C4D4E4F4G4H4I4J4K4L4M4N4O4P4Q4R4S4T4U4V4W4X4Y4Z4`4 5.5+5@5#5$5%5&5*5=5-5;5>5c4",
",5'5)5!5~5{5]5^5/5(5_5:5<5[5}5|515253545556575859505a5b5c5d5e5f5g5h5i5j5k5l5m5n5o5p5q5r5s5t5u5v5w5x5y5z5A5B5C5D5E5F5G5H5I5J5K5L5",
"M5N5O5P5Q5R5S5T5U5_5V5W5:5X5Y5Z5Z5`5i/ 6.6+6@6#6$6%6&6*6=6-6;6>6,6'6)6!6~6{6]6^6/6(6_6:6<6[6}6|616263646566676869606a6b6c6d6e6f6",
"g6h6i6j6k6l6m6n6U5o6p6q6r6s6t6u6v6w6x6y6z6=4A6B6C6D6E6F6G6H6I6J6K6L6M6N6O6P6Q6R6S6T6U6V6W6X6Y6Z6`6 7.7+7@7#7$7%7&7*7=7-7;7>7,7'7",
")7!7~7{745]7^7R</7(7_7:7<7[7}7|717j_273747576777879707a7b7c7d7e7f7g7h7i7j7k7l7m7n7o7p7q7r7s7t7u7v7w7x7y7z7A7B7C7D7E7F7G7H7I7J7K7",
"L7M7N7O7P7Q7R7S7T7U7V7W7X7B3Y7Z7`7 8.8+8@8#8$8%8&8*8=8-8;8>8,8'8)8!8~8{8]8^8/8(8_8:8<8[8}8|81828384858l76878889808a8b8c8d8e8f8g8",
"h8i8j8k8l8m8n8o8p8q8r8s8t8u8v8w8x8y8z8A8B8C8D8E8F8G8H8I8J8K8L8M8N8O8P8Q8^8R8S8T8U8V8W8X8Y8Z8`8 9.9+9@9#9$9%9&9*9=9-9;9>9,9'9)9!9",
"~9{9]9^9/9(9_9:9<9[9~4}9|91929394959J}697989990909a9b9c9d9e9f9g9h9i9j9k9l9m9n9o9p9q9r9s9t9u9v9w9x9y9z9A9B9C9D9E9F9G9H9I9J9K9L9M9",
"N9O9P9Q9R9S9T9U9V9W9X9Y9Z9`9 0W9.0+0@0#0$0%0&0*0=0-0;0#0>0,0'0)0!0~0{0]0^0/0(0V9_0:0<0[0}0|0102020304050L96070809000a0b0c0d0e0f0",
"g0h0i0j0k0l0m0n0o0p0q0r0s0t0u0v0w0x0y0z0A0B0C0D0E0F0G0H0I0J0K0L0M0N0O0P0Q0R0S0T0U0V0W0X0Y0Z0Z0`0 a.a+a@a#a$a%a&a*a=a-a;a>a,a'a)a"};
