/* XPM */
static char * player_xpm[] = {
"64 62 3770 2",
"  	c #E5E1C9",
". 	c #C8C8B1",
"+ 	c #212320",
"@ 	c #1A1D1F",
"# 	c #1A1D1E",
"$ 	c #1C1D1F",
"% 	c #1E1F20",
"& 	c #43463D",
"* 	c #4D5F32",
"= 	c #87AB5A",
"- 	c #A6CE82",
"; 	c #AACE88",
"> 	c #AACE8A",
", 	c #A3C089",
"' 	c #89A577",
") 	c #4D5E41",
"! 	c #949587",
"~ 	c #848279",
"{ 	c #35362B",
"] 	c #34422B",
"^ 	c #4A5A3C",
"/ 	c #5C6E4E",
"( 	c #6A7B5A",
"_ 	c #5F6B51",
": 	c #181B17",
"< 	c #1B1819",
"[ 	c #2D3025",
"} 	c #3F4933",
"| 	c #444E38",
"1 	c #546540",
"2 	c #647A4C",
"3 	c #6D8652",
"4 	c #738E56",
"5 	c #76925B",
"6 	c #789660",
"7 	c #72905C",
"8 	c #3D4B37",
"9 	c #2D2D2B",
"0 	c #2A2928",
"a 	c #262725",
"b 	c #242523",
"c 	c #272424",
"d 	c #242123",
"e 	c #242124",
"f 	c #252125",
"g 	c #2F3831",
"h 	c #445543",
"i 	c #3D4A3F",
"j 	c #556942",
"k 	c #7E9D5D",
"l 	c #7C9761",
"m 	c #4B5B45",
"n 	c #4D514C",
"o 	c #ADAEA0",
"p 	c #DCDDCB",
"q 	c #DCDCC3",
"r 	c #909182",
"s 	c #202B2B",
"t 	c #1C272B",
"u 	c #1B2529",
"v 	c #1B242A",
"w 	c #192127",
"x 	c #A6A49C",
"y 	c #DFDEC7",
"z 	c #68706D",
"A 	c #374338",
"B 	c #809C76",
"C 	c #6F9663",
"D 	c #51784B",
"E 	c #405C41",
"F 	c #3C483A",
"G 	c #414F33",
"H 	c #7D9252",
"I 	c #8FAC52",
"J 	c #B9D182",
"K 	c #D4E5A3",
"L 	c #D4E6A2",
"M 	c #D3E8AA",
"N 	c #D1EEA9",
"O 	c #BDD29B",
"P 	c #2B2B25",
"Q 	c #2B221E",
"R 	c #A0B97C",
"S 	c #C1EB96",
"T 	c #CEF2A6",
"U 	c #D4F7AB",
"V 	c #D8F6B2",
"W 	c #D3F0AC",
"X 	c #687C4D",
"Y 	c #3A3F26",
"Z 	c #92A974",
"` 	c #C5EA9A",
" .	c #C4EB95",
"..	c #C5ED91",
"+.	c #C6F091",
"@.	c #C9F392",
"#.	c #CAF492",
"$.	c #CAF594",
"%.	c #CAF595",
"&.	c #C7F28E",
"*.	c #A7CF74",
"=.	c #839D55",
"-.	c #5C703A",
";.	c #A0C071",
">.	c #A3C974",
",.	c #9FC275",
"'.	c #8DAF67",
").	c #6D854E",
"!.	c #414F28",
"~.	c #4C6335",
"{.	c #85AA61",
"].	c #759A52",
"^.	c #A0C677",
"/.	c #CAEE90",
"(.	c #CBEA94",
"_.	c #B9DA8B",
":.	c #869C6E",
"<.	c #2C3026",
"[.	c #282A2B",
"}.	c #373B2D",
"|.	c #46593D",
"1.	c #537848",
"2.	c #80AF62",
"3.	c #89BA69",
"4.	c #8BBD6A",
"5.	c #7CAE69",
"6.	c #283124",
"7.	c #413C35",
"8.	c #18273B",
"9.	c #516B4D",
"0.	c #B7E195",
"a.	c #BBE98F",
"b.	c #B1E385",
"c.	c #96C774",
"d.	c #95B46C",
"e.	c #98B66D",
"f.	c #9CBC62",
"g.	c #AABD60",
"h.	c #B7C476",
"i.	c #D4E2A2",
"j.	c #D6E4A6",
"k.	c #D5EAA7",
"l.	c #D3EFA5",
"m.	c #CBE4A1",
"n.	c #4E553D",
"o.	c #4B4B37",
"p.	c #C9E59C",
"q.	c #D3FAA1",
"r.	c #D9F8A9",
"s.	c #DAF9AA",
"t.	c #D9F8B0",
"u.	c #D9F7AD",
"v.	c #B5D884",
"w.	c #88AC59",
"x.	c #A0BF76",
"y.	c #C9EE96",
"z.	c #C9EE91",
"A.	c #CAF092",
"B.	c #CDF396",
"C.	c #CEF498",
"D.	c #CFF599",
"E.	c #D0F69C",
"F.	c #D1F69C",
"G.	c #D1F798",
"H.	c #C9F493",
"I.	c #C2EA87",
"J.	c #B1D97B",
"K.	c #C9F28E",
"L.	c #CFF393",
"M.	c #CFF199",
"N.	c #CAEF90",
"O.	c #AAD277",
"P.	c #7E9E4D",
"Q.	c #7F9E4E",
"R.	c #ADD271",
"S.	c #B3D877",
"T.	c #B7DB81",
"U.	c #D1EE92",
"V.	c #D5EF96",
"W.	c #CDEC90",
"X.	c #C9E897",
"Y.	c #7D9066",
"Z.	c #1C1D1E",
"`.	c #485F3B",
" +	c #5F8749",
".+	c #739C53",
"++	c #C3F487",
"@+	c #BCED81",
"#+	c #B7EF7E",
"$+	c #9ED677",
"%+	c #41543B",
"&+	c #171118",
"*+	c #172033",
"=+	c #618653",
"-+	c #B0DE82",
";+	c #C4EB8F",
">+	c #C7EC8B",
",+	c #C1E983",
"'+	c #B9E27B",
")+	c #AFD870",
"!+	c #A5CC65",
"~+	c #9FC158",
"{+	c #A2C062",
"]+	c #BDD889",
"^+	c #C7E193",
"/+	c #D2EE9F",
"(+	c #D3F29F",
"_+	c #D0F49A",
":+	c #BDDA8D",
"<+	c #8EA863",
"[+	c #D2F2A0",
"}+	c #D6F8A2",
"|+	c #D8F7A6",
"1+	c #D9F7A7",
"2+	c #D8F7A9",
"3+	c #D8F9A6",
"4+	c #BFE482",
"5+	c #B1D96F",
"6+	c #B5D978",
"7+	c #BBDD7E",
"8+	c #B9DA7A",
"9+	c #BADB7C",
"0+	c #C2E588",
"a+	c #D0F396",
"b+	c #D2F69A",
"c+	c #D4F79D",
"d+	c #D3F79A",
"e+	c #D0F998",
"f+	c #CBF68E",
"g+	c #C9F38C",
"h+	c #CBF28F",
"i+	c #CEF296",
"j+	c #D0F198",
"k+	c #CEEF95",
"l+	c #AACD78",
"m+	c #7EA14B",
"n+	c #8AAC54",
"o+	c #9EBF62",
"p+	c #BCDD7F",
"q+	c #C5E48B",
"r+	c #D1EB95",
"s+	c #DCF098",
"t+	c #D4EC96",
"u+	c #CEEC93",
"v+	c #A8BF7F",
"w+	c #242720",
"x+	c #5B7A41",
"y+	c #76A751",
"z+	c #A8D37E",
"A+	c #BDE984",
"B+	c #C1EA83",
"C+	c #C6EE8F",
"D+	c #A8D082",
"E+	c #5B6D5C",
"F+	c #171016",
"G+	c #151C30",
"H+	c #556E54",
"I+	c #99B87D",
"J+	c #C1E294",
"K+	c #C9EC93",
"L+	c #CBF08F",
"M+	c #C3E881",
"N+	c #B8DE76",
"O+	c #AED56D",
"P+	c #A4CC63",
"Q+	c #9DC35C",
"R+	c #9ABF5A",
"S+	c #9ABF5C",
"T+	c #C6E791",
"U+	c #D4F59E",
"V+	c #D3F699",
"W+	c #D2F699",
"X+	c #D3F69C",
"Y+	c #D6F8A1",
"Z+	c #D7F7A4",
"`+	c #D8F8A4",
" @	c #D5F7A1",
".@	c #D3F79B",
"+@	c #BFE381",
"@@	c #B4D974",
"#@	c #B4D975",
"$@	c #B6D875",
"%@	c #B4D574",
"&@	c #B2D273",
"*@	c #B1D273",
"=@	c #B7DB7C",
"-@	c #C9ED8E",
";@	c #D0F495",
">@	c #D3F697",
",@	c #D1F697",
"'@	c #D0F694",
")@	c #CEF491",
"!@	c #C9EE8F",
"~@	c #C3E78D",
"{@	c #C8EB92",
"]@	c #CBED94",
"^@	c #B5D87E",
"/@	c #9FC268",
"(@	c #98BB60",
"_@	c #95B85D",
":@	c #B5D67B",
"<@	c #C2E287",
"[@	c #C7E48D",
"}@	c #D4EA96",
"|@	c #DCEF9D",
"1@	c #D6ED97",
"2@	c #C9E091",
"3@	c #586841",
"4@	c #688947",
"5@	c #96C26C",
"6@	c #C3EE8F",
"7@	c #BEE988",
"8@	c #BCE583",
"9@	c #C2E68D",
"0@	c #AACC83",
"a@	c #708764",
"b@	c #161115",
"c@	c #161E32",
"d@	c #1E222D",
"e@	c #445247",
"f@	c #98B580",
"g@	c #BEDF8E",
"h@	c #CBED8F",
"i@	c #C2E782",
"j@	c #B8DF76",
"k@	c #B0D86F",
"l@	c #AAD36A",
"m@	c #A1CA62",
"n@	c #9DC65F",
"o@	c #9AC15E",
"p@	c #C2E28E",
"q@	c #D6F7A1",
"r@	c #D5F89B",
"s@	c #D5F89C",
"t@	c #D5F89E",
"u@	c #D6F7A2",
"v@	c #CBEB97",
"w@	c #C4E68A",
"x@	c #BFE282",
"y@	c #B0D570",
"z@	c #B3D773",
"A@	c #B3D775",
"B@	c #B1D371",
"C@	c #AFD070",
"D@	c #ADCD6F",
"E@	c #ABCD6E",
"F@	c #A7CB6B",
"G@	c #A9CD6D",
"H@	c #B0D574",
"I@	c #B9DE7D",
"J@	c #BEE583",
"K@	c #C3EA89",
"L@	c #C4EA8A",
"M@	c #BEE486",
"N@	c #A1C76D",
"O@	c #96BC64",
"P@	c #97C066",
"Q@	c #ADD378",
"R@	c #A1C56A",
"S@	c #99BC5F",
"T@	c #96B85B",
"U@	c #97B85D",
"V@	c #A6C76D",
"W@	c #B8DB80",
"X@	c #B0D27A",
"Y@	c #9CBE67",
"Z@	c #B0CC79",
"`@	c #C1DC84",
" #	c #BDDB84",
".#	c #8BAB64",
"+#	c #759A50",
"@#	c #ABD37B",
"##	c #B7E17E",
"$#	c #ADD879",
"%#	c #A5CF78",
"&#	c #99BE79",
"*#	c #81A26C",
"=#	c #587251",
"-#	c #131317",
";#	c #344647",
">#	c #1E2825",
",#	c #29342D",
"'#	c #4D6043",
")#	c #869F64",
"!#	c #A0B66E",
"~#	c #B2D176",
"{#	c #B2DA72",
"]#	c #AED86E",
"^#	c #AAD46B",
"/#	c #A7D067",
"(#	c #9FC663",
"_#	c #9AC063",
":#	c #B9DB88",
"<#	c #D7F9A4",
"[#	c #D6F9A0",
"}#	c #D6F99F",
"|#	c #D7F9A0",
"1#	c #D7F7A1",
"2#	c #D6F6A0",
"3#	c #D7F7A5",
"4#	c #AFCF7B",
"5#	c #9CBE5E",
"6#	c #A6C866",
"7#	c #A5C765",
"8#	c #A7CA68",
"9#	c #ACCD6D",
"0#	c #ABCC6D",
"a#	c #A9CB6C",
"b#	c #AACB6E",
"c#	c #A8CC6E",
"d#	c #A7CC6F",
"e#	c #A7CC70",
"f#	c #A4CA6F",
"g#	c #9EC369",
"h#	c #9AC667",
"i#	c #A2C76B",
"j#	c #A9D275",
"k#	c #9DC66A",
"l#	c #94BE64",
"m#	c #91BD64",
"n#	c #95BC63",
"o#	c #91B55B",
"p#	c #94B75B",
"q#	c #95B75C",
"r#	c #96B75D",
"s#	c #96B75F",
"t#	c #95B85F",
"u#	c #97B963",
"v#	c #97BA63",
"w#	c #97BA65",
"x#	c #9CBF6A",
"y#	c #9EC36C",
"z#	c #8CB062",
"A#	c #8FB664",
"B#	c #A6D170",
"C#	c #A3CF6C",
"D#	c #9BC769",
"E#	c #98BF6D",
"F#	c #80996A",
"G#	c #65735A",
"H#	c #3B4135",
"I#	c #191A22",
"J#	c #9BBD83",
"K#	c #9CC282",
"L#	c #83A46A",
"M#	c #6F8757",
"N#	c #4B5A31",
"O#	c #758149",
"P#	c #93A958",
"Q#	c #A5CB6A",
"R#	c #AAD46C",
"S#	c #A9D26C",
"T#	c #A2C96B",
"U#	c #99BF65",
"V#	c #B2D481",
"W#	c #D8FAA6",
"X#	c #D8F9A5",
"Y#	c #D7F9A5",
"Z#	c #D8F7A2",
"`#	c #D6F6A4",
" $	c #BCDC87",
".$	c #9FC161",
"+$	c #A4C767",
"@$	c #A2C566",
"#$	c #999B7C",
"$$	c #7A6E84",
"%$	c #73697F",
"&$	c #766A80",
"*$	c #766A82",
"=$	c #746A84",
"-$	c #786D87",
";$	c #776C86",
">$	c #766A83",
",$	c #746A7F",
"'$	c #756B7E",
")$	c #716A7D",
"!$	c #BFD68D",
"~$	c #CAEB8F",
"{$	c #C3E689",
"]$	c #B1D67A",
"^$	c #A0CA73",
"/$	c #91B75F",
"($	c #8DB058",
"_$	c #92B55C",
":$	c #94B55E",
"<$	c #95B55E",
"[$	c #94B45F",
"}$	c #92B55E",
"|$	c #93B65F",
"1$	c #95B864",
"2$	c #96B965",
"3$	c #9ABE67",
"4$	c #9FC469",
"5$	c #96BA66",
"6$	c #A7CF73",
"7$	c #A6D16E",
"8$	c #A6D068",
"9$	c #9FC96E",
"0$	c #8EAF6C",
"a$	c #768468",
"b$	c #595E50",
"c$	c #252420",
"d$	c #343939",
"e$	c #C6EBAD",
"f$	c #CCF2A1",
"g$	c #CFF59E",
"h$	c #CCF49B",
"i$	c #BEE78E",
"j$	c #A1C871",
"k$	c #829F4F",
"l$	c #8CAA57",
"m$	c #9EC665",
"n$	c #ADD770",
"o$	c #B2DC75",
"p$	c #B3DD78",
"q$	c #A8D16F",
"r$	c #AFCF7E",
"s$	c #DDF8AA",
"t$	c #DCF8AD",
"u$	c #D5F0A7",
"v$	c #DAF7A9",
"w$	c #D9F7A4",
"x$	c #D0EFA1",
"y$	c #B5D880",
"z$	c #757976",
"A$	c #6E6883",
"B$	c #43467D",
"C$	c #D6C7A3",
"D$	c #EAC48C",
"E$	c #E77E5D",
"F$	c #E9604C",
"G$	c #E9584C",
"H$	c #EA584E",
"I$	c #E9564C",
"J$	c #E95249",
"K$	c #E74D47",
"L$	c #E75045",
"M$	c #E74F45",
"N$	c #6D6289",
"O$	c #736A83",
"P$	c #766E83",
"Q$	c #746C83",
"R$	c #CCD99E",
"S$	c #9EBE6C",
"T$	c #8AAE57",
"U$	c #90B35C",
"V$	c #91B45E",
"W$	c #91B35F",
"X$	c #90B25D",
"Y$	c #8EB25C",
"Z$	c #8FB561",
"`$	c #91B965",
" %	c #95BA66",
".%	c #9BC067",
"+%	c #A3C967",
"@%	c #A9D06F",
"#%	c #ABD471",
"$%	c #ACD671",
"%%	c #ADD672",
"&%	c #ABD277",
"*%	c #96B86F",
"=%	c #738764",
"-%	c #2F3128",
";%	c #20181C",
">%	c #595F5E",
",%	c #BCE0AD",
"'%	c #CAEEA3",
")%	c #CEF2A0",
"!%	c #CFF59A",
"~%	c #CFF595",
"{%	c #CCF393",
"]%	c #AFD97B",
"^%	c #84A353",
"/%	c #9FC567",
"(%	c #B7E07A",
"_%	c #BAE77A",
":%	c #BCE97C",
"<%	c #BDE77C",
"[%	c #A4CB72",
"}%	c #BCD995",
"|%	c #C2DEA0",
"1%	c #9DB97C",
"2%	c #C0DD99",
"3%	c #C4E49B",
"4%	c #C5E59B",
"5%	c #A2C375",
"6%	c #898285",
"7%	c #40457C",
"8%	c #D4CFB7",
"9%	c #EAE6BE",
"0%	c #EBE7BD",
"a%	c #F89D7B",
"b%	c #FD7252",
"c%	c #FE6049",
"d%	c #FDDBBF",
"e%	c #FDEFD6",
"f%	c #FCEED6",
"g%	c #F9EBD3",
"h%	c #FBF1DB",
"i%	c #FC6D61",
"j%	c #FF523F",
"k%	c #FF5540",
"l%	c #E74D46",
"m%	c #E74F43",
"n%	c #E95043",
"o%	c #9D4062",
"p%	c #685F80",
"q%	c #A2B381",
"r%	c #8BAE59",
"s%	c #8FB25D",
"t%	c #8FB25E",
"u%	c #8FB15D",
"v%	c #8EB05C",
"w%	c #93B463",
"x%	c #BFDD93",
"y%	c #C5E094",
"z%	c #A6C776",
"A%	c #98BF65",
"B%	c #A7CD6B",
"C%	c #ACD371",
"D%	c #ABD470",
"E%	c #ADD772",
"F%	c #B0D875",
"G%	c #B3D97E",
"H%	c #AAD27D",
"I%	c #A9CD82",
"J%	c #789262",
"K%	c #373F2C",
"L%	c #232224",
"M%	c #8EAB94",
"N%	c #B2D498",
"O%	c #B7DD93",
"P%	c #C5EA9D",
"Q%	c #CAED9C",
"R%	c #C9EC97",
"S%	c #C3E98E",
"T%	c #9EC46B",
"U%	c #A9CF72",
"V%	c #B3DC78",
"W%	c #BAE67C",
"X%	c #BEE97F",
"Y%	c #BEE881",
"Z%	c #ACD479",
"`%	c #8CAF5E",
" &	c #8CAF60",
".&	c #8DB162",
"+&	c #8DB160",
"@&	c #8FB361",
"#&	c #787B7E",
"$&	c #6A698E",
"%&	c #D9D6C6",
"&&	c #EBE8C1",
"*&	c #F89F83",
"=&	c #FD886B",
"-&	c #FD886E",
";&	c #FD674E",
">&	c #F8D2B4",
",&	c #FAE9D2",
"'&	c #FCF7E0",
")&	c #FEFCE5",
"!&	c #FEFCE6",
"~&	c #FFFDEB",
"{&	c #F6EAD9",
"]&	c #FAAE8E",
"^&	c #FD5A44",
"/&	c #FF583E",
"(&	c #FE5A40",
"_&	c #FF5A41",
":&	c #EF5447",
"<&	c #E84E45",
"[&	c #9C5E7A",
"}&	c #676186",
"|&	c #93A171",
"1&	c #8EB25E",
"2&	c #8DB05C",
"3&	c #8BAF5B",
"4&	c #ACCA82",
"5&	c #DCF4AE",
"6&	c #D9EFA4",
"7&	c #CCE99A",
"8&	c #9CC06A",
"9&	c #A3CA6C",
"0&	c #ACD373",
"a&	c #AAD373",
"b&	c #ABD474",
"c&	c #B3DA7B",
"d&	c #BDE489",
"e&	c #BBE289",
"f&	c #B7E286",
"g&	c #B1DF84",
"h&	c #92BC7C",
"i&	c #283125",
"j&	c #3F4A50",
"k&	c #99AF9C",
"l&	c #ABCB9E",
"m&	c #ACD190",
"n&	c #B2D48E",
"o&	c #AFD189",
"p&	c #B0D47F",
"q&	c #A0C56F",
"r&	c #9CC169",
"s&	c #ACD374",
"t&	c #B8E17E",
"u&	c #BFE884",
"v&	c #BEE683",
"w&	c #AED378",
"x&	c #94B863",
"y&	c #92B663",
"z&	c #91B562",
"A&	c #93B662",
"B&	c #777971",
"C&	c #4D5093",
"D&	c #E5E3CC",
"E&	c #FCF9C5",
"F&	c #FBAC8C",
"G&	c #FE684E",
"H&	c #FF5940",
"I&	c #FE543F",
"J&	c #FB7257",
"K&	c #F9E6CF",
"L&	c #EEF3EA",
"M&	c #E0EDED",
"N&	c #D8E7EC",
"O&	c #D6E6EB",
"P&	c #D7E7ED",
"Q&	c #DAE9F0",
"R&	c #DDEBF0",
"S&	c #E3E3E5",
"T&	c #FB5646",
"U&	c #FF563F",
"V&	c #FF573E",
"W&	c #FF553E",
"X&	c #EF4F46",
"Y&	c #D1405F",
"Z&	c #683774",
"`&	c #AAB07D",
" *	c #8DB05D",
".*	c #88AD5A",
"+*	c #A8C97D",
"@*	c #D6F3A7",
"#*	c #D9F1A4",
"$*	c #D5F0A2",
"%*	c #A3C573",
"&*	c #9BC26B",
"**	c #A2C96F",
"=*	c #A0C76E",
"-*	c #9AC269",
";*	c #AAD179",
">*	c #BCE38B",
",*	c #B9E189",
"'*	c #B7E188",
")*	c #B7E288",
"!*	c #9DCD81",
"~*	c #40573B",
"{*	c #66675B",
"]*	c #262B31",
"^*	c #3C4844",
"/*	c #6B8461",
"(*	c #82A366",
"_*	c #8CB262",
":*	c #8BB258",
"<*	c #8CB359",
"[*	c #93B862",
"}*	c #9DC46A",
"|*	c #9FC76A",
"1*	c #A2C86A",
"2*	c #9FC467",
"3*	c #99BF64",
"4*	c #95BA64",
"5*	c #94B866",
"6*	c #93B865",
"7*	c #676F6A",
"8*	c #766C96",
"9*	c #EAE6C1",
"0*	c #FBA77E",
"a*	c #FE674E",
"b*	c #FE5C41",
"c*	c #FE6343",
"d*	c #7D3961",
"e*	c #2C2F6F",
"f*	c #344078",
"g*	c #596490",
"h*	c #616E98",
"i*	c #596692",
"j*	c #5D6A94",
"k*	c #637099",
"l*	c #5D6994",
"m*	c #656F99",
"n*	c #565E8F",
"o*	c #4C2D73",
"p*	c #442C72",
"q*	c #FD5D44",
"r*	c #FF5A3F",
"s*	c #FF573D",
"t*	c #FF563D",
"u*	c #F54A48",
"v*	c #D74466",
"w*	c #6C3479",
"x*	c #A1AB76",
"y*	c #8AB05D",
"z*	c #8FB562",
"A*	c #B4D686",
"B*	c #C4DF91",
"C*	c #BAD889",
"D*	c #93B665",
"E*	c #96BC68",
"F*	c #95BC66",
"G*	c #94BB66",
"H*	c #91B864",
"I*	c #96BD6C",
"J*	c #B3DA89",
"K*	c #B6DE8B",
"L*	c #B7E08D",
"M*	c #A8D184",
"N*	c #77A464",
"O*	c #3D5D40",
"P*	c #989684",
"Q*	c #17161F",
"R*	c #303F2B",
"S*	c #668554",
"T*	c #759B51",
"U*	c #8AB35A",
"V*	c #8AB358",
"W*	c #8BB459",
"X*	c #91B85F",
"Y*	c #91B960",
"Z*	c #90B860",
"`*	c #91B65E",
" =	c #94BA62",
".=	c #94BB63",
"+=	c #94BB64",
"@=	c #93BA64",
"#=	c #ABB473",
"$=	c #5A6176",
"%=	c #E2DCB5",
"&=	c #FBA87B",
"*=	c #FD664D",
"==	c #FF5C44",
"-=	c #F05C4F",
";=	c #663A70",
">=	c #342E6C",
",=	c #DAC497",
"'=	c #F6CF83",
")=	c #F08651",
"!=	c #EF6545",
"~=	c #F16345",
"{=	c #F16246",
"]=	c #F16347",
"^=	c #F36347",
"/=	c #F46049",
"(=	c #F36149",
"_=	c #F16449",
":=	c #EF6B4E",
"<=	c #ED7157",
"[=	c #9A4C79",
"}=	c #663676",
"|=	c #CE5B60",
"1=	c #FE5940",
"2=	c #FF583F",
"3=	c #FF5242",
"4=	c #E1485F",
"5=	c #D64F6F",
"6=	c #743871",
"7=	c #99AB77",
"8=	c #8EB561",
"9=	c #8EB560",
"0=	c #8EB75F",
"a=	c #8FB860",
"b=	c #90B862",
"c=	c #93B966",
"d=	c #91BA66",
"e=	c #8EB762",
"f=	c #86AE63",
"g=	c #81A860",
"h=	c #84AB64",
"i=	c #85AB69",
"j=	c #799E63",
"k=	c #64885B",
"l=	c #384C37",
"m=	c #423F3C",
"n=	c #181E25",
"o=	c #6E925D",
"p=	c #81AC60",
"q=	c #85AE5D",
"r=	c #8CB75C",
"s=	c #8EB85D",
"t=	c #91B961",
"u=	c #91B862",
"v=	c #90B961",
"w=	c #8FB861",
"x=	c #89B25C",
"y=	c #8EB562",
"z=	c #8FB563",
"A=	c #91B664",
"B=	c #56626E",
"C=	c #E1DBBF",
"D=	c #F7A27D",
"E=	c #FD7A5A",
"F=	c #784063",
"G=	c #522358",
"H=	c #B33B4A",
"I=	c #F06053",
"J=	c #F45956",
"K=	c #F86660",
"L=	c #8B5274",
"M=	c #674271",
"N=	c #61376C",
"O=	c #532F6D",
"P=	c #422C6D",
"Q=	c #432D6D",
"R=	c #4B2E6F",
"S=	c #543171",
"T=	c #6D3D71",
"U=	c #754676",
"V=	c #71457B",
"W=	c #FA6066",
"X=	c #F25563",
"Y=	c #EF5863",
"Z=	c #8B3D65",
"`=	c #8D406B",
" -	c #E35551",
".-	c #FE5943",
"+-	c #E4495A",
"@-	c #DB4963",
"#-	c #95417B",
"$-	c #97A674",
"%-	c #8CB562",
"&-	c #8DB663",
"*-	c #8DB562",
"=-	c #90B865",
"--	c #8EB664",
";-	c #8EB665",
">-	c #89B363",
",-	c #85AE62",
"'-	c #80A661",
")-	c #75995B",
"!-	c #59734F",
"~-	c #1A1F17",
"{-	c #232022",
"]-	c #172228",
"^-	c #729865",
"/-	c #85AF61",
"(-	c #86AF5E",
"_-	c #89B15C",
":-	c #8CB35E",
"<-	c #8BB25D",
"[-	c #95BD68",
"}-	c #92BD6B",
"|-	c #90BB68",
"1-	c #7BA459",
"2-	c #83AC5E",
"3-	c #8BB05F",
"4-	c #56636A",
"5-	c #E3D9B8",
"6-	c #F99C77",
"7-	c #FD684D",
"8-	c #76375D",
"9-	c #DC6763",
"0-	c #7B5072",
"a-	c #583575",
"b-	c #6E3C72",
"c-	c #613271",
"d-	c #442971",
"e-	c #6B83CD",
"f-	c #658BD4",
"g-	c #638BD4",
"h-	c #6890D8",
"i-	c #6C93D9",
"j-	c #6C92D8",
"k-	c #6B92D9",
"l-	c #658DD6",
"m-	c #628BD3",
"n-	c #628AD5",
"o-	c #698EDE",
"p-	c #5A347B",
"q-	c #573475",
"r-	c #4A3072",
"s-	c #362E70",
"t-	c #333072",
"u-	c #82356D",
"v-	c #D14367",
"w-	c #E74B67",
"x-	c #E14A66",
"y-	c #D45F8C",
"z-	c #754376",
"A-	c #8A9772",
"B-	c #8AB061",
"C-	c #8AB063",
"D-	c #89B063",
"E-	c #89AE63",
"F-	c #88AE61",
"G-	c #8DB664",
"H-	c #8CB665",
"I-	c #8BB665",
"J-	c #88B263",
"K-	c #86B063",
"L-	c #85AF67",
"M-	c #82AA69",
"N-	c #6F9060",
"O-	c #1F251C",
"P-	c #211F22",
"Q-	c #18232B",
"R-	c #6E9269",
"S-	c #789F5F",
"T-	c #8AB261",
"U-	c #89B05E",
"V-	c #81A855",
"W-	c #99C16E",
"X-	c #95BF6F",
"Y-	c #93BE6D",
"Z-	c #83AC63",
"`-	c #81AD60",
" ;	c #6E7373",
".;	c #373572",
"+;	c #E17066",
"@;	c #FD5E49",
"#;	c #843B60",
"$;	c #312D70",
"%;	c #4F3776",
"&;	c #688ECF",
"*;	c #6A9CDC",
"=;	c #63A2DB",
"-;	c #64BFE7",
";;	c #6ED8F5",
">;	c #74D9F9",
",;	c #79D5F7",
"';	c #7CD2F4",
");	c #7DD1F1",
"!;	c #7ED1F0",
"~;	c #7CD1F1",
"{;	c #7CD2F3",
"];	c #7BD1F3",
"^;	c #7AD2F2",
"/;	c #77D1F2",
"(;	c #6CCDF2",
"_;	c #62BBEB",
":;	c #6AB0E9",
"<;	c #71A0E0",
"[;	c #6A94D9",
"};	c #668FD9",
"|;	c #475A9E",
"1;	c #2E2C75",
"2;	c #2C2970",
"3;	c #DC4F71",
"4;	c #E26081",
"5;	c #7C457C",
"6;	c #46467C",
"7;	c #909F77",
"8;	c #86A95F",
"9;	c #B0D287",
"0;	c #B1D58B",
"a;	c #8CB46B",
"b;	c #79A55A",
"c;	c #88B162",
"d;	c #8BB566",
"e;	c #88B265",
"f;	c #85B064",
"g;	c #85B063",
"h;	c #84AD65",
"i;	c #81A966",
"j;	c #729562",
"k;	c #1E241C",
"l;	c #1F1E21",
"m;	c #19232D",
"n;	c #60845E",
"o;	c #779D5C",
"p;	c #8CB468",
"q;	c #90BA62",
"r;	c #8AB45C",
"s;	c #85AF59",
"t;	c #8CB45F",
"u;	c #95BD6B",
"v;	c #92BB6B",
"w;	c #92BB6C",
"x;	c #88B065",
"y;	c #767E7F",
"z;	c #DA5F79",
"A;	c #E76372",
"B;	c #683B71",
"C;	c #373577",
"D;	c #6EBEE3",
"E;	c #76D1F4",
"F;	c #79D3F5",
"G;	c #76D2F2",
"H;	c #70D5F2",
"I;	c #598CBA",
"J;	c #373F81",
"K;	c #6DC3E7",
"L;	c #71D2F4",
"M;	c #75D1F3",
"N;	c #76D1F2",
"O;	c #75D1F2",
"P;	c #74D1F3",
"Q;	c #74D2F4",
"R;	c #74D2F3",
"S;	c #73D0F2",
"T;	c #72D1F1",
"U;	c #72D6F6",
"V;	c #3A4893",
"W;	c #5D8EBA",
"X;	c #77D1F1",
"Y;	c #75CFEE",
"Z;	c #75CEEE",
"`;	c #76CDEC",
" >	c #6AB1E8",
".>	c #41639E",
"+>	c #2C2F75",
"@>	c #B44E77",
"#>	c #DA5C79",
"$>	c #714480",
"%>	c #93A07C",
"&>	c #98B470",
"*>	c #D0EDA1",
"=>	c #CDEB99",
"->	c #C0E291",
";>	c #79A156",
">>	c #8AB367",
",>	c #87B265",
"'>	c #85B066",
")>	c #82AD65",
"!>	c #81AB65",
"~>	c #7FA965",
"{>	c #719564",
"]>	c #1D241D",
"^>	c #1A1A1E",
"/>	c #17212C",
"(>	c #648A5D",
"_>	c #93BD6F",
":>	c #97C06A",
"<>	c #94BF61",
"[>	c #8DBA5C",
"}>	c #88B35A",
"|>	c #87B05A",
"1>	c #8BB361",
"2>	c #DFE1B9",
"3>	c #B6C78C",
"4>	c #83AD5D",
"5>	c #7BA558",
"6>	c #727B82",
"7>	c #473B78",
"8>	c #363B7B",
"9>	c #E7E8D3",
"0>	c #9CD5E9",
"a>	c #71D1F2",
"b>	c #6FD3F4",
"c>	c #71DAF6",
"d>	c #5A8DB9",
"e>	c #37397A",
"f>	c #72C1E6",
"g>	c #71D3F3",
"h>	c #73D2F4",
"i>	c #70D4F4",
"j>	c #74D4F6",
"k>	c #425DB9",
"l>	c #5E8DB8",
"m>	c #78D3F6",
"n>	c #71D4F2",
"o>	c #72D1F0",
"p>	c #74D1F0",
"q>	c #75D1F0",
"r>	c #78D2F1",
"s>	c #66B1EA",
"t>	c #385A98",
"u>	c #393377",
"v>	c #34377A",
"w>	c #98A67B",
"x>	c #8FAD6B",
"y>	c #CBEAA0",
"z>	c #C9EA99",
"A>	c #EAECBD",
"B>	c #97B472",
"C>	c #86B164",
"D>	c #84AE64",
"E>	c #82AB65",
"F>	c #7FA966",
"G>	c #7EA866",
"H>	c #7CA765",
"I>	c #6D9263",
"J>	c #1B221C",
"K>	c #16151B",
"L>	c #171F2C",
"M>	c #6E9562",
"N>	c #97C370",
"O>	c #93BC67",
"P>	c #91BA63",
"Q>	c #8BB75E",
"R>	c #88B15B",
"S>	c #86AE5B",
"T>	c #C5D19A",
"U>	c #F6F0CD",
"V>	c #DFE0B5",
"W>	c #ABC183",
"X>	c #81AB5E",
"Y>	c #5D697D",
"Z>	c #65658F",
"`>	c #E9ECDC",
" ,	c #BBE5E6",
".,	c #71D1F1",
"+,	c #6FCEF1",
"@,	c #6DCAEC",
"#,	c #71CFF3",
"$,	c #72D1F4",
"%,	c #70B7EA",
"&,	c #6773AE",
"*,	c #6B4C7D",
"=,	c #75B0D5",
"-,	c #71CBEF",
";,	c #72D2F4",
">,	c #70D3F5",
",,	c #6FD2F4",
"',	c #71D2F5",
"),	c #73D5F5",
"!,	c #75DCF8",
"~,	c #5D9AEA",
"{,	c #55498C",
"],	c #3D3174",
"^,	c #67A0C7",
"/,	c #78D2F2",
"(,	c #73D2F3",
"_,	c #75D0F1",
":,	c #7BD4F3",
"<,	c #75D4F2",
"[,	c #74D4F0",
"},	c #69BBEA",
"|,	c #4065A0",
"1,	c #30367A",
"2,	c #91A173",
"3,	c #81A660",
"4,	c #8BAE6A",
"5,	c #C0CF9B",
"6,	c #FFF5D1",
"7,	c #C8CE9B",
"8,	c #92B46D",
"9,	c #84AD62",
"0,	c #82AA63",
"a,	c #79A060",
"b,	c #779E63",
"c,	c #779F65",
"d,	c #769E64",
"e,	c #668A5D",
"f,	c #1B211B",
"g,	c #1A171D",
"h,	c #171F2B",
"i,	c #61875E",
"j,	c #7BA661",
"k,	c #7FA85D",
"l,	c #84AC5C",
"m,	c #85AD5D",
"n,	c #88AE5E",
"o,	c #C6CE99",
"p,	c #F7F2CF",
"q,	c #E1E2B6",
"r,	c #ADC384",
"s,	c #7DA35E",
"t,	c #727B8D",
"u,	c #E6E4CF",
"v,	c #A1D8E9",
"w,	c #61CDF3",
"x,	c #68D1F2",
"y,	c #528BC2",
"z,	c #343975",
"A,	c #6186C7",
"B,	c #6C9BDF",
"C,	c #797DB4",
"D,	c #DCA08F",
"E,	c #FDA08A",
"F,	c #9A6183",
"G,	c #6586CE",
"H,	c #72C1F1",
"I,	c #72D0F7",
"J,	c #6FD4F9",
"K,	c #70D6F9",
"L,	c #70BEF3",
"M,	c #6EADEC",
"N,	c #6A9DE8",
"O,	c #6297E1",
"P,	c #463376",
"Q,	c #E19A98",
"R,	c #ECB294",
"S,	c #796489",
"T,	c #5879BF",
"U,	c #6695DC",
"V,	c #4E5C93",
"W,	c #454696",
"X,	c #6DC0E4",
"Y,	c #6FD4F2",
"Z,	c #6DD7F4",
"`,	c #6AA8EA",
" '	c #3C5494",
".'	c #9BA07E",
"+'	c #80A361",
"@'	c #789F5A",
"#'	c #ECE7C1",
"$'	c #FFF7D3",
"%'	c #F1ECC4",
"&'	c #A1BA7D",
"*'	c #84AA62",
"='	c #799E61",
"-'	c #6E8F63",
";'	c #6F8D65",
">'	c #6C8C62",
",'	c #698A5F",
"''	c #5B775A",
")'	c #13131C",
"!'	c #181F2C",
"~'	c #517656",
"{'	c #658F57",
"]'	c #7AA25E",
"^'	c #7FA759",
"/'	c #83AB5C",
"('	c #87AD5F",
"_'	c #88AE60",
":'	c #88AE5F",
"<'	c #CCD19E",
"['	c #A8BD7D",
"}'	c #87AF5F",
"|'	c #495F6F",
"1'	c #D2D0BF",
"2'	c #A0D7EE",
"3'	c #65CEF4",
"4'	c #68D2F4",
"5'	c #6BD5F4",
"6'	c #65A0D4",
"7'	c #53558B",
"8'	c #725F7E",
"9'	c #7C6A87",
"0'	c #DDA691",
"a'	c #FFD0A1",
"b'	c #FEDEAB",
"c'	c #F3A391",
"d'	c #986081",
"e'	c #6A80CB",
"f'	c #658CD9",
"g'	c #628BD8",
"h'	c #5F89D8",
"i'	c #5D8AD9",
"j'	c #5E8EDB",
"k'	c #6094DD",
"l'	c #7B527C",
"m'	c #BB8390",
"n'	c #FEE0AE",
"o'	c #FFDDAE",
"p'	c #D5B8A3",
"q'	c #795F81",
"r'	c #6C5379",
"s'	c #6D4674",
"t'	c #819AC8",
"u'	c #76C6E9",
"v'	c #6ED4F3",
"w'	c #6DD7F6",
"x'	c #66A6E8",
"y'	c #5E96E7",
"z'	c #3B5191",
"A'	c #8C9F70",
"B'	c #7DA55B",
"C'	c #7DA559",
"D'	c #DFE2BA",
"E'	c #97B476",
"F'	c #82AA62",
"G'	c #82A961",
"H'	c #789A62",
"I'	c #6C8B63",
"J'	c #688260",
"K'	c #627C5A",
"L'	c #5E7756",
"M'	c #4C5C4B",
"N'	c #212021",
"O'	c #161725",
"P'	c #171F32",
"Q'	c #4A6658",
"R'	c #547856",
"S'	c #658C53",
"T'	c #779F59",
"U'	c #85AC61",
"V'	c #88AF60",
"W'	c #88B061",
"X'	c #87AE61",
"Y'	c #86AF60",
"Z'	c #85B05F",
"`'	c #85AF60",
" )	c #4C5F6F",
".)	c #4F94D7",
"+)	c #5AB7F5",
"@)	c #62C2F4",
"#)	c #6CCFF9",
"$)	c #69C7EF",
"%)	c #436899",
"&)	c #B1798B",
"*)	c #F6D0A2",
"=)	c #FFDFB0",
"-)	c #FFE0B3",
";)	c #FFDFB2",
">)	c #FFDEB0",
",)	c #FBA889",
"')	c #A47A89",
"))	c #795781",
"!)	c #774C7E",
"~)	c #784B7E",
"{)	c #774B7F",
"])	c #764D80",
"^)	c #7B6589",
"/)	c #F59E8E",
"()	c #FFDDAF",
"_)	c #FFE0B2",
":)	c #FFDCAE",
"<)	c #FFD9AA",
"[)	c #F09F85",
"})	c #7D5480",
"|)	c #64A1C7",
"1)	c #6DBFEA",
"2)	c #69A4E6",
"3)	c #6298E5",
"4)	c #5B95E6",
"5)	c #3C5292",
"6)	c #8C9F6B",
"7)	c #7FA65D",
"8)	c #7EA55D",
"9)	c #80A55E",
"0)	c #81A761",
"a)	c #81A963",
"b)	c #80A962",
"c)	c #7DA460",
"d)	c #779E5E",
"e)	c #72985A",
"f)	c #678653",
"g)	c #586D48",
"h)	c #242534",
"i)	c #202A39",
"j)	c #3B4F47",
"k)	c #4A6A4E",
"l)	c #698F58",
"m)	c #79A25D",
"n)	c #7AA25A",
"o)	c #87AF62",
"p)	c #87AF61",
"q)	c #86AF61",
"r)	c #84AE60",
"s)	c #536370",
"t)	c #537EC7",
"u)	c #639EEB",
"v)	c #66A2EA",
"w)	c #6091DC",
"x)	c #695EA6",
"y)	c #86718B",
"z)	c #EDCAA2",
"A)	c #F7D6AC",
"B)	c #D2BCA3",
"C)	c #CCB7A1",
"D)	c #CCB6A0",
"E)	c #F5DCB4",
"F)	c #FFDEB1",
"G)	c #FCAA92",
"H)	c #FD9F89",
"I)	c #FD9E88",
"J)	c #FD9B87",
"K)	c #FC9987",
"L)	c #FFD6AA",
"M)	c #FEDAAB",
"N)	c #FEDFB7",
"O)	c #CFB8A1",
"P)	c #CCB9A1",
"Q)	c #CCB89F",
"R)	c #F1D7B5",
"S)	c #FFDDB1",
"T)	c #AC918D",
"U)	c #785381",
"V)	c #6684CF",
"W)	c #6696E1",
"X)	c #6397E6",
"Y)	c #5D96E9",
"Z)	c #3C5191",
"`)	c #889D66",
" !	c #80A65F",
".!	c #7FA65F",
"+!	c #80A660",
"@!	c #80A862",
"#!	c #7FA861",
"$!	c #7EA762",
"%!	c #7DA661",
"&!	c #7AA35F",
"*!	c #79A25F",
"=!	c #729C58",
"-!	c #678C4F",
";!	c #5D7A4B",
">!	c #1E1E2C",
",!	c #364A43",
"'!	c #5F8359",
")!	c #699159",
"!!	c #7AA361",
"~!	c #79A35A",
"{!	c #7DA55C",
"]!	c #85AD63",
"^!	c #85AE61",
"/!	c #84AE62",
"(!	c #5C6772",
"_!	c #587DC0",
":!	c #6294E4",
"<!	c #6297EA",
"[!	c #415390",
"}!	c #CB7B84",
"|!	c #F9D2A8",
"1!	c #FFE4B9",
"2!	c #B5A8A8",
"3!	c #A1A2AF",
"4!	c #ABA9AE",
"5!	c #656890",
"6!	c #BAABA2",
"7!	c #F6DEB6",
"8!	c #FEE1B6",
"9!	c #FFDDB0",
"0!	c #FFDEB3",
"a!	c #FFDCAF",
"b!	c #FEE2B7",
"c!	c #D2C1B0",
"d!	c #8A8CA6",
"e!	c #ABABB2",
"f!	c #85819A",
"g!	c #A59DA7",
"h!	c #EDD7B8",
"i!	c #EEA091",
"j!	c #78558C",
"k!	c #6487D5",
"l!	c #6696E7",
"m!	c #5A8AD8",
"n!	c #3A4B8A",
"o!	c #829C65",
"p!	c #7FA760",
"q!	c #7DA660",
"r!	c #7EA761",
"s!	c #7DA860",
"t!	c #7DA761",
"u!	c #7CA561",
"v!	c #7BA461",
"w!	c #78A15F",
"x!	c #6F9658",
"y!	c #638051",
"z!	c #404E35",
"A!	c #1E1A25",
"B!	c #2E4438",
"C!	c #719D66",
"D!	c #739F5C",
"E!	c #78A35E",
"F!	c #78A35C",
"G!	c #81AB60",
"H!	c #82AC60",
"I!	c #92A975",
"J!	c #9F9995",
"K!	c #605B77",
"L!	c #5878BE",
"M!	c #5F8EDA",
"N!	c #7B6392",
"O!	c #EBC5A1",
"P!	c #FEDEAF",
"Q!	c #D9C9B5",
"R!	c #676B96",
"S!	c #E4E1D6",
"T!	c #FFF5D4",
"U!	c #ABA4A6",
"V!	c #26377B",
"W!	c #BBAC9E",
"X!	c #F5DBB5",
"Y!	c #FEDFB3",
"Z!	c #FFE0B4",
"`!	c #FFDEB2",
" ~	c #FEE0B3",
".~	c #D5C3AF",
"+~	c #646695",
"@~	c #C7C5C5",
"#~	c #FEF5DA",
"$~	c #C1B8AF",
"%~	c #293A7A",
"&~	c #ACA29E",
"*~	c #EFD6B3",
"=~	c #FFDCAC",
"-~	c #A57C8D",
";~	c #7080C6",
">~	c #658BD5",
",~	c #434F8C",
"'~	c #8A6B84",
")~	c #A7A58B",
"!~	c #88A869",
"~~	c #7AA45F",
"{~	c #7BA460",
"]~	c #7CA662",
"^~	c #78A35F",
"/~	c #77A15E",
"(~	c #77A05E",
"_~	c #79A15F",
":~	c #78A060",
"<~	c #6F955B",
"[~	c #638059",
"}~	c #2B302B",
"|~	c #161422",
"1~	c #273C35",
"2~	c #6F9A68",
"3~	c #729D5D",
"4~	c #77A25E",
"5~	c #78A25C",
"6~	c #79A261",
"7~	c #79A162",
"8~	c #7AA360",
"9~	c #8AA16D",
"0~	c #91908A",
"a~	c #D6C8B1",
"b~	c #C2B19A",
"c~	c #53497D",
"d~	c #6D4B85",
"e~	c #E49D96",
"f~	c #FCD2A6",
"g~	c #FFDCAD",
"h~	c #7D728A",
"i~	c #223780",
"j~	c #B5B4AF",
"k~	c #E4DFC7",
"l~	c #898894",
"m~	c #243578",
"n~	c #24337A",
"o~	c #E6CBAB",
"p~	c #FFE0B5",
"q~	c #FFDFB3",
"r~	c #FEDFB2",
"s~	c #676182",
"t~	c #293A7F",
"u~	c #989AAA",
"v~	c #DBD6C3",
"w~	c #949196",
"x~	c #253577",
"y~	c #213479",
"z~	c #D6BCA3",
"A~	c #FFDBAE",
"B~	c #FAB08D",
"C~	c #A3627A",
"D~	c #473479",
"E~	c #867989",
"F~	c #EDC99B",
"G~	c #A0949E",
"H~	c #A2A486",
"I~	c #7FA767",
"J~	c #79A661",
"K~	c #7BA764",
"L~	c #76A15E",
"M~	c #739D5D",
"N~	c #759E5D",
"O~	c #779F5D",
"P~	c #79A063",
"Q~	c #769C65",
"R~	c #6C8D6A",
"S~	c #242F2D",
"T~	c #151422",
"U~	c #243834",
"V~	c #6B9665",
"W~	c #77A263",
"X~	c #79A361",
"Y~	c #759F5F",
"Z~	c #79A062",
"`~	c #78A061",
" {	c #78A063",
".{	c #78A062",
"+{	c #77975F",
"@{	c #898074",
"#{	c #D3C0A5",
"${	c #FEE1B4",
"%{	c #FDCB9F",
"&{	c #8F7485",
"*{	c #CD788D",
"={	c #FACBA7",
"-{	c #FFDAAC",
";{	c #7D738D",
">{	c #2464A9",
",{	c #243E85",
"'{	c #273D85",
"){	c #253B80",
"!{	c #205D9D",
"~{	c #1F4187",
"{{	c #E7CAA8",
"]{	c #FEE0B5",
"^{	c #FFE1B4",
"/{	c #FEDFB1",
"({	c #736C89",
"_{	c #2A6BAB",
":{	c #28488D",
"<{	c #283B80",
"[{	c #25377A",
"}{	c #205192",
"|{	c #224488",
"1{	c #D9C0A6",
"2{	c #F89B86",
"3{	c #804875",
"4{	c #E3B697",
"5{	c #FACCA1",
"6{	c #FDDEAF",
"7{	c #A28B98",
"8{	c #849573",
"9{	c #80A867",
"0{	c #79A664",
"a{	c #74A160",
"b{	c #739D5F",
"c{	c #719A60",
"d{	c #6F9661",
"e{	c #7A9F67",
"f{	c #7CA16A",
"g{	c #698B60",
"h{	c #628164",
"i{	c #1F2C2E",
"j{	c #141422",
"k{	c #213632",
"l{	c #689362",
"m{	c #76A264",
"n{	c #77A064",
"o{	c #638B56",
"p{	c #6F955F",
"q{	c #779F62",
"r{	c #779E61",
"s{	c #7B7E6D",
"t{	c #AB7C95",
"u{	c #EFCAA8",
"v{	c #FDA488",
"w{	c #FD756E",
"x{	c #824372",
"y{	c #D77E7F",
"z{	c #FDCEA2",
"A{	c #FEDAAC",
"B{	c #787CA6",
"C{	c #23ACE5",
"D{	c #295D9C",
"E{	c #20367C",
"F{	c #223A80",
"G{	c #2EA7DE",
"H{	c #2071B3",
"I{	c #E7CCAB",
"J{	c #FEE0B6",
"K{	c #FFE2B8",
"L{	c #FFE2B6",
"M{	c #FFE2B4",
"N{	c #FEDFB0",
"O{	c #6B6B90",
"P{	c #21ABE1",
"Q{	c #285D9E",
"R{	c #21367B",
"S{	c #22367E",
"T{	c #1E93CF",
"U{	c #237CB7",
"V{	c #D5BBA6",
"W{	c #FDA689",
"X{	c #804F78",
"Y{	c #DF6A76",
"Z{	c #F7736B",
"`{	c #FCC19A",
" ]	c #F5BFA0",
".]	c #2A2B71",
"+]	c #81A06F",
"@]	c #739F60",
"#]	c #749E60",
"$]	c #729B66",
"%]	c #4E6F4F",
"&]	c #709168",
"*]	c #7EA36F",
"=]	c #60825F",
"-]	c #4B6452",
";]	c #1B2326",
">]	c #141423",
",]	c #203532",
"']	c #639268",
")]	c #6E9960",
"!]	c #5C8157",
"~]	c #62855A",
"{]	c #749A5F",
"]]	c #769E60",
"^]	c #739C5D",
"/]	c #7C856B",
"(]	c #735B83",
"_]	c #E6C39E",
":]	c #F9937B",
"<]	c #F86669",
"[]	c #813A6F",
"}]	c #D9827C",
"|]	c #FED0A3",
"1]	c #CAC2C5",
"2]	c #5FC9EA",
"3]	c #30A9D5",
"4]	c #379DCA",
"5]	c #35A0CA",
"6]	c #3BC2EC",
"7]	c #B7C9D1",
"8]	c #C0AA96",
"9]	c #EADAB9",
"0]	c #FFECC5",
"a]	c #FEEAC0",
"b]	c #B6A397",
"c]	c #FEE3B9",
"d]	c #C6B5A9",
"e]	c #64C8E9",
"f]	c #2EAAD7",
"g]	c #3A9ACA",
"h]	c #359AC7",
"i]	c #2CBBE7",
"j]	c #A6CBD6",
"k]	c #EBD4B5",
"l]	c #FEB290",
"m]	c #80547E",
"n]	c #D96272",
"o]	c #F8706C",
"p]	c #FAAA88",
"q]	c #D59E9C",
"r]	c #323373",
"s]	c #7A996A",
"t]	c #6F9B61",
"u]	c #719B61",
"v]	c #749E61",
"w]	c #75A06C",
"x]	c #3B5C4A",
"y]	c #496450",
"z]	c #779A71",
"A]	c #678D66",
"B]	c #4F6F5A",
"C]	c #191D22",
"D]	c #141424",
"E]	c #1F3435",
"F]	c #5E8D69",
"G]	c #64925E",
"H]	c #659060",
"I]	c #59825B",
"J]	c #60885A",
"K]	c #689159",
"L]	c #6F9A5C",
"M]	c #709B5B",
"N]	c #584B7A",
"O]	c #DCA28A",
"P]	c #FC937C",
"Q]	c #FB696B",
"R]	c #883D72",
"S]	c #DE8D85",
"T]	c #FED4A6",
"U]	c #FFD8AB",
"V]	c #FBB590",
"W]	c #FAB19A",
"X]	c #D1D3CE",
"Y]	c #7FCCE9",
"Z]	c #3EC2EC",
"`]	c #3EC4EC",
" ^	c #BBD6D9",
".^	c #F2E1BE",
"+^	c #FEE2B5",
"@^	c #C3B097",
"#^	c #AD6076",
"$^	c #A59296",
"%^	c #ABA4A0",
"&^	c #AAA5A0",
"*^	c #AF5281",
"=^	c #BFB2A7",
"-^	c #FEE3BB",
";^	c #D4DDD4",
">^	c #72C6E8",
",^	c #3CBEEC",
"'^	c #3DC0EB",
")^	c #BADCDE",
"!^	c #E8C6B2",
"~^	c #F9B392",
"{^	c #FCB896",
"]^	c #FEDBB0",
"^^	c #FFB894",
"/^	c #815784",
"(^	c #D85E73",
"_^	c #FA7B75",
":^	c #FDA085",
"<^	c #AD708A",
"[^	c #3B3D7A",
"}^	c #86A072",
"|^	c #6F9B62",
"1^	c #6D9A62",
"2^	c #6B995D",
"3^	c #6F9C67",
"4^	c #385747",
"5^	c #354F45",
"6^	c #6A8C6B",
"7^	c #6B926B",
"8^	c #557762",
"9^	c #131525",
"0^	c #21373A",
"a^	c #598969",
"b^	c #5F905F",
"c^	c #5C8C5F",
"d^	c #56855D",
"e^	c #5B865A",
"f^	c #62885A",
"g^	c #6A945D",
"h^	c #6E9A5C",
"i^	c #719663",
"j^	c #5F6671",
"k^	c #966879",
"l^	c #E18A83",
"m^	c #FD827B",
"n^	c #D7717E",
"o^	c #B9757F",
"p^	c #F1D5AD",
"q^	c #FDB28C",
"r^	c #FD856B",
"s^	c #FE7D66",
"t^	c #F9AB91",
"u^	c #DDCDC5",
"v^	c #CFD1CB",
"w^	c #CFD2CA",
"x^	c #F5DEBA",
"y^	c #887882",
"z^	c #CF4365",
"A^	c #D24465",
"B^	c #C64165",
"C^	c #C63F5E",
"D^	c #F15C70",
"E^	c #3A336F",
"F^	c #FCDFBD",
"G^	c #FFDFB4",
"H^	c #D9D3C8",
"I^	c #CED2CB",
"J^	c #CCD4CD",
"K^	c #F0C8B0",
"L^	c #FC9781",
"M^	c #FE7E6A",
"N^	c #FE856D",
"O^	c #FCD5AC",
"P^	c #FBAC8E",
"Q^	c #D17286",
"R^	c #EB767B",
"S^	c #FD8F7F",
"T^	c #C87A80",
"U^	c #744C7C",
"V^	c #717E74",
"W^	c #7A9E6B",
"X^	c #6B9B61",
"Y^	c #67975E",
"Z^	c #689562",
"`^	c #3C5C4C",
" /	c #304C47",
"./	c #597C63",
"+/	c #66916B",
"@/	c #547863",
"#/	c #161F22",
"$/	c #121527",
"%/	c #1F393B",
"&/	c #508566",
"*/	c #54875F",
"=/	c #517B60",
"-/	c #39594A",
";/	c #30453D",
">/	c #384E3F",
",/	c #5C8158",
"'/	c #67945C",
")/	c #6C9C5D",
"!/	c #6D9066",
"~/	c #5C6470",
"{/	c #885C7B",
"]/	c #DE8486",
"^/	c #FD8F89",
"//	c #88507B",
"(/	c #E5CCAB",
"_/	c #FCC49E",
":/	c #FC9277",
"</	c #FD7E67",
"[/	c #FC836A",
"}/	c #FCCDA5",
"|/	c #FFDBB0",
"1/	c #FFDDB2",
"2/	c #D3BBA8",
"3/	c #A1627F",
"4/	c #E7665C",
"5/	c #FE7556",
"6/	c #FD7557",
"7/	c #CB4F62",
"8/	c #BFA499",
"9/	c #FDDEB7",
"0/	c #FFDCB1",
"a/	c #FEDDB1",
"b/	c #FEAE8B",
"c/	c #FF806A",
"d/	c #FE8069",
"e/	c #FBAE93",
"f/	c #FDE0B5",
"g/	c #D09085",
"h/	c #DD7B8B",
"i/	c #F58C86",
"j/	c #EF8789",
"k/	c #854F79",
"l/	c #727B6F",
"m/	c #699460",
"n/	c #6B9962",
"o/	c #6C9A65",
"p/	c #6A9963",
"q/	c #679660",
"r/	c #618E62",
"s/	c #3A5F50",
"t/	c #2F4E4C",
"u/	c #496E5B",
"v/	c #64916E",
"w/	c #557A66",
"x/	c #151F23",
"y/	c #1C3939",
"z/	c #427B62",
"A/	c #3E7059",
"B/	c #294546",
"C/	c #1A253D",
"D/	c #466054",
"E/	c #88AE7D",
"F/	c #89B578",
"G/	c #6D9C5E",
"H/	c #66955D",
"I/	c #6B9960",
"J/	c #73926B",
"K/	c #5C6673",
"L/	c #7E5478",
"M/	c #98607D",
"N/	c #533C7A",
"O/	c #E2A394",
"P/	c #FEC7A2",
"Q/	c #FCC199",
"R/	c #FBBB95",
"S/	c #FCBE97",
"T/	c #FED7AC",
"U/	c #FFDBAF",
"V/	c #FEDDB5",
"W/	c #D8C2A8",
"X/	c #B67C80",
"Y/	c #AF626D",
"Z/	c #B1656A",
"`/	c #DCB096",
" (	c #F7D8AF",
".(	c #FFDCB0",
"+(	c #FED0A7",
"@(	c #FBBD98",
"#(	c #FCBA95",
"$(	c #FCD7AD",
"%(	c #F7C1A0",
"&(	c #A47280",
"*(	c #865483",
"=(	c #9A5F82",
"-(	c #8D577F",
";(	c #828278",
">(	c #6D9363",
",(	c #66925E",
"'(	c #648F5F",
")(	c #669063",
"!(	c #669565",
"~(	c #659465",
"{(	c #527E5E",
"](	c #375F54",
"^(	c #305452",
"/(	c #3E6458",
"((	c #5B866B",
"_(	c #476B5B",
":(	c #161E25",
"<(	c #121526",
"[(	c #1E3A3B",
"}(	c #3C7364",
"|(	c #315250",
"1(	c #212C40",
"2(	c #456261",
"3(	c #709C79",
"4(	c #91C57F",
"5(	c #94C77B",
"6(	c #86B96E",
"7(	c #5D8D5C",
"8(	c #629163",
"9(	c #639361",
"0(	c #708C6E",
"a(	c #69836F",
"b(	c #67826C",
"c(	c #67806A",
"d(	c #A1717A",
"e(	c #EC9B8A",
"f(	c #F9AB8F",
"g(	c #FBD5AE",
"h(	c #FFDEB4",
"i(	c #D9C0A9",
"j(	c #D0B5A0",
"k(	c #D2B69D",
"l(	c #FADAAE",
"m(	c #FEDCAF",
"n(	c #FEDBAC",
"o(	c #FBC59D",
"p(	c #FCBC97",
"q(	c #F09590",
"r(	c #865A86",
"s(	c #778175",
"t(	c #5B7B64",
"u(	c #627E68",
"v(	c #709066",
"w(	c #648F60",
"x(	c #618B5F",
"y(	c #59815C",
"z(	c #577E5F",
"A(	c #598261",
"B(	c #567D62",
"C(	c #22433E",
"D(	c #315C5A",
"E(	c #315C5C",
"F(	c #345E58",
"G(	c #3F6A60",
"H(	c #406258",
"I(	c #111325",
"J(	c #192935",
"K(	c #253F46",
"L(	c #172038",
"M(	c #334D4C",
"N(	c #629474",
"O(	c #72AA7D",
"P(	c #82B67C",
"Q(	c #8CBF7B",
"R(	c #85B875",
"S(	c #5B8562",
"T(	c #4A6F5C",
"U(	c #426355",
"V(	c #304848",
"W(	c #2B4343",
"X(	c #5A7E5F",
"Y(	c #6A9367",
"Z(	c #95957C",
"`(	c #AB7C83",
" _	c #ED8A81",
"._	c #FDAF95",
"+_	c #FEB396",
"@_	c #FED5AB",
"#_	c #FFDEB5",
"$_	c #FABE9A",
"%_	c #FDB693",
"&_	c #FDA485",
"*_	c #E38483",
"=_	c #A86688",
"-_	c #707772",
";_	c #739369",
">_	c #669061",
",_	c #658E60",
"'_	c #628D61",
")_	c #5E8A60",
"!_	c #59855E",
"~_	c #537F5F",
"{_	c #517D61",
"]_	c #51805E",
"^_	c #4A7661",
"/_	c #25454C",
"(_	c #325D5F",
"__	c #305F5C",
":_	c #2F5F58",
"<_	c #346459",
"[_	c #426A5F",
"}_	c #132026",
"|_	c #151726",
"1_	c #10121E",
"2_	c #111323",
"3_	c #1D2E37",
"4_	c #517E71",
"5_	c #5E9376",
"6_	c #629C75",
"7_	c #6C9F79",
"8_	c #6A9F6D",
"9_	c #7EB374",
"0_	c #49735A",
"a_	c #20313E",
"b_	c #1A2938",
"c_	c #425F5C",
"d_	c #364E4C",
"e_	c #345346",
"f_	c #5F8664",
"g_	c #7E996D",
"h_	c #8C8F80",
"i_	c #AC7A86",
"j_	c #EA8B85",
"k_	c #FF917F",
"l_	c #FEAD91",
"m_	c #FEB395",
"n_	c #FEBF9D",
"o_	c #FED8AF",
"p_	c #FEDFB4",
"q_	c #FFE0B6",
"r_	c #FEDEB5",
"s_	c #FED0A6",
"t_	c #FDBA97",
"u_	c #FEB997",
"v_	c #FE9D83",
"w_	c #FE907A",
"x_	c #BE7276",
"y_	c #89527D",
"z_	c #5E6D6B",
"A_	c #6A8C65",
"B_	c #668D63",
"C_	c #648E63",
"D_	c #628D62",
"E_	c #5F8964",
"F_	c #5E8865",
"G_	c #588262",
"H_	c #517D62",
"I_	c #4D7B5F",
"J_	c #4B7D5D",
"K_	c #417260",
"L_	c #21474A",
"M_	c #305F5D",
"N_	c #31615B",
"O_	c #2E615B",
"P_	c #30625A",
"Q_	c #38695F",
"R_	c #0F1F28",
"S_	c #212329",
"T_	c #101120",
"U_	c #131E28",
"V_	c #3E625D",
"W_	c #4D7F6F",
"X_	c #4F846E",
"Y_	c #4F876D",
"Z_	c #4F8069",
"`_	c #4F8264",
" :	c #76A679",
".:	c #2F4B42",
"+:	c #1A3140",
"@:	c #35524E",
"#:	c #578D72",
"$:	c #4E7D68",
"%:	c #2A4A48",
"&:	c #466858",
"*:	c #618B63",
"=:	c #638A5F",
"-:	c #81897A",
";:	c #9F707B",
">:	c #9F6980",
",:	c #9A6982",
"':	c #EC8A85",
"):	c #FE9985",
"!:	c #FEAD92",
"~:	c #FEB698",
"{:	c #FEBA9A",
"]:	c #FFBE9C",
"^:	c #FEBD9D",
"/:	c #FFBD9D",
"(:	c #FFBC9D",
"_:	c #FFBB9C",
"::	c #FEBA9B",
"<:	c #FFB798",
"[:	c #FFB394",
"}:	c #FEA88C",
"|:	c #FF9981",
"1:	c #C17677",
"2:	c #A2667B",
"3:	c #9F637F",
"4:	c #797074",
"5:	c #64776B",
"6:	c #658964",
"7:	c #648B67",
"8:	c #628A64",
"9:	c #5E8A67",
"0:	c #405D49",
"a:	c #33473D",
"b:	c #364B41",
"c:	c #3C5349",
"d:	c #3E5D50",
"e:	c #436C5C",
"f:	c #477861",
"g:	c #3E695F",
"h:	c #1C4146",
"i:	c #2D5C5A",
"j:	c #305E59",
"k:	c #34605D",
"l:	c #2E5A58",
"m:	c #254B4C",
"n:	c #0D1B29",
"o:	c #191A29",
"p:	c #0F1124",
"q:	c #243D40",
"r:	c #3E6C62",
"s:	c #417667",
"t:	c #427869",
"u:	c #417468",
"v:	c #417166",
"w:	c #457767",
"x:	c #517764",
"y:	c #122131",
"z:	c #254446",
"A:	c #4D7E72",
"B:	c #528A70",
"C:	c #588E70",
"D:	c #3A6058",
"E:	c #3C5C51",
"F:	c #5F8861",
"G:	c #60885E",
"H:	c #5E8759",
"I:	c #637963",
"J:	c #5C6D61",
"K:	c #5A7264",
"L:	c #A5697F",
"M:	c #A76175",
"N:	c #A05C74",
"O:	c #A35E73",
"P:	c #A66174",
"Q:	c #A76776",
"R:	c #C2737D",
"S:	c #E37979",
"T:	c #F68279",
"U:	c #FA867C",
"V:	c #FB857A",
"W:	c #B46B7D",
"X:	c #A36875",
"Y:	c #9D6374",
"Z:	c #9B6074",
"`:	c #A15F75",
" <	c #A66477",
".<	c #957F7E",
"+<	c #6A7B6D",
"@<	c #5B6C69",
"#<	c #647B6A",
"$<	c #5A8266",
"%<	c #5C8665",
"&<	c #5D8764",
"*<	c #5C8763",
"=<	c #578366",
"-<	c #213536",
";<	c #303F3B",
"><	c #404F48",
",<	c #2D3C35",
"'<	c #151F1E",
")<	c #11121B",
"!<	c #1B292F",
"~<	c #1A3138",
"{<	c #1E434C",
"]<	c #265555",
"^<	c #265551",
"/<	c #264D4F",
"(<	c #15343F",
"_<	c #0E283B",
":<	c #0C192B",
"<<	c #151628",
"[<	c #0C1123",
"}<	c #2B4D4D",
"|<	c #36665E",
"1<	c #376C63",
"2<	c #3A6E65",
"3<	c #396A65",
"4<	c #376966",
"5<	c #356765",
"6<	c #1C3640",
"7<	c #101B2E",
"8<	c #437268",
"9<	c #4C8371",
"0<	c #4D836C",
"a<	c #548A6F",
"b<	c #3D635A",
"c<	c #284642",
"d<	c #567D5C",
"e<	c #5B845A",
"f<	c #5A8454",
"g<	c #608454",
"h<	c #847880",
"i<	c #3F4D72",
"j<	c #BF6964",
"k<	c #895163",
"l<	c #7D79AB",
"m<	c #9590BF",
"n<	c #9B91BC",
"o<	c #ACA0C7",
"p<	c #81638C",
"q<	c #743A72",
"r<	c #7F4071",
"s<	c #834270",
"t<	c #48347B",
"u<	c #B39EC5",
"v<	c #A397BF",
"w<	c #918FB4",
"x<	c #313B7A",
"y<	c #3C60A2",
"z<	c #494A6C",
"A<	c #ACA284",
"B<	c #727762",
"C<	c #293B46",
"D<	c #273A44",
"E<	c #30494A",
"F<	c #36544D",
"G<	c #3D5C55",
"H<	c #324F48",
"I<	c #324433",
"J<	c #BDDC9D",
"K<	c #C9E9A4",
"L<	c #C5E7A2",
"M<	c #B1DA9A",
"N<	c #50644D",
"O<	c #131523",
"P<	c #121B30",
"Q<	c #1E3C4B",
"R<	c #285358",
"S<	c #235254",
"T<	c #1C404B",
"U<	c #0E2139",
"V<	c #0F2038",
"W<	c #0C182B",
"X<	c #131326",
"Y<	c #091222",
"Z<	c #2B5251",
"`<	c #2F625D",
" [	c #326663",
".[	c #346865",
"+[	c #326664",
"@[	c #316665",
"#[	c #336064",
"$[	c #1D2F40",
"%[	c #1F3438",
"&[	c #47796C",
"*[	c #457C6D",
"=[	c #497D6C",
"-[	c #518570",
";[	c #3D645B",
">[	c #1C373C",
",[	c #496F54",
"'[	c #768C60",
")[	c #827888",
"![	c #575A87",
"~[	c #D4BEA8",
"{[	c #EBD5B2",
"][	c #AE8F90",
"^[	c #553864",
"/[	c #9795BB",
"([	c #C1BADB",
"_[	c #C1BBDE",
":[	c #BEBBE2",
"<[	c #B3B3D6",
"[[	c #B8BDD7",
"}[	c #4C4C85",
"|[	c #B3ABC7",
"1[	c #B5ADD3",
"2[	c #B7AED5",
"3[	c #C9BCE2",
"4[	c #C5BFE2",
"5[	c #ABB2D3",
"6[	c #394F8E",
"7[	c #5291D9",
"8[	c #3966A0",
"9[	c #64607D",
"0[	c #B7A387",
"a[	c #766C58",
"b[	c #2D4142",
"c[	c #1C2C36",
"d[	c #172531",
"e[	c #16202E",
"f[	c #151727",
"g[	c #394C33",
"h[	c #CBEF9F",
"i[	c #D4F79F",
"j[	c #D1F79F",
"k[	c #CBF69E",
"l[	c #BAE097",
"m[	c #6D8665",
"n[	c #14212F",
"o[	c #0F1929",
"p[	c #182E3B",
"q[	c #163041",
"r[	c #102236",
"s[	c #0B1D2D",
"t[	c #0A1927",
"u[	c #0D172A",
"v[	c #121224",
"w[	c #0B1124",
"x[	c #2A5455",
"y[	c #2C635D",
"z[	c #2D6161",
"A[	c #306364",
"B[	c #336565",
"C[	c #336564",
"D[	c #326064",
"E[	c #1A2F3F",
"F[	c #294747",
"G[	c #42746C",
"H[	c #41756B",
"I[	c #3F7366",
"J[	c #4C786A",
"K[	c #325450",
"L[	c #192B35",
"M[	c #4A6655",
"N[	c #605E71",
"O[	c #303E81",
"P[	c #FEE0B7",
"Q[	c #FCDCB4",
"R[	c #A2878B",
"S[	c #464378",
"T[	c #827BA5",
"U[	c #ECE8D5",
"V[	c #FDFBE2",
"W[	c #FCF9E3",
"X[	c #83879F",
"Y[	c #333A7F",
"Z[	c #393F7F",
"`[	c #F6F1DF",
" }	c #FDFAE2",
".}	c #FDFBE3",
"+}	c #B7B9D7",
"@}	c #2E4287",
"#}	c #54C1ED",
"$}	c #4FC0EF",
"%}	c #45AEE3",
"&}	c #3A6BA5",
"*}	c #36366E",
"=}	c #8F8371",
"-}	c #7AA676",
";}	c #76AF7B",
">}	c #70A775",
",}	c #5D8A62",
"'}	c #1B2C2B",
")}	c #1B2D24",
"!}	c #BBDE94",
"~}	c #D3F99D",
"{}	c #D4F89F",
"]}	c #D1F599",
"^}	c #C9EE94",
"/}	c #ADD78F",
"(}	c #648464",
"_}	c #0F1A23",
":}	c #0A0E23",
"<}	c #0E1D30",
"[}	c #456956",
"}}	c #497155",
"|}	c #2E4B45",
"1}	c #11192A",
"2}	c #0E0E23",
"3}	c #080F22",
"4}	c #285355",
"5}	c #295F5B",
"6}	c #2B5E5F",
"7}	c #306365",
"8}	c #306765",
"9}	c #2D6562",
"0}	c #2A5D60",
"a}	c #1A3443",
"b}	c #29484D",
"c}	c #366664",
"d}	c #356863",
"e}	c #386B60",
"f}	c #2C4F4C",
"g}	c #182531",
"h}	c #1B2530",
"i}	c #383767",
"j}	c #2F4089",
"k}	c #E8D7B9",
"l}	c #CC9492",
"m}	c #63ABD6",
"n}	c #3D6CA3",
"o}	c #363979",
"p}	c #2C347A",
"q}	c #273178",
"r}	c #3F92D7",
"s}	c #5BD1F8",
"t}	c #50AEE7",
"u}	c #2B2F6B",
"v}	c #2E316D",
"w}	c #2E326E",
"x}	c #2D3074",
"y}	c #55C1EE",
"z}	c #52CDF5",
"A}	c #4DCBF5",
"B}	c #4BCAF6",
"C}	c #4BC3EF",
"D}	c #488AC6",
"E}	c #343E87",
"F}	c #B2AE8D",
"G}	c #83BA76",
"H}	c #7BBB73",
"I}	c #75B86F",
"J}	c #466C4F",
"K}	c #1B2829",
"L}	c #89A76B",
"M}	c #BFE48E",
"N}	c #C6EB91",
"O}	c #C6EA8E",
"P}	c #C2E58B",
"Q}	c #B4DC88",
"R}	c #9CC784",
"S}	c #364842",
"T}	c #090B24",
"U}	c #223A37",
"V}	c #558267",
"W}	c #4C7958",
"X}	c #496B61",
"Y}	c #0E1320",
"Z}	c #0D0D21",
"`}	c #050F23",
" |	c #234E51",
".|	c #265656",
"+|	c #20424E",
"@|	c #244655",
"#|	c #285158",
"$|	c #29585D",
"%|	c #29545E",
"&|	c #173448",
"*|	c #22484E",
"=|	c #295F5D",
"-|	c #2F605F",
";|	c #315B5B",
">|	c #1A393A",
",|	c #284236",
"'|	c #7F7586",
")|	c #505D9C",
"!|	c #3BC2E7",
"~|	c #E4C0B1",
"{|	c #FDD5AC",
"]|	c #FEDBAF",
"^|	c #FEDAAE",
"/|	c #C39092",
"(|	c #62A7D6",
"_|	c #5BC9EE",
":|	c #53ACE6",
"<|	c #49AEE9",
"[|	c #5FCCF5",
"}|	c #5EDBF8",
"||	c #5CD8F8",
"1|	c #54CDF0",
"2|	c #56CBF6",
"3|	c #58AEE9",
"4|	c #53ACE7",
"5|	c #5DCCF7",
"6|	c #51CCF5",
"7|	c #52CBF8",
"8|	c #4CCFF8",
"9|	c #4ACCF7",
"0|	c #4BCAF5",
"a|	c #4DC8F5",
"b|	c #4095DB",
"c|	c #304988",
"d|	c #ABB28F",
"e|	c #7EB575",
"f|	c #6DB36A",
"g|	c #598A60",
"h|	c #1D2930",
"i|	c #56714D",
"j|	c #A2C97C",
"k|	c #A7CF7A",
"l|	c #ADD57F",
"m|	c #AAD27E",
"n|	c #A6CE81",
"o|	c #9BC77F",
"p|	c #59755F",
"q|	c #0B0F20",
"r|	c #355443",
"s|	c #588666",
"t|	c #517F5E",
"u|	c #507465",
"v|	c #11131E",
"w|	c #0C0B21",
"x|	c #060B22",
"y|	c #132933",
"z|	c #11212A",
"A|	c #101C26",
"B|	c #0C1922",
"C|	c #0F1C22",
"D|	c #0F1A22",
"E|	c #0F2031",
"F|	c #152D42",
"G|	c #254D52",
"H|	c #275C5A",
"I|	c #285757",
"J|	c #1E3E47",
"K|	c #5E8664",
"L|	c #87BD79",
"M|	c #53686D",
"N|	c #4578CA",
"O|	c #42C6F0",
"P|	c #CBA3BA",
"Q|	c #F6BCA1",
"R|	c #FDC09C",
"S|	c #EEA68E",
"T|	c #E7907F",
"U|	c #864C6D",
"V|	c #4A9CCC",
"W|	c #54CCF3",
"X|	c #4ECCF5",
"Y|	c #50CBF5",
"Z|	c #68D4F0",
"`|	c #62718E",
" 1	c #6A5777",
".1	c #635074",
"+1	c #67C4E9",
"@1	c #52CBF5",
"#1	c #4ECAF2",
"$1	c #4FCCF5",
"%1	c #50BCE5",
"&1	c #3F70A9",
"*1	c #53C8F3",
"=1	c #4CCCF7",
"-1	c #4AC9F5",
";1	c #65CEF3",
">1	c #5ECDF0",
",1	c #4D7099",
"'1	c #4A3C73",
")1	c #819B7A",
"!1	c #60A26E",
"~1	c #609672",
"{1	c #1F3534",
"]1	c #192C29",
"^1	c #7FA372",
"/1	c #93BF7A",
"(1	c #91BB77",
"_1	c #8CB572",
":1	c #87B576",
"<1	c #668C70",
"[1	c #122528",
"}1	c #456A54",
"|1	c #598764",
"11	c #528062",
"21	c #4B7263",
"31	c #10141D",
"41	c #090D23",
"51	c #142124",
"61	c #607958",
"71	c #90B084",
"81	c #8DAE7A",
"91	c #9EC389",
"01	c #9ABC83",
"a1	c #769A6B",
"b1	c #192A27",
"c1	c #15272F",
"d1	c #22434F",
"e1	c #16313C",
"f1	c #203C3C",
"g1	c #91C28C",
"h1	c #93C975",
"i1	c #738474",
"j1	c #4C71B9",
"k1	c #4CB1E5",
"l1	c #679FDF",
"m1	c #D18FAA",
"n1	c #E68A9C",
"o1	c #84517E",
"p1	c #795C6B",
"q1	c #6F476C",
"r1	c #4A5EA0",
"s1	c #51BFED",
"t1	c #4ECCF7",
"u1	c #4BCEF7",
"v1	c #456897",
"w1	c #E6D762",
"x1	c #FDEA48",
"y1	c #FBD43D",
"z1	c #333374",
"A1	c #5CCDF7",
"B1	c #4DCCF5",
"C1	c #4CCCF6",
"D1	c #4BBBE7",
"E1	c #3C509A",
"F1	c #4E85B9",
"G1	c #4DC8F6",
"H1	c #48C9F6",
"I1	c #B2DAE9",
"J1	c #BED2D9",
"K1	c #F1D9B5",
"L1	c #877276",
"M1	c #616662",
"N1	c #44695B",
"O1	c #3B675C",
"P1	c #213D41",
"Q1	c #1E333F",
"R1	c #2E5042",
"S1	c #67956D",
"T1	c #72A570",
"U1	c #72A46D",
"V1	c #75A06B",
"W1	c #6D9A6C",
"X1	c #5A8369",
"Y1	c #213D3B",
"Z1	c #49725C",
"`1	c #588567",
" 2	c #4B7A65",
".2	c #366258",
"+2	c #0F1720",
"@2	c #06132F",
"#2	c #1B2C35",
"$2	c #8BA87B",
"%2	c #C5E49D",
"&2	c #C2E597",
"*2	c #C5EA95",
"=2	c #BEE58C",
"-2	c #BEE68C",
";2	c #B2DF8A",
">2	c #5D8458",
",2	c #172324",
"'2	c #131E2E",
")2	c #365248",
"!2	c #7AAA83",
"~2	c #99CD8A",
"{2	c #92C775",
"]2	c #90C276",
"^2	c #576E6D",
"/2	c #5785C7",
"(2	c #528DDA",
"_2	c #518BDB",
":2	c #518BDC",
"<2	c #73568D",
"[2	c #E6B448",
"}2	c #AF7D65",
"|2	c #4A4B8F",
"12	c #52BEEA",
"22	c #50CDF6",
"32	c #4BCDF6",
"42	c #4B7FAE",
"52	c #D39C4C",
"62	c #E8AA32",
"72	c #E7913C",
"82	c #3C4D84",
"92	c #57CBF7",
"02	c #4ECBF3",
"a2	c #4CCBF5",
"b2	c #4BBFED",
"c2	c #4670B4",
"d2	c #4065A2",
"e2	c #52AEE7",
"f2	c #5BC3EF",
"g2	c #88C2E5",
"h2	c #E7DDC4",
"i2	c #FDDBAB",
"j2	c #836E7A",
"k2	c #726790",
"l2	c #5C555C",
"m2	c #162432",
"n2	c #102331",
"o2	c #193241",
"p2	c #204347",
"q2	c #31594D",
"r2	c #5E8C68",
"s2	c #609364",
"t2	c #5D8D61",
"u2	c #598666",
"v2	c #456E5E",
"w2	c #224142",
"x2	c #386258",
"y2	c #427063",
"z2	c #396E64",
"A2	c #34615F",
"B2	c #101923",
"C2	c #06112C",
"D2	c #487765",
"E2	c #8CB980",
"F2	c #AFD88E",
"G2	c #B7E092",
"H2	c #BBE491",
"I2	c #BBE591",
"J2	c #C5EE98",
"K2	c #C6E98F",
"L2	c #8FB779",
"M2	c #16252C",
"N2	c #101527",
"O2	c #47614A",
"P2	c #94C683",
"Q2	c #93C576",
"R2	c #88BA6F",
"S2	c #81AF74",
"T2	c #68946D",
"U2	c #48536A",
"V2	c #4D6CBB",
"W2	c #4F77C7",
"X2	c #744784",
"Y2	c #E27E4E",
"Z2	c #FEBA35",
"`2	c #A77367",
" 3	c #484387",
".3	c #51BBE5",
"+3	c #4FCDF5",
"@3	c #4ECDF6",
"#3	c #51D1F6",
"$3	c #507EAE",
"%3	c #456699",
"&3	c #49699B",
"*3	c #56C4EF",
"=3	c #50CBF4",
"-3	c #4FCAF4",
";3	c #4BCAF4",
">3	c #4EC1F0",
",3	c #4D7CC3",
"'3	c #3B4C8D",
")3	c #4865AF",
"!3	c #8B85C3",
"~3	c #E1C2AD",
"{3	c #FED7A9",
"]3	c #EBB198",
"^3	c #977582",
"/3	c #AEB688",
"(3	c #82AC73",
"_3	c #466446",
":3	c #15262E",
"<3	c #192234",
"[3	c #142135",
"}3	c #182C3B",
"|3	c #36574C",
"13	c #4D795E",
"23	c #507C60",
"33	c #497461",
"43	c #355F59",
"53	c #23474D",
"63	c #33625F",
"73	c #376A60",
"83	c #336D5F",
"93	c #315F5D",
"03	c #0F1824",
"a3	c #051231",
"b3	c #457F6D",
"c3	c #508F72",
"d3	c #57926F",
"e3	c #579268",
"f3	c #5E9869",
"g3	c #669F6B",
"h3	c #70A86E",
"i3	c #88B878",
"j3	c #7BA578",
"k3	c #1B2F3B",
"l3	c #213B39",
"m3	c #5F8A69",
"n3	c #85BC79",
"o3	c #81B673",
"p3	c #7BAC72",
"q3	c #669169",
"r3	c #5A836A",
"s3	c #4A7065",
"t3	c #3E3766",
"u3	c #743C66",
"v3	c #DE624B",
"w3	c #FBA931",
"x3	c #F5B03F",
"y3	c #A36A6A",
"z3	c #495292",
"A3	c #52BCE8",
"B3	c #4FCEF6",
"C3	c #4FCDF7",
"D3	c #4ECDF7",
"E3	c #50CBF6",
"F3	c #50CAF4",
"G3	c #51CCF6",
"H3	c #4CCBF6",
"I3	c #4BCBF6",
"J3	c #53BEEE",
"K3	c #5892E0",
"L3	c #507EC8",
"M3	c #324083",
"N3	c #B56274",
"O3	c #DE777D",
"P3	c #E27F86",
"Q3	c #916F73",
"R3	c #BCC38A",
"S3	c #A4CE7B",
"T3	c #9DC179",
"U3	c #88B975",
"V3	c #658C63",
"W3	c #3B3E3B",
"X3	c #101529",
"Y3	c #141A2D",
"Z3	c #141E31",
"`3	c #162636",
" 4	c #1F313A",
".4	c #1D353B",
"+4	c #1B3A45",
"@4	c #234451",
"#4	c #346460",
"$4	c #356560",
"%4	c #2D665E",
"&4	c #2B5B59",
"*4	c #0E1723",
"=4	c #051135",
"-4	c #34605F",
";4	c #447B70",
">4	c #447D69",
",4	c #4A8469",
"'4	c #4C8768",
")4	c #4C866A",
"!4	c #4E8B68",
"~4	c #4E8E69",
"{4	c #4C8166",
"]4	c #1A3136",
"^4	c #4D7A66",
"/4	c #70AA77",
"(4	c #75AB72",
"_4	c #6FA172",
":4	c #567E60",
"<4	c #557E68",
"[4	c #517D69",
"}4	c #487066",
"|4	c #615172",
"14	c #CA736C",
"24	c #E67C55",
"34	c #E68550",
"44	c #C8576E",
"54	c #765391",
"64	c #5581C6",
"74	c #5DBEF1",
"84	c #54C6F4",
"94	c #54C6F5",
"04	c #53C5F5",
"a4	c #52C5F5",
"b4	c #52C4F3",
"c4	c #51C4F3",
"d4	c #50C4F4",
"e4	c #51C5F4",
"f4	c #53C1F0",
"g4	c #528DDB",
"h4	c #5490DD",
"i4	c #5392E1",
"j4	c #3E68AC",
"k4	c #403D72",
"l4	c #4A5874",
"m4	c #5A6973",
"n4	c #B3C08B",
"o4	c #A2CC7B",
"p4	c #A9C37D",
"q4	c #736671",
"r4	c #6B4674",
"s4	c #744874",
"t4	c #767A66",
"u4	c #25242D",
"v4	c #0D1426",
"w4	c #152033",
"x4	c #172833",
"y4	c #3C5344",
"z4	c #48664B",
"A4	c #324D3F",
"B4	c #132E37",
"C4	c #2F5A59",
"D4	c #2E5F5A",
"E4	c #265F58",
"F4	c #235252",
"G4	c #0B1422",
"H4	c #081135",
"I4	c #192C3B",
"J4	c #325B61",
"K4	c #326566",
"L4	c #386D68",
"M4	c #367265",
"N4	c #377365",
"O4	c #377463",
"P4	c #387661",
"Q4	c #376D60",
"R4	c #152E35",
"S4	c #55836D",
"T4	c #6EA472",
"U4	c #6CA079",
"V4	c #53816C",
"W4	c #446C62",
"X4	c #51796C",
"Y4	c #4E7A6A",
"Z4	c #436B65",
"`4	c #7F6B69",
" 5	c #5B557E",
".5	c #46427A",
"+5	c #444C8D",
"@5	c #415494",
"#5	c #5B8BD0",
"$5	c #5A9BE6",
"%5	c #5A9AE4",
"&5	c #5B99E4",
"*5	c #5B97E4",
"=5	c #5A96E4",
"-5	c #5B96E4",
";5	c #5B96E3",
">5	c #5B95E1",
",5	c #5B97E2",
"'5	c #5A98E3",
")5	c #5996E2",
"!5	c #5794DF",
"~5	c #5693DE",
"{5	c #5691E1",
"]5	c #4168AC",
"^5	c #5A5368",
"/5	c #40635D",
"(5	c #649673",
"_5	c #73A875",
":5	c #97AF7B",
"<5	c #7C6177",
"[5	c #E98A72",
"}5	c #FDB27F",
"|5	c #FC9168",
"15	c #914F78",
"25	c #645454",
"35	c #2B2A34",
"45	c #3B5647",
"55	c #74A171",
"65	c #80B374",
"75	c #75AA68",
"85	c #619A65",
"95	c #1E4132",
"05	c #19383E",
"a5	c #27585B",
"b5	c #215556",
"c5	c #133538",
"d5	c #0C101F",
"e5	c #717874",
"f5	c #070A18",
"g5	c #071422",
"h5	c #112736",
"i5	c #213D4B",
"j5	c #254755",
"k5	c #264955",
"l5	c #234652",
"m5	c #23404F",
"n5	c #1D3846",
"o5	c #18333D",
"p5	c #446D64",
"q5	c #517F65",
"r5	c #4B7463",
"s5	c #375F58",
"t5	c #436C65",
"u5	c #4D776B",
"v5	c #497666",
"w5	c #3E6863",
"x5	c #21464E",
"y5	c #24585F",
"z5	c #5F5A73",
"A5	c #5D7BC0",
"B5	c #5F93DB",
"C5	c #5598DE",
"D5	c #549FE6",
"E5	c #599CE5",
"F5	c #5B9AE4",
"G5	c #5C99E4",
"H5	c #578BD3",
"I5	c #5388CE",
"J5	c #5388D0",
"K5	c #5489D1",
"L5	c #588DD5",
"M5	c #5C9AE5",
"N5	c #5897E4",
"O5	c #5695E1",
"P5	c #5593DE",
"Q5	c #548FD9",
"R5	c #548FDA",
"S5	c #4567AA",
"T5	c #544B5B",
"U5	c #102633",
"V5	c #295A58",
"W5	c #347869",
"X5	c #706484",
"Y5	c #E77669",
"Z5	c #FAEDD6",
"`5	c #FEFADD",
" 6	c #FEF3CA",
".6	c #F99478",
"+6	c #763C74",
"@6	c #4D4349",
"#6	c #6C9572",
"$6	c #7BAE74",
"%6	c #7CB36C",
"&6	c #77AE67",
"*6	c #69A564",
"=6	c #4A7E61",
"-6	c #0D2030",
";6	c #102E3E",
">6	c #0E2333",
",6	c #0A0B1C",
"'6	c #0C0C1D",
")6	c #4B5049",
"!6	c #070A1F",
"~6	c #070A1A",
"{6	c #080B19",
"]6	c #091225",
"^6	c #101F34",
"/6	c #142438",
"(6	c #142539",
"_6	c #16273E",
":6	c #1B3341",
"<6	c #294F51",
"[6	c #2F5856",
"}6	c #2E5954",
"|6	c #2F5854",
"16	c #335C58",
"26	c #3B655F",
"36	c #738974",
"46	c #4D7566",
"56	c #3A6661",
"66	c #20494E",
"76	c #1B3E4C",
"86	c #756C62",
"96	c #736784",
"06	c #674385",
"a6	c #6F4A93",
"b6	c #5A84D0",
"c6	c #5390D9",
"d6	c #5591DA",
"e6	c #5493DB",
"f6	c #39437E",
"g6	c #756477",
"h6	c #7B6A7B",
"i6	c #7A6D80",
"j6	c #3A3B79",
"k6	c #6299E2",
"l6	c #5C99E0",
"m6	c #5691DC",
"n6	c #5981CC",
"o6	c #5B4488",
"p6	c #573F7E",
"q6	c #433673",
"r6	c #504B5C",
"s6	c #24232D",
"t6	c #112A33",
"u6	c #27605F",
"v6	c #6C638A",
"w6	c #E9E8E1",
"x6	c #F47775",
"y6	c #FCEEDB",
"z6	c #F87F74",
"A6	c #F7E5CA",
"B6	c #857684",
"C6	c #82727F",
"D6	c #73A370",
"E6	c #73A86C",
"F6	c #79AE6D",
"G6	c #71A665",
"H6	c #67A363",
"I6	c #457C5E",
"J6	c #102239",
"K6	c #0D1833",
"L6	c #0D0C2A",
"M6	c #0D0A1E",
"N6	c #111628",
"O6	c #0D0C25",
"P6	c #070F20",
"Q6	c #142C31",
"R6	c #2A4C4A",
"S6	c #345E54",
"T6	c #386455",
"U6	c #284E4A",
"V6	c #1E4148",
"W6	c #2A5457",
"X6	c #2C5957",
"Y6	c #2C5956",
"Z6	c #2D5956",
"`6	c #305B58",
" 7	c #526F63",
".7	c #677867",
"+7	c #73BF8C",
"@7	c #5FAC85",
"#7	c #ADAD84",
"$7	c #576E64",
"%7	c #344B50",
"&7	c #DBC69F",
"*7	c #7F748A",
"=7	c #DE6771",
"-7	c #F66870",
";7	c #8B4173",
">7	c #473671",
",7	c #4B3671",
"'7	c #373472",
")7	c #4C4271",
"!7	c #E7C291",
"~7	c #F3CE96",
"{7	c #F3CE94",
"]7	c #4A3E6E",
"^7	c #312F6C",
"/7	c #3B2D67",
"(7	c #392D64",
"_7	c #CA678A",
":7	c #F2686C",
"<7	c #FC7774",
"[7	c #9F5272",
"}7	c #908172",
"|7	c #796C54",
"17	c #091023",
"27	c #122D37",
"37	c #645A87",
"47	c #D14748",
"57	c #EC5648",
"67	c #ED484A",
"77	c #EA5F4B",
"87	c #EB5643",
"97	c #7A4065",
"07	c #786B7A",
"a7	c #679370",
"b7	c #669B69",
"c7	c #6DA16D",
"d7	c #689D69",
"e7	c #5A936A",
"f7	c #224944",
"g7	c #172C40",
"h7	c #2C4A5B",
"i7	c #193243",
"j7	c #081323",
"k7	c #0D0C1D",
"l7	c #090D20",
"m7	c #0B0F25",
"n7	c #1B363E",
"o7	c #31605B",
"p7	c #396F5D",
"q7	c #40765C",
"r7	c #40765E",
"s7	c #3B725D",
"t7	c #275552",
"u7	c #2C5A55",
"v7	c #2C5A56",
"w7	c #2E5957",
"x7	c #4C8E80",
"y7	c #4E9B7E",
"z7	c #87CD7A",
"A7	c #63B286",
"B7	c #42848B",
"C7	c #5D726B",
"D7	c #1E3A46",
"E7	c #756F8D",
"F7	c #E8E6D0",
"G7	c #FDF7DA",
"H7	c #DCCED0",
"I7	c #F1909A",
"J7	c #FC8384",
"K7	c #FC7E7D",
"L7	c #714472",
"M7	c #E0BB8C",
"N7	c #F2CE93",
"O7	c #F0CE94",
"P7	c #F0CF94",
"Q7	c #F1D092",
"R7	c #413968",
"S7	c #F0807C",
"T7	c #FD7E74",
"U7	c #EA9F9A",
"V7	c #BDBDDD",
"W7	c #B7BDDD",
"X7	c #848CCD",
"Y7	c #373C80",
"Z7	c #636368",
"`7	c #0B1728",
" 8	c #081526",
".8	c #72615B",
"+8	c #544A7B",
"@8	c #333171",
"#8	c #6364A7",
"$8	c #474380",
"%8	c #322F6B",
"&8	c #B1877D",
"*8	c #2E383F",
"=8	c #41695F",
"-8	c #548768",
";8	c #548C66",
">8	c #568C69",
",8	c #30554A",
"'8	c #0E2039",
")8	c #2C505D",
"!8	c #2C5F65",
"~8	c #2C6165",
"{8	c #20414A",
"]8	c #0B0D1E",
"^8	c #08091C",
"/8	c #061022",
"(8	c #294E52",
"_8	c #31645D",
":8	c #396B60",
"<8	c #37695B",
"[8	c #3A6C60",
"}8	c #35665D",
"|8	c #2A5857",
"18	c #2A5858",
"28	c #295958",
"38	c #2A5958",
"48	c #2E5959",
"58	c #6AA186",
"68	c #67A989",
"78	c #64A78B",
"88	c #4DA090",
"98	c #B2A793",
"08	c #A39171",
"a8	c #DE9685",
"b8	c #705891",
"c8	c #EBE5D0",
"d8	c #C2C8DA",
"e8	c #B6C2E1",
"f8	c #BFC8E6",
"g8	c #C3CAE8",
"h8	c #6A6DA1",
"i8	c #383576",
"j8	c #E0AE86",
"k8	c #F3C490",
"l8	c #F2C490",
"m8	c #F4C692",
"n8	c #F7CC96",
"o8	c #342F6A",
"p8	c #3E3C85",
"q8	c #C1C7EA",
"r8	c #BEC7E8",
"s8	c #B8C5E5",
"t8	c #B6C4E3",
"u8	c #B8C7E3",
"v8	c #626892",
"w8	c #AF7479",
"x8	c #976A62",
"y8	c #33404B",
"z8	c #695E54",
"A8	c #504965",
"B8	c #BEBACA",
"C8	c #DADADD",
"D8	c #BDCCED",
"E8	c #6C709C",
"F8	c #3D4A50",
"G8	c #2B454B",
"H8	c #224C4E",
"I8	c #38685E",
"J8	c #366358",
"K8	c #2F4E50",
"L8	c #0A1A33",
"M8	c #1E4056",
"N8	c #265362",
"O8	c #2D6066",
"P8	c #2E6867",
"Q8	c #27555B",
"R8	c #070E22",
"S8	c #08081C",
"T8	c #040F20",
"U8	c #2C5557",
"V8	c #31615F",
"W8	c #2E5E5D",
"X8	c #27565A",
"Y8	c #27565D",
"Z8	c #26555C",
"`8	c #225052",
" 9	c #285657",
".9	c #29575A",
"+9	c #29585B",
"@9	c #285759",
"#9	c #8A8C90",
"$9	c #979093",
"%9	c #C48F88",
"&9	c #D98D89",
"*9	c #DD908B",
"=9	c #E0918B",
"-9	c #E18F88",
";9	c #E08F86",
">9	c #E38882",
",9	c #4D3E70",
"'9	c #31366D",
")9	c #333670",
"!9	c #333572",
"~9	c #313374",
"{9	c #353576",
"]9	c #D88387",
"^9	c #E1908B",
"/9	c #DD8F8A",
"(9	c #DD8F88",
"_9	c #E0908A",
":9	c #E18F8A",
"<9	c #E89699",
"[9	c #514279",
"}9	c #2D3572",
"|9	c #2E3571",
"19	c #2F3674",
"29	c #303675",
"39	c #2F3677",
"49	c #D17D92",
"59	c #DF8F85",
"69	c #DE9589",
"79	c #DA918B",
"89	c #A29288",
"99	c #505572",
"09	c #2F376C",
"a9	c #2E346B",
"b9	c #2F346D",
"c9	c #363976",
"d9	c #5D9C8B",
"e9	c #4CA596",
"f9	c #4F6660",
"g9	c #1E4B52",
"h9	c #1A3C49",
"i9	c #081028",
"j9	c #1A2C43",
"k9	c #204D60",
"l9	c #265463",
"m9	c #2C6067",
"n9	c #2B6567",
"o9	c #295860",
"p9	c #060E23",
"q9	c #120D22",
"r9	c #040F23",
"s9	c #2C585B",
"t9	c #2D5E62",
"u9	c #2B5D61",
"v9	c #275A60",
"w9	c #285860",
"x9	c #26525B",
"y9	c #244B53",
"z9	c #265458",
"A9	c #26585B",
"B9	c #27595D",
"C9	c #28585C",
"D9	c #416060",
"E9	c #2F5158",
"F9	c #1C2D3D",
"G9	c #23424C",
"H9	c #235258",
"I9	c #C7817B",
"J9	c #685A5F",
"K9	c #D28A7C",
"L9	c #E18D7E",
"M9	c #E28C7F",
"N9	c #E68E80",
"O9	c #E58F84",
"P9	c #E69188",
"Q9	c #E59088",
"R9	c #E38F85",
"S9	c #E18F84",
"T9	c #DC9086",
"U9	c #D99086",
"V9	c #D98F86",
"W9	c #D89086",
"X9	c #DA9085",
"Y9	c #DF9288",
"Z9	c #E48F87",
"`9	c #E48D84",
" 0	c #E69185",
".0	c #E59187",
"+0	c #E29187",
"@0	c #E18C83",
"#0	c #DA8982",
"$0	c #8E7572",
"%0	c #C78578",
"&0	c #776C69",
"*0	c #6A696C",
"=0	c #3E4C59",
"-0	c #576360",
";0	c #647068",
">0	c #696F67",
",0	c #415D5F",
"'0	c #3B5B5F",
")0	c #1D5058",
"!0	c #1A4D55",
"~0	c #1F4455",
"{0	c #060A23",
"]0	c #13273C",
"^0	c #215465",
"/0	c #225A64",
"(0	c #296066",
"_0	c #296366",
":0	c #2A5B63",
"<0	c #051024",
"[0	c #090521",
"}0	c #040827",
"|0	c #2A4F57",
"10	c #2E6066",
"20	c #2E5E65",
"30	c #2A5D63",
"40	c #265961",
"50	c #254B56",
"60	c #0E2531",
"70	c #24434C",
"80	c #25565A",
"90	c #2E6063",
"00	c #2F6164",
"a0	c #275B5E",
"b0	c #234952",
"c0	c #091124",
"d0	c #1A2E3B",
"e0	c #254F58",
"f0	c #22505C",
"g0	c #174053",
"h0	c #132841",
"i0	c #0E2337",
"j0	c #1E5061",
"k0	c #195666",
"l0	c #185564",
"m0	c #1A5263",
"n0	c #082239",
"o0	c #020821",
"p0	c #153347",
"q0	c #215364",
"r0	c #235767",
"s0	c #1F5364",
"t0	c #1B4359",
"u0	c #020622",
"v0	c #081929",
"w0	c #1F4851",
"x0	c #24575F",
"y0	c #285B63",
"z0	c #245B63",
"A0	c #215962",
"B0	c #20505C",
"C0	c #1F4F61",
"D0	c #1B5362",
"E0	c #1B5C68",
"F0	c #1C5E6A",
"G0	c #1A5D68",
"H0	c #165467",
"I0	c #113B4F",
"J0	c #1D4B56",
"K0	c #205961",
"L0	c #245C62",
"M0	c #296167",
"N0	c #245E63",
"O0	c #225B60",
"P0	c #21575F",
"Q0	c #163245",
"R0	c #05031E",
"S0	c #0A1029",
"T0	c #295667",
"U0	c #2C636B",
"V0	c #2E676D",
"W0	c #2E666B",
"X0	c #284D58",
"Y0	c #0A0924",
"Z0	c #A19EA0",
"`0	c #0B0622",
" a	c #0D192F",
".a	c #1A3246",
"+a	c #1F3949",
"@a	c #193342",
"#a	c #142A3B",
"$a	c #101B30",
"%a	c #0A0921",
"&a	c #0F1D2C",
"*a	c #254B54",
"=a	c #36646C",
"-a	c #36656D",
";a	c #24575C",
">a	c #1C3D48",
",a	c #09071C",
"'a	c #0A1020",
")a	c #203A46",
"!a	c #112E3D",
"~a	c #04091B",
"{a	c #050517",
"]a	c #0F3043",
"^a	c #134154",
"/a	c #0F364B",
"(a	c #030F2A",
"_a	c #06041B",
":a	c #091F2F",
"<a	c #1E4658",
"[a	c #224B5E",
"}a	c #1D4457",
"|a	c #102C40",
"1a	c #05041A",
"2a	c #08111F",
"3a	c #16353D",
"4a	c #1D424C",
"5a	c #234753",
"6a	c #214752",
"7a	c #1D434F",
"8a	c #102939",
"9a	c #0C2337",
"0a	c #0E2C3F",
"aa	c #143849",
"ba	c #163B4C",
"ca	c #153B4A",
"da	c #0F3445",
"ea	c #081C30",
"fa	c #0C2032",
"ga	c #133241",
"ha	c #1F4855",
"ia	c #275862",
"ja	c #255B65",
"ka	c #255863",
"la	c #204B59",
"ma	c #051026",
"na	c #05031C",
"oa	c #080422",
"pa	c #13293C",
"qa	c #244A56",
"ra	c #295060",
"sa	c #274B5A",
"ta	c #081325",
"ua	c #4C4C51",
"va	c #F1EFE1",
"wa	c #6D6A6A",
"xa	c #37373B",
"ya	c #0A0A25",
"za	c #090926",
"Aa	c #090923",
"Ba	c #0A0923",
"Ca	c #070620",
"Da	c #08061A",
"Ea	c #0A061A",
"Fa	c #0A1226",
"Ga	c #0E1A30",
"Ha	c #0F1B32",
"Ia	c #0B182E",
"Ja	c #0C1029",
"Ka	c #0A0516",
"La	c #070416",
"Ma	c #060618",
"Na	c #060516",
"Oa	c #070517",
"Pa	c #070417",
"Qa	c #06051A",
"Ra	c #050822",
"Sa	c #040A23",
"Ta	c #060720",
"Ua	c #06041C",
"Va	c #080617",
"Wa	c #060718",
"Xa	c #050819",
"Ya	c #05081C",
"Za	c #04041A",
"`a	c #050314",
" b	c #070513",
".b	c #070615",
"+b	c #07071A",
"@b	c #07061C",
"#b	c #07081C",
"$b	c #0B041A",
"%b	c #09051A",
"&b	c #09051B",
"*b	c #09061D",
"=b	c #09071E",
"-b	c #09061E",
";b	c #08061C",
">b	c #08061B",
",b	c #08051F",
"'b	c #07081F",
")b	c #090D22",
"!b	c #081126",
"~b	c #07071E",
"{b	c #080213",
"]b	c #080318",
"^b	c #09031F",
"/b	c #080420",
"(b	c #06041F",
"_b	c #04021E",
":b	c #050219",
"<b	c #585656",
"[b	c #A9A8A3",
"}b	c #F1EFD4",
"|b	c #F4F0E0",
"1b	c #9C9890",
"2b	c #100B10",
"3b	c #1F1C1B",
"4b	c #2D2A28",
"5b	c #3B3836",
"6b	c #44413F",
"7b	c #504C4B",
"8b	c #3D373A",
"9b	c #050210",
"0b	c #060113",
"ab	c #060216",
"bb	c #030116",
"cb	c #090015",
"db	c #09010F",
"eb	c #09010E",
"fb	c #09030D",
"gb	c #110912",
"hb	c #181218",
"ib	c #302B2D",
"jb	c #4B4647",
"kb	c #211C1F",
"lb	c #1B141B",
"mb	c #140F18",
"nb	c #171218",
"ob	c #1D191C",
"pb	c #282325",
"qb	c #0A040B",
"rb	c #050008",
"sb	c #030007",
"tb	c #050009",
"ub	c #08010E",
"vb	c #0A030F",
"wb	c #0E0711",
"xb	c #0E0913",
"yb	c #0E0813",
"zb	c #100815",
"Ab	c #110714",
"Bb	c #110613",
"Cb	c #100412",
"Db	c #0C010F",
"Eb	c #0E0211",
"Fb	c #0B0110",
"Gb	c #07000F",
"Hb	c #070010",
"Ib	c #06000E",
"Jb	c #05000E",
"Kb	c #040012",
"Lb	c #00000D",
"Mb	c #03000B",
"Nb	c #06000C",
"Ob	c #07000B",
"Pb	c #060008",
"Qb	c #4D4846",
"Rb	c #454041",
"Sb	c #3C373B",
"Tb	c #29242A",
"Ub	c #150C18",
"Vb	c #080013",
"Wb	c #1E1A1E",
"Xb	c #D6D2C8",
"Yb	c #E6E2CF",
"  . + @ # $ % & * = - ; > , ' ) ! ~ { ] ^ / ( _ : < [ } | 1 2 3 4 5 6 7 8 9 0 a b c d e f g h i j k l m n o p q r s t u v w x y ",
"z A B C D E F G H I J K L M N O P Q R S T U V W X Y Z `  ...+.@.#.$.%.&.*.=.-.;.>.,.'.).!.~.{.].^./.(._.:.<.[.}.|.1.2.3.4.5.6.7.",
"8.9.0.a.b.c.d.e.f.g.h.i.j.k.l.m.n.o.p.q.r.s.t.u.v.w.x.y.z.A.B.C.D.E.F.G.H.I.J.K.L.M.N.O.P.Q.R.S.T.U.V.W.X.Y.Z.`. +.+++@+#+$+%+&+",
"*+=+-+;+>+,+'+)+!+~+{+]+^+/+(+_+:+<+[+}+|+1+2+3+4+5+6+7+8+9+0+a+b+c+c+d+e+f+g+h+i+j+k+l+m+n+o+p+q+r+s+t+u+v+w+x+y+z+A+B+C+D+E+F+",
"G+H+I+J+K+L+M+N+O+P+Q+R+S+T+U+V+W+X+Y+}+Z+`+ @.@+@@@#@$@%@&@*@=@-@;@>@,@'@)@h+!@~@{@]@^@/@(@_@:@<@[@}@|@1@2@3@4@5@6@7@8@9@0@a@b@",
"c@d@e@f@g@h@i@j@k@l@m@n@o@p@q@r@s@t@q@u@Z+v@w@x@y@z@A@B@C@D@E@F@G@H@I@J@K@L@M@N@O@P@Q@R@S@T@U@V@W@X@Y@Z@`@ #.#+#@###$#%#&#*#=#-#",
";#>#,#'#)#!#~#{#]#^#/#(#_#:#<#[#}#|#1#2#3#4#5#6#7#8#9#0#a#b#b#c#d#e#f#g#h#i#j#k#l#m#n#o#p#q#r#s#t#u#v#w#x#y#z#A#B#C#D#E#F#G#H#I#",
"J#K#L#M#N#O#P#Q#R#R#S#T#U#V#W#X#Y#`+Z#Z#`# $.$+$@$#$$$%$&$*$=$-$;$>$,$'$)$!$~${$]$^$/$($_$:$<$[$}$|$1$2$3$4$5$6$7$8$9$0$a$b$c$d$",
"e$f$g$h$i$j$k$l$m$n$o$p$q$r$s$t$u$v$w$3#x$y$z$A$A$B$C$D$E$F$G$H$I$J$K$L$M$N$O$P$Q$R$S$T$U$V$W$X$Y$Z$`$ %.%+%@%#%$%%%&%*%=%-%;%>%",
",%'%)%!%~%{%]%^%/%(%_%:%<%[%}%|%1%2%3%4%5%6%7%8%9%0%a%b%c%d%e%f%g%h%i%j%k%l%m%n%o%p%q%r%s%t%u%v%w%x%y%z%A%B%C%D%E%F%G%H%I%J%K%L%",
"M%N%O%P%Q%R%S%T%U%V%W%X%Y%Z%`% &.&+&@&#&$&%&&&*&=&-&;&>&,&'&)&!&!&~&{&]&^&/&(&_&:&<&[&}&|&1&2&3&4&5&6&7&8&9&0&a&b&c&d&e&f&g&h&i&",
"j&k&l&m&n&o&p&q&r&s&t&u&v&w&x&y&z&A&B&C&D&E&F&G&H&I&J&K&L&M&N&O&P&Q&R&S&T&U&(&H&V&W&X&Y&Z&`& *.*+*@*#*$*%*&***=*-*;*>*,*'*)*!*~*",
"{*]*^*/*(*_*:*<*[*}*|*1*2*3*4*5*6*7*8*9*0*=&a*b*c*d*e*f*g*h*i*j*k*l*m*n*o*p*q*r*s*t*V&u*v*w*x*y*z*A*B*C*D*E*F*G*H*I*J*K*L*M*N*O*",
"P*Q*R*S*T*U*V*W*X*Y*Z*`* =.=+=@=#=$=%=&=*===-=;=>=,='=)=!=~={=]=^=/=(=_=:=<=[=}=|=1=2=3=4=5=6=7=8=9=0=a=b=E*c=d=e=f=g=h=i=j=k=l=",
"m=n=o=p=q=U*r=s=t=u=v=w=x=y=z=A=B=C=D=E=F=G=H=I=J=K=L=M=N=O=P=Q=R=S=T=U=V=W=X=Y=Z=`= -.-+-@-#-$-z*8=%-&-*-c=c==---;->-,-'-)-!-~-",
"{-]-^-/-(-_-:-<-G*[-}-|-1-2-3-4-5-6-7-8-9-0-a-b-c-d-e-f-g-h-i-j-k-l-m-n-o-p-q-r-s-t-u-v-w-x-y-z-A-B-C-D-E-F->-G-H-I-J-K-L-M-N-O-",
"P-Q-R-S-'-T-U-V-H*W-X-Y-Z-`- ;.;+;@;#;$;%;&;*;=;-;;;>;,;';);!;~;{;];^;/;(;_;:;<;[;};|;1;2;3;4;5;6;7;8;9;0;a;b;c;d;e;f;g;h;i;j;k;",
"l;m;n;o;p;q;r;s;t;u;v;w;x;2-y;z;A;B;C;D;E;F;G;H;I;J;K;L;M;N;O;P;Q;R;S;T;U;V;W;X;Y;Z;`; >.>+>@>#>$>%>&>*>=>->;>e;>>,>'>)>!>~>{>]>",
"^>/>(>_>:><>[>}>|>1>2>3>4>5>6>7>8>9>0>S;a>a>b>c>d>e>f>g>Q;P;R;Q;h>h>h>i>j>k>l>m>n>o>p>q>r>s>t>u>v>w>x>y>z>A>B>C>K-D>E>F>G>H>I>J>",
"K>L>M>N>O>P>Q>R>S>T>U>V>W>X>Y>Z>`> ,.,+,@,#,$,%,&,*,=,-,;,>,,,>,',;,),!,~,{,],^,/,(,_,:,<,[,},|,1,2,3,4,5,6,7,8,9,0,a,b,c,d,e,f,",
"g,h,i,j,k,l,l,m,n,o,p,q,r,s,t,u,v,w,x,y,z,A,B,C,D,E,F,G,H,I,J,K,L,M,N,O,P,Q,R,S,T,U,V,W,X,Y,Z,`, '.'+'@'#'$'%'&'*'='-';'>','''Z.",
")'!'~'{']'^'/'('_':'<'['}'|'1'2'3'4'5'6'7'8'9'0'a'b'c'd'e'f'g'h'i'j'k'l'm'n'o'p'q'r's't'u'v'w'x'y'z'A'B'C'D'E'F'G'H'I'J'K'L'M'N'",
"O'P'Q'R'S'T'U'V'W'X'Y'Z'`' ).)+)@)#)$)%)&)*)=)-);)>)o',)')))!)~){)])^)/)()();)_):)<)[)})|)1)2)3)4)5)6)7)8)9)0)a)b)c)S-S-d)e)f)g)",
"h)i)j)k)l)m)n)U'o)p)q)/-r)s)t)u)v)w)x)y)z)A)B)C)D)E)-)F):)G)H)I)J)K)L)M)>)N)O)P)Q)R)S)T)U)V)W)X)Y)Z)`) !.!+!+!@!#!$!%!&!*!=!-!;!",
">!,!'!)!!!~!n){!]!,-^!/!/!(!_!:!<![!}!|!1!2!3!4!5!6!7!8!S)9!S)0!S)()a!>)b!c!d!e!f!g!h!>)i!j!k!l!m!n!o!p!q!r!r!s!t!u!v!*!w!x!y!z!",
"A!B!C!D!E!F!m)&!u!#!G!H!I!J!K!L!M!N!O!P!Q!R!S!T!U!V!W!X!S)S)0!Y!Z!0!`! ~.~+~@~#~$~%~&~*~=~-~;~>~,~'~)~!~~~{~]~^~/~(~w!_~:~<~[~}~",
"|~1~2~3~4~5~*!6~7~*!8~9~0~a~b~c~d~e~f~g~h~i~j~k~l~m~n~o~S)0!Z!p~Z!Z!q~r~s~t~u~v~w~x~y~z~A~B~C~D~E~F~G~H~I~J~K~L~M~N~O~a,P~Q~R~S~",
"T~U~V~W~X~Y~Z~`~ {.{+{@{#{${%{&{*{={-{:);{>{,{'{){!{~{{{Y!Z!Z!]{^{Z!-)/{({_{:{<{[{}{|{1{S)()2{3{4{5{6{7{8{9{0{a{b{c{d{e{f{g{h{i{",
"j{k{l{m{n{o{p{q{`~r{s{t{u{v{w{x{y{z{A{g~B{C{D{E{F{G{H{I{p~J{b!K{L{M{_)N{O{P{Q{R{S{T{U{V{S)()W{X{Y{Z{`{ ].]+]@]@]#]$]%]&]*]=]-];]",
">],]'])]d{!]~]{]]]^]/](]_]:]<][]}]|]A~a!1]2]3]4]5]6]7]X!b!8]9]0]a]b]c]${d]e]f]g]h]i]j]k]`!9!l]m]n]o]p]q]r]s]t]u]v]w]x]y]z]A]B]C]",
"D]E]F]G]H]I]J]K]L]M]a@N]O]P]Q]R]S]T]U]V]W]X]Y]Z]`] ^.^+^@^#^$^%^&^*^=^-^]{;^>^,^'^)^!^~^{^]^^^/^(^_^:^<^[^}^|^1^2^3^4^5^6^7^8^C]",
"9^0^a^b^c^d^e^f^g^h^i^j^k^l^m^n^o^p^q^r^s^t^u^v^w^x^;)Z!y^z^A^B^C^D^E^F^0!G^H^I^J^K^L^M^N^O^P^Q^R^S^T^U^V^W^1^X^Y^Z^`^ /./+/@/#/",
"$/%/&/*/=/-/;/>/,/'/)/!/~/{/]/^///(/_/:/</[/}/|/a!()9!1/2/3/4/5/6/7/8/9/S)0/9!9!a/b/c/d/e/f/g/h/i/j/k/l/m/n/o/p/q/r/s/t/u/v/w/x/",
"$/y/z/A/B/C/D/E/F/G/H/I/J/K/L/M/N/O/P/Q/R/S/T/U/|/9!S)S)V/W/X/Y/Z/`/ (S)S)]^.(|/|/+(@(#($(%(&(*(=(-(;(>(,('()(!(~({(](^(/(((_(:(",
"<([(}(|(1(2(3(4(5(6(7(8(9(0(a(b(c(d(e(f(g(0/U/|/S)S)S)`!h(^{i(j(k(l(9!S)S)0/|/|/|/m(n(o(p(q(r(s(t(u(v(w(x(y(z(A(B(C(D(E(F(G(H(:(",
"I(J(K(L(M(N(O(P(Q(R(S(T(U(V(W(X(Y(Z(`( _._+_@_S)1/S)S)h(#_Z!Z!Z!Z!q~q~h(`!S).(a/`!$_%_&_*_=_-_;_>_,_'_)_!_~_{_]_^_/_(___:_<_[_}_",
"|_1_2_3_4_5_6_7_8_9_0_a_b_c_d_e_f_g_h_i_j_k_l_m_n_o_0!#_p_Z!^{^{p~p~q_r_S)A~s_t_u_v_w_x_y_z_A_B_C_D_E_F_G_H_I_J_K_L_M_N_O_P_Q_R_",
"S_T_U_V_W_X_Y_Z_`_ :.:+:@:#:$:%:&:*:=:-:;:>:,:':):!:+_~:{:]:^:/:(:_:_:::<:[:}:|:1:2:3:4:5:6:7:8:9:0:a:b:c:d:e:f:g:h:i:j:k:l:m:n:",
"o:p:q:r:s:t:u:v:w:x:y:z:A:B:C:D:E:F:G:H:I:J:K:L:M:N:O:P:Q:R:S:T:U:V:W:X:Y:Z:`: <.<+<@<#<$<%<&<*<=<-<;<><,<'<)<!<~<{<]<^</<(<_<:<",
"<<[<}<|<1<2<3<4<5<6<7<8<9<0<a<b<c<d<e<f<g<h<i<j<k<l<m<n<o<p<q<r<s<x{t<u<v<w<x<y<z<A<B<C<D<E<F<G<H<I<J<K<L<M<N<O<P<Q<R<S<T<U<V<W<",
"X<Y<Z<`< [.[+[@[#[$[%[&[*[=[-[;[>[,['[)[![~[{[][^[/[([_[:[<[[[}[|[1[2[3[4[5[6[7[8[9[0[a[b[c[d[e[f[g[h[i[j[k[l[m[n[o[p[q[r[s[t[u[",
"v[w[x[y[z[A[B[C[D[E[F[G[H[I[J[K[L[M[N[O[u,P[`!Q[R[S[T[U[V[W[X[Y[Z[`[ }.}+}@}#}$}%}&}*}=}-};}>},}'})}!}~}{}]}^}/}(}_}:}<}[}}}|}1}",
"2}3}4}5}6}7}8}9}0}a}b}c}d}e}f}g}h}i}j}k}p~a/1/-)l}m}n}o}p}q}r}s}t}u}v}w}x}y}z}A}B}C}D}E}F}G}H}I}J}K}L}M}N}O}P}Q}R}S}T}U}V}W}X}Y}",
"Z}`} |.|+|@|#|$|%|&|*|=|-|;|>|,|'|)|!|~|{|]|]|^|/|(|_|:|<|[|}|||1|2|3|4|5|6|7|8|9|0|a|b|c|d|e|f|g|h|i|j|k|l|m|n|o|p|q|r|s|t|u|v|",
"w|x|y|z|A|B|C|D|E|F|G|H|I|J|K|L|M|N|O|P|Q|R|S|T|U|V|W|X|Y|Z|`| 1.1+1@1#1$1%1&1*1=1-1;1>1,1'1)1!1~1{1]1^1/1(1_1_1:1<1[1}1|1112131",
"4141516171819101a1b1c1d1e1f1g1h1i1j1k1l1m1n1o1p1q1r1s1t1u1v1w1x1y1z1A1B1C1D1E1F1G1H1I1J1K1L1M1N1O1P1Q1R1S1T1U1V1W1X1Y1Z1`1 2.2+2",
"@2#2$2%2&2*2=2-2;2>2,2'2)2!2~2{2]2^2/2(2_2:2<2[2}2|212223242526272829202a2b2c2d2e2f2g2h2i2j2k2l2m2n2o2p2q2r2s2t2u2v2w2x2y2z2A2B2",
"C2D2E2F2G2H2I2J2K2L2M2N2O2P2Q2R2S2T2U2V2W2X2Y2Z2`2 3.3+3@3#3$3%3&3*3=3-3;3>3,3'3)3!3~3{3]3^3/3(3_3:3<3[3}3|313233343536373839303",
"a3b3c3d3e3f3g3h3i3j3k3l3m3n3o3p3q3r3s3t3u3v3w3x3y3z3A3B3C3D3E3F3G322$1H3I3J3K3L3M3N3O3P3Q3R3S3T3U3V3W3X3Y3Z3`3 4.4+4@4#4$4%4&4*4",
"=4-4;4>4,4'4)4!4~4{4]4^4/4(4_4:4<4[4}4|414243444546474849404a4b4c4c4d4e4f4g4h4i4j4k4l4m4n4o4p4q4r4s4t4u4v4w4x4y4z4A4B4C4D4E4F4G4",
"H4I4J4K4L4M4N4O4P4Q4R4S4T4U4V4W4X4Y4Z4`4 5.5+5@5#5$5%5&5*5=5-5;5>5,5'5)5!5~5~5{5]5^5/5(5_5:5<5[5}5|515253545556575859505a5b5c5d5",
"e5f5g5h5i5j5k5l5m5n5o5p5q5r5s5t5u5v5w5x5y5z5A5B5C5D5E5F5G5H5I5J5K5L5M5N5O5P5Q5R5S5T5U5V5W5X5Y5Z5`5 6.6+6@6#6$6%6&6*6=6-6;6>6,6'6",
")6!6~6{6]6^6/6(6_6:6<6[6}6|616263646566676869606a6b6c6d6e6f6g6h6i6j6k6l6m6n6o6p6q6r6s6t6u6v6w6x6y6z6A6B6C6D6E6F6G6H6I6J6K6L6M6'6",
"N6O6P6Q6R6S6T6U6V6W6X6Y6Z6`6 7.7+7@7#7$7%7&7*7=7-7;7>7,7'7)7!7~7{7]7^7/7(7_7:7<7[7}7|717273747576777879707a7b7c7d7e7f7g7h7i7j7k7",
"l7m7n7o7p7q7r7s7t7X6u7v7Y6w7x7y7z7A7B7C7D7E7F7G7H7I7J7K7L7M7N7O7P7Q7R7S7T7U7V7W7X7Y7Z7`7 8.8+8@8#8$8%8&8*8=8-8;8>8,8'8)8!8~8{8]8",
"^8/8(8_8:8<8[8}8t7|818283848586878889808a8b8c8d8e8f8g8h8i8j8k8l8m8n8o8p8q8r8s8t8u8v8w8x8y8z8A8B8C8D8E8F8G8H8I8J8K8L8M8N8O8P8Q8R8",
"S8T8U8V8W8X8Y8Z8`8 9.9+9@9#9$9%9&9*9=9-9;9>9,9'9)9!9~9{9]9^9/9(9_9:9<9[9}9|919293949596979899909a9b9c9d9e9f9g9h9i9j9k9l9m9n9o9p9",
"q9r9s9t9u9v9w9x9y9z9A9B9C9D9E9F9G9H9I9J9K9L9M9N9O9P9Q9R9S9T9U9V9W9X9Y9Z9`9`9 0.0+0@0#0$0%0&0*0=0-0;0>0,0'0)0!0~0{0]0^0/0(0_0:0<0",
"[0}0|010203040506070809000a0b0c0d0e0f0g0h0i0j0k0l0m0n0o0p0q0r0s0t0u0v0w0x0y0z0A0B0C0D0E0F0G0H0I0J0K0L0M0N0O0P0Q0R0S0T0U0V0W0X0Y0",
"Z0`0 a.a+a@a#a$a%a&a*a=a-a;a>a,a'a)ad1!a~a{a]a^a^a/a(a_a:a<a[a}a|a1a2a3a4a5a6a7a8a9a0aaabacadaeafagahaiajakalamanaoapaqarasataua",
"vawaxayazaAaBaCaDaEaFaGaHaIaJaEaKaLaMaNaOaPaQaRaSaTaUaNaVaWaXaYaZa`a b.b+b@b#bDa$b%b&b*b=b-b;b>b>b,b'b)bta!b~b{b]b^b/b(b_b:b<b[b",
"}b|b1b2b3b4b5b6b7b8b9b0babbbcbdbebfbgbhbibjbkblbmbnbobpbqbrbsbtbubvbwbxbybzbAbBbCbDbEbFbGbHbHbIbJbKbLbMbNbObPbQbRbSbTbUbVbWbXbYb"};
