/* XPM */
static char * wall_xpm[] = {
"64 65 4008 2",
"  	c #2C210C",
". 	c #444A17",
"+ 	c #484D15",
"@ 	c #454511",
"# 	c #362E0D",
"$ 	c #361F11",
"% 	c #341D17",
"& 	c #22160A",
"* 	c #8AA549",
"= 	c #CEF871",
"- 	c #C6F66C",
"; 	c #BEF16C",
"> 	c #BBEB6A",
", 	c #91AF5A",
"' 	c #241E12",
") 	c #36370F",
"! 	c #6C8A35",
"~ 	c #7DA146",
"{ 	c #758E42",
"] 	c #443F1F",
"^ 	c #230A09",
"/ 	c #1A070A",
"( 	c #2C3717",
"_ 	c #6E9A3D",
": 	c #75A93A",
"< 	c #79AE3C",
"[ 	c #678733",
"} 	c #39391B",
"| 	c #281810",
"1 	c #9EB25E",
"2 	c #C2ED70",
"3 	c #C1EA6A",
"4 	c #B7E163",
"5 	c #8CA54B",
"6 	c #4A3A1C",
"7 	c #61642A",
"8 	c #6C802E",
"9 	c #6A7E2C",
"0 	c #677729",
"a 	c #636C28",
"b 	c #565920",
"c 	c #4D4720",
"d 	c #29170C",
"e 	c #260D0B",
"f 	c #2E260D",
"g 	c #56682D",
"h 	c #67803A",
"i 	c #5E7630",
"j 	c #363D12",
"k 	c #28160C",
"l 	c #2C210A",
"m 	c #8CAF47",
"n 	c #BAEC65",
"o 	c #C7F36D",
"p 	c #BBE862",
"q 	c #9DC45A",
"r 	c #33311A",
"s 	c #3E2B1B",
"t 	c #474B22",
"u 	c #3C4813",
"v 	c #3B4C0E",
"w 	c #444A19",
"x 	c #382E15",
"y 	c #351C14",
"z 	c #768636",
"A 	c #A0CF4E",
"B 	c #B0E056",
"C 	c #ABDA52",
"D 	c #94B843",
"E 	c #6F8336",
"F 	c #3B3617",
"G 	c #474724",
"H 	c #7F9C3B",
"I 	c #C7F171",
"J 	c #CEF978",
"K 	c #C9F572",
"L 	c #C6F06E",
"M 	c #BDE56D",
"N 	c #586631",
"O 	c #49501B",
"P 	c #8EB14D",
"Q 	c #A3CE63",
"R 	c #92B35B",
"S 	c #63713F",
"T 	c #302118",
"U 	c #210909",
"V 	c #50682C",
"W 	c #6B9737",
"X 	c #79A83F",
"Y 	c #8ABC46",
"Z 	c #81B73D",
"` 	c #7CA543",
" .	c #525E2A",
"..	c #8AA050",
"+.	c #BBDF66",
"@.	c #C4E96D",
"#.	c #C3E86D",
"$.	c #BCE06C",
"%.	c #7B884A",
"&.	c #779237",
"*.	c #82B43C",
"=.	c #81B43B",
"-.	c #7CAF34",
";.	c #74A534",
">.	c #679430",
",.	c #678936",
"'.	c #363C1C",
").	c #241508",
"!.	c #81A04B",
"~.	c #ACE068",
"{.	c #B1E764",
"].	c #ACE35B",
"^.	c #9AC956",
"/.	c #69843B",
"(.	c #49581F",
"_.	c #A6D759",
":.	c #BDF16A",
"<.	c #CAF56F",
"[.	c #B5E55E",
"}.	c #8EAA4D",
"|.	c #291D0A",
"1.	c #4A4F20",
"2.	c #749B3F",
"3.	c #8FC151",
"4.	c #98CD51",
"5.	c #96CB50",
"6.	c #88AF53",
"7.	c #40361C",
"8.	c #789432",
"9.	c #8EBF3E",
"0.	c #9ED045",
"a.	c #B4E653",
"b.	c #C3ED60",
"c.	c #BBE75F",
"d.	c #92B64B",
"e.	c #586A29",
"f.	c #809E3B",
"g.	c #A1CF55",
"h.	c #B7E56A",
"i.	c #BEE969",
"j.	c #C4EE6B",
"k.	c #C0E969",
"l.	c #89A053",
"m.	c #46431E",
"n.	c #89A24A",
"o.	c #A8CC62",
"p.	c #98B55A",
"q.	c #6D8747",
"r.	c #39341F",
"s.	c #210B06",
"t.	c #577029",
"u.	c #648F33",
"v.	c #699635",
"w.	c #7EAD3D",
"x.	c #8CBA43",
"y.	c #85B83E",
"z.	c #7FAD3E",
"A.	c #728D31",
"B.	c #9DB34F",
"C.	c #B8D65E",
"D.	c #C3E369",
"E.	c #C2E368",
"F.	c #ADC666",
"G.	c #7FA03B",
"H.	c #81B33A",
"I.	c #7EB035",
"J.	c #7BAC34",
"K.	c #6F9E32",
"L.	c #64912E",
"M.	c #688C37",
"N.	c #404725",
"O.	c #231606",
"P.	c #8FB257",
"Q.	c #A2D85C",
"R.	c #A9E15A",
"S.	c #ADE558",
"T.	c #ABE15B",
"U.	c #A4D759",
"V.	c #729233",
"W.	c #A1CD55",
"X.	c #A5D956",
"Y.	c #B2E160",
"Z.	c #A6CE5A",
"`.	c #76883E",
" +	c #434E1F",
".+	c #94B555",
"++	c #B5EB70",
"@+	c #B7EF6B",
"#+	c #B8EC61",
"$+	c #B5E865",
"%+	c #B4E369",
"&+	c #95BA61",
"*+	c #627421",
"=+	c #7FA834",
"-+	c #7FAF2D",
";+	c #85B733",
">+	c #98C743",
",+	c #B6E85A",
"'+	c #C2F463",
")+	c #A9D35B",
"!+	c #576E27",
"~+	c #87B04D",
"{+	c #A5D05A",
"]+	c #A7D553",
"^+	c #AFD95C",
"/+	c #B3DB5E",
"(+	c #92B155",
"_+	c #3C3918",
":+	c #7E9640",
"<+	c #9BBD54",
"[+	c #89AC50",
"}+	c #678442",
"|+	c #332F19",
"1+	c #240A04",
"2+	c #5A712D",
"3+	c #719D3E",
"4+	c #6D9B37",
"5+	c #73A239",
"6+	c #83B147",
"7+	c #85B644",
"8+	c #81B83B",
"9+	c #7DA834",
"0+	c #759131",
"a+	c #97B448",
"b+	c #B7D768",
"c+	c #BADB69",
"d+	c #A1C258",
"e+	c #7FA43A",
"f+	c #91C147",
"g+	c #97C84C",
"h+	c #9BCA51",
"i+	c #7EAB45",
"j+	c #669132",
"k+	c #688C39",
"l+	c #444A2A",
"m+	c #1B0403",
"n+	c #5F6E33",
"o+	c #84AD47",
"p+	c #7DAF3D",
"q+	c #88BC43",
"r+	c #9ACC4D",
"s+	c #A3D74F",
"t+	c #9ECC4E",
"u+	c #7EA13C",
"v+	c #8CB54E",
"w+	c #6E9035",
"x+	c #627630",
"y+	c #667D35",
"z+	c #AED56A",
"A+	c #B5E66B",
"B+	c #ACE362",
"C+	c #A8DF5D",
"D+	c #A6D952",
"E+	c #A9DA57",
"F+	c #A6D95B",
"G+	c #7FB04F",
"H+	c #443611",
"I+	c #727E35",
"J+	c #7E9D38",
"K+	c #78A437",
"L+	c #7AAB31",
"M+	c #83B633",
"N+	c #96C93C",
"O+	c #B3E459",
"P+	c #728B3B",
"Q+	c #495926",
"R+	c #95B653",
"S+	c #A9CD57",
"T+	c #99BF52",
"U+	c #93BC4D",
"V+	c #8BAE49",
"W+	c #525D27",
"X+	c #7B943A",
"Y+	c #91B04F",
"Z+	c #7A9C49",
"`+	c #627D3E",
" @	c #35311C",
".@	c #280809",
"+@	c #4E5B28",
"@@	c #6B8A3A",
"#@	c #789D44",
"$@	c #7CA544",
"%@	c #84AF43",
"&@	c #8DB847",
"*@	c #87B840",
"=@	c #88B63D",
"-@	c #7BA335",
";@	c #7A9E35",
">@	c #7BA233",
",@	c #779E31",
"'@	c #77A133",
")@	c #97C44B",
"!@	c #A0CE51",
"~@	c #A3D156",
"{@	c #8CB651",
"]@	c #6C9637",
"^@	c #6B913C",
"/@	c #474F2E",
"(@	c #180607",
"_@	c #231C0C",
":@	c #63783C",
"<@	c #82A94C",
"[@	c #77AC40",
"}@	c #7AAB35",
"|@	c #7FB039",
"1@	c #7BAC35",
"2@	c #7DA33E",
"3@	c #6B8336",
"4@	c #66763A",
"5@	c #4C5928",
"6@	c #8CB452",
"7@	c #B2E364",
"8@	c #B1E461",
"9@	c #AADE5D",
"0@	c #ACDF5E",
"a@	c #ABDF5A",
"b@	c #A5D857",
"c@	c #87B552",
"d@	c #59733E",
"e@	c #2A0C0A",
"f@	c #3B2E16",
"g@	c #656F30",
"h@	c #769737",
"i@	c #6F9C2B",
"j@	c #6E9C2A",
"k@	c #739D29",
"l@	c #7CAD32",
"m@	c #8BB846",
"n@	c #677D38",
"o@	c #738C3F",
"p@	c #86AD45",
"q@	c #73963C",
"r@	c #607F2B",
"s@	c #6A8B32",
"t@	c #7F9A3E",
"u@	c #829F3F",
"v@	c #7A9741",
"w@	c #6B8B42",
"x@	c #617B3F",
"y@	c #3A3621",
"z@	c #250E08",
"A@	c #3C4919",
"B@	c #485B22",
"C@	c #6F8543",
"D@	c #82A845",
"E@	c #81AA3E",
"F@	c #85AF3C",
"G@	c #86B23F",
"H@	c #87B63C",
"I@	c #83B235",
"J@	c #7DAA33",
"K@	c #80AD36",
"L@	c #7FAC35",
"M@	c #7BA734",
"N@	c #75A133",
"O@	c #98C54D",
"P@	c #A1CE54",
"Q@	c #A1CC58",
"R@	c #85AB4C",
"S@	c #719B3B",
"T@	c #6E963F",
"U@	c #444E2B",
"V@	c #150707",
"W@	c #1D080A",
"X@	c #302814",
"Y@	c #697838",
"Z@	c #78A03C",
"`@	c #719F31",
" #	c #709D34",
".#	c #719932",
"+#	c #6F9735",
"@#	c #5E7731",
"##	c #606839",
"$#	c #6E853D",
"%#	c #98C959",
"&#	c #A4D75C",
"*#	c #A8D85A",
"=#	c #A8D65B",
"-#	c #A6D55D",
";#	c #A0CF57",
">#	c #94C252",
",#	c #61823E",
"'#	c #2C2F16",
")#	c #190E08",
"!#	c #2C270F",
"~#	c #4D461D",
"{#	c #515B1C",
"]#	c #667E2A",
"^#	c #729230",
"/#	c #6C9627",
"(#	c #669024",
"_#	c #648B2E",
":#	c #637338",
"<#	c #3E4A20",
"[#	c #698B3D",
"}#	c #6C8D38",
"|#	c #5D792E",
"1#	c #74923A",
"2#	c #91B249",
"3#	c #94B453",
"4#	c #738943",
"5#	c #648244",
"6#	c #5F7840",
"7#	c #3B3721",
"8#	c #280D08",
"9#	c #393A1A",
"0#	c #363F18",
"a#	c #677D35",
"b#	c #6E9333",
"c#	c #709937",
"d#	c #77A339",
"e#	c #7AA834",
"f#	c #7EAE35",
"g#	c #80B233",
"h#	c #7FAE31",
"i#	c #80AD31",
"j#	c #82AF35",
"k#	c #7BA634",
"l#	c #6D9534",
"m#	c #80AA42",
"n#	c #7DA644",
"o#	c #729640",
"p#	c #698B3B",
"q#	c #729F3A",
"r#	c #6B9238",
"s#	c #464C2A",
"t#	c #2C1917",
"u#	c #170B08",
"v#	c #2D2E0C",
"w#	c #3F3D16",
"x#	c #58642E",
"y#	c #6D893B",
"z#	c #6F9536",
"A#	c #709935",
"B#	c #6A9235",
"C#	c #5C7432",
"D#	c #2B2C0E",
"E#	c #829E4E",
"F#	c #9CC959",
"G#	c #9FCF57",
"H#	c #A4D359",
"I#	c #88B649",
"J#	c #52802F",
"K#	c #466C2B",
"L#	c #46612B",
"M#	c #3B4021",
"N#	c #170B05",
"O#	c #789B32",
"P#	c #7FAA31",
"Q#	c #699226",
"R#	c #5F7425",
"S#	c #555C1E",
"T#	c #48551E",
"U#	c #597224",
"V#	c #6E8830",
"W#	c #687B38",
"X#	c #464E1E",
"Y#	c #48511E",
"Z#	c #59722C",
"`#	c #72933E",
" $	c #7D9F49",
".$	c #91B251",
"+$	c #9BBE54",
"@$	c #A8C85F",
"#$	c #9AB45A",
"$$	c #708C48",
"%$	c #667E4A",
"&$	c #423B29",
"*$	c #2A1008",
"=$	c #373715",
"-$	c #799440",
";$	c #8DB444",
">$	c #87B240",
",$	c #7CA13C",
"'$	c #709630",
")$	c #749F30",
"!$	c #77A72F",
"~$	c #7DAE2F",
"{$	c #7FAF32",
"]$	c #7FAC30",
"^$	c #81AF34",
"/$	c #7AA337",
"($	c #638535",
"_$	c #658635",
":$	c #688B36",
"<$	c #658439",
"[$	c #6D8D39",
"}$	c #709C36",
"|$	c #668D32",
"1$	c #3B411F",
"2$	c #1E1409",
"3$	c #627634",
"4$	c #94BC48",
"5$	c #789B36",
"6$	c #3D3F17",
"7$	c #343616",
"8$	c #4B5927",
"9$	c #566C27",
"0$	c #617933",
"a$	c #4B5126",
"b$	c #444424",
"c$	c #7F9A50",
"d$	c #98C45B",
"e$	c #87B24A",
"f$	c #8BB64F",
"g$	c #709536",
"h$	c #536E2E",
"i$	c #405426",
"j$	c #333E23",
"k$	c #1E130C",
"l$	c #1A0506",
"m$	c #9FCD3D",
"n$	c #A6D53F",
"o$	c #A6D549",
"p$	c #91B647",
"q$	c #677E24",
"r$	c #5A6D24",
"s$	c #48501D",
"t$	c #464720",
"u$	c #668038",
"v$	c #90B44C",
"w$	c #98C045",
"x$	c #88AD43",
"y$	c #668731",
"z$	c #7A9A44",
"A$	c #8FB452",
"B$	c #A1C65D",
"C$	c #B9DA68",
"D$	c #BFDC70",
"E$	c #8FAE58",
"F$	c #5E7647",
"G$	c #423828",
"H$	c #302409",
"I$	c #6F8C3A",
"J$	c #8DB649",
"K$	c #8AB23E",
"L$	c #8AB43B",
"M$	c #8DB241",
"N$	c #81A43E",
"O$	c #6E9130",
"P$	c #789E33",
"Q$	c #719930",
"R$	c #82B034",
"S$	c #81B034",
"T$	c #779E37",
"U$	c #668136",
"V$	c #6B893E",
"W$	c #6A8B3D",
"X$	c #6A8934",
"Y$	c #68872F",
"Z$	c #648F2E",
"`$	c #608634",
" %	c #37391A",
".%	c #545F2B",
"+%	c #99C650",
"@%	c #9ACC3D",
"#%	c #88B43C",
"$%	c #5E6D31",
"%%	c #312913",
"&%	c #372819",
"*%	c #393019",
"=%	c #595632",
"-%	c #6B673D",
";%	c #626236",
">%	c #67783D",
",%	c #627735",
"'%	c #55652C",
")%	c #59692C",
"!%	c #506221",
"~%	c #4C6120",
"{%	c #4F6427",
"]%	c #424B22",
"^%	c #28210F",
"/%	c #1D0409",
"(%	c #ABD745",
"_%	c #A5CC49",
":%	c #A2CB4D",
"<%	c #91B842",
"[%	c #85AC3A",
"}%	c #88AC44",
"|%	c #6D8339",
"1%	c #4E4F25",
"2%	c #617A2D",
"3%	c #73982D",
"4%	c #80A633",
"5%	c #85A743",
"6%	c #617833",
"7%	c #61753A",
"8%	c #82A051",
"9%	c #A2C666",
"0%	c #BEDE74",
"a%	c #C6E479",
"b%	c #9AB961",
"c%	c #5B7347",
"d%	c #413524",
"e%	c #5D5E29",
"f%	c #739835",
"g%	c #7FA739",
"h%	c #89AF3E",
"i%	c #8EB43E",
"j%	c #8FB341",
"k%	c #87A941",
"l%	c #7A9D3C",
"m%	c #749637",
"n%	c #63822A",
"o%	c #80AC37",
"p%	c #82AF34",
"q%	c #81AD36",
"r%	c #7CA239",
"s%	c #85A74A",
"t%	c #82A349",
"u%	c #6B893C",
"v%	c #668332",
"w%	c #65802E",
"x%	c #60882E",
"y%	c #5C7D3A",
"z%	c #342E1A",
"A%	c #647033",
"B%	c #8DBE42",
"C%	c #92C338",
"D%	c #84B03C",
"E%	c #57682E",
"F%	c #322918",
"G%	c #39281A",
"H%	c #51472E",
"I%	c #67613E",
"J%	c #645F38",
"K%	c #5D5933",
"L%	c #595C34",
"M%	c #5C5D36",
"N%	c #676E35",
"O%	c #7B8F3B",
"P%	c #9ABD52",
"Q%	c #A8D45C",
"R%	c #A7D758",
"S%	c #A5CF60",
"T%	c #93B35C",
"U%	c #4F5328",
"V%	c #84AB40",
"W%	c #719638",
"X%	c #719936",
"Y%	c #7CA439",
"Z%	c #7EA43D",
"`%	c #719338",
" &	c #5F792D",
".&	c #4D5625",
"+&	c #617530",
"@&	c #617B2A",
"#&	c #698037",
"$&	c #688238",
"%&	c #5A6D2E",
"&&	c #4F592C",
"*&	c #677B42",
"=&	c #85A956",
"-&	c #A6C967",
";&	c #BEDD78",
">&	c #96B45F",
",&	c #566F43",
"'&	c #3D3222",
")&	c #535A1F",
"!&	c #678E2F",
"~&	c #709533",
"{&	c #82A53D",
"]&	c #8CB144",
"^&	c #8BAF42",
"/&	c #85A642",
"(&	c #728B3A",
"_&	c #719134",
":&	c #749C30",
"<&	c #7AA732",
"[&	c #7DAB31",
"}&	c #7BA434",
"|&	c #8AB346",
"1&	c #93BB4D",
"2&	c #97BD52",
"3&	c #7A9844",
"4&	c #647E33",
"5&	c #647D31",
"6&	c #63882F",
"7&	c #637D3D",
"8&	c #3B311E",
"9&	c #667031",
"0&	c #7FAC36",
"a&	c #86B334",
"b&	c #82AA3D",
"c&	c #576531",
"d&	c #2F2617",
"e&	c #5F553F",
"f&	c #9D9572",
"g&	c #959169",
"h&	c #6D6B42",
"i&	c #54502E",
"j&	c #433C25",
"k&	c #414021",
"l&	c #839749",
"m&	c #9EC655",
"n&	c #A6D858",
"o&	c #A4DB55",
"p&	c #AADF57",
"q&	c #A9DF57",
"r&	c #A7DF56",
"s&	c #9DC55C",
"t&	c #5F7A34",
"u&	c #5A7B33",
"v&	c #688E37",
"w&	c #6A8A2E",
"x&	c #6E922D",
"y&	c #84A93A",
"z&	c #89A83E",
"A&	c #788F37",
"B&	c #4E5B23",
"C&	c #4D5A23",
"D&	c #61712F",
"E&	c #738F3A",
"F&	c #798E3E",
"G&	c #4F5829",
"H&	c #606941",
"I&	c #678046",
"J&	c #769F4B",
"K&	c #96B863",
"L&	c #7AA051",
"M&	c #547342",
"N&	c #332D21",
"O&	c #464519",
"P&	c #627C2C",
"Q&	c #6E8C37",
"R&	c #76953F",
"S&	c #71943C",
"T&	c #759740",
"U&	c #6D893F",
"V&	c #546529",
"W&	c #769A39",
"X&	c #729F31",
"Y&	c #73A02F",
"Z&	c #78A334",
"`&	c #7FA43F",
" *	c #8CB849",
".*	c #91B949",
"+*	c #97BD4D",
"@*	c #93B754",
"#*	c #668037",
"$*	c #667D36",
"%*	c #688B34",
"&*	c #6C8247",
"**	c #3A3122",
"=*	c #5B6831",
"-*	c #6C9433",
";*	c #698C33",
">*	c #7B934D",
",*	c #555532",
"'*	c #726B55",
")*	c #B3AE8D",
"!*	c #B7B28A",
"~*	c #ACAC7E",
"{*	c #808451",
"]*	c #62653A",
"^*	c #4D4E2E",
"/*	c #555233",
"(*	c #636C35",
"_*	c #83A14B",
":*	c #8AB64A",
"<*	c #92BF4C",
"[*	c #A2CD58",
"}*	c #9FD054",
"|*	c #9CD34F",
"1*	c #A1D557",
"2*	c #3E4721",
"3*	c #495529",
"4*	c #4F6628",
"5*	c #7EA03E",
"6*	c #90B941",
"7*	c #91BC3A",
"8*	c #93BE3B",
"9*	c #87A63B",
"0*	c #45521F",
"a*	c #71823E",
"b*	c #6A7B33",
"c*	c #7C993B",
"d*	c #8AA84B",
"e*	c #83A04C",
"f*	c #6E803E",
"g*	c #5B673B",
"h*	c #668147",
"i*	c #6A8A44",
"j*	c #699244",
"k*	c #60804B",
"l*	c #312B23",
"m*	c #210D06",
"n*	c #303415",
"o*	c #3C4B21",
"p*	c #455027",
"q*	c #434824",
"r*	c #414722",
"s*	c #3A431D",
"t*	c #5F7834",
"u*	c #7DA740",
"v*	c #7DA939",
"w*	c #7AA738",
"x*	c #759835",
"y*	c #6F8533",
"z*	c #88AD42",
"A*	c #8EB648",
"B*	c #93B94C",
"C*	c #9BC152",
"D*	c #8CAA51",
"E*	c #708842",
"F*	c #6B8C40",
"G*	c #6F834E",
"H*	c #3A3127",
"I*	c #484F2C",
"J*	c #4F662D",
"K*	c #4F5835",
"L*	c #3F4132",
"M*	c #726A56",
"N*	c #BDB795",
"O*	c #C2BD9A",
"P*	c #BCB894",
"Q*	c #A4A47D",
"R*	c #707646",
"S*	c #68783D",
"T*	c #5E6F34",
"U*	c #65783A",
"V*	c #5D6F35",
"W*	c #687740",
"X*	c #7D9252",
"Y*	c #7C924D",
"Z*	c #7D9B50",
"`*	c #7EA451",
" =	c #82AD51",
".=	c #85B052",
"+=	c #1A0E0C",
"@=	c #4A5B27",
"#=	c #82AA43",
"$=	c #8CB947",
"%=	c #89B93E",
"&=	c #90BD3F",
"*=	c #98BD4A",
"==	c #5F732E",
"-=	c #667D38",
";=	c #91B24E",
">=	c #6E8732",
",=	c #769038",
"'=	c #93B951",
")=	c #9BCB58",
"!=	c #98C353",
"~=	c #728A3D",
"{=	c #586438",
"]=	c #5B713F",
"^=	c #658C4A",
"/=	c #5E834C",
"(=	c #2B2919",
"_=	c #230105",
":=	c #2B160F",
"<=	c #3D3E25",
"[=	c #433F28",
"}=	c #404722",
"|=	c #576E35",
"1=	c #5B7C33",
"2=	c #69913A",
"3=	c #81AF43",
"4=	c #84B240",
"5=	c #80B042",
"6=	c #7DA144",
"7=	c #65692B",
"8=	c #879D40",
"9=	c #89B346",
"0=	c #8FB74B",
"a=	c #97C04D",
"b=	c #96BA52",
"c=	c #78944C",
"d=	c #6C8A48",
"e=	c #6E8550",
"f=	c #332E24",
"g=	c #241C19",
"h=	c #221D16",
"i=	c #1D1413",
"j=	c #615D49",
"k=	c #B4B091",
"l=	c #C3BE9C",
"m=	c #C2BC9C",
"n=	c #BAB694",
"o=	c #92926B",
"p=	c #727648",
"q=	c #77874B",
"r=	c #63733B",
"s=	c #69823B",
"t=	c #5F7734",
"u=	c #5E7038",
"v=	c #566434",
"w=	c #58683A",
"x=	c #637645",
"y=	c #607543",
"z=	c #5A713E",
"A=	c #556839",
"B=	c #18140A",
"C=	c #769442",
"D=	c #8BB83F",
"E=	c #8CB844",
"F=	c #8FBE40",
"G=	c #97BF46",
"H=	c #748D3A",
"I=	c #475327",
"J=	c #7E9E48",
"K=	c #93B74A",
"L=	c #90AC4D",
"M=	c #5E7127",
"N=	c #83A145",
"O=	c #96C551",
"P=	c #9ACF51",
"Q=	c #9DCB5A",
"R=	c #77963E",
"S=	c #444C24",
"T=	c #42532B",
"U=	c #41512F",
"V=	c #291A12",
"W=	c #270204",
"X=	c #3D3B11",
"Y=	c #44511C",
"Z=	c #4D5628",
"`=	c #607A3A",
" -	c #6A9C42",
".-	c #619334",
"+-	c #679436",
"@-	c #84B145",
"#-	c #85B440",
"$-	c #84B543",
"%-	c #81B045",
"&-	c #707B39",
"*-	c #707E38",
"=-	c #84B044",
"--	c #8CB545",
";-	c #8DB547",
">-	c #90B64D",
",-	c #7C9C4C",
"'-	c #6A8B48",
")-	c #6A8750",
"!-	c #2F2D22",
"~-	c #15040B",
"{-	c #18110B",
"]-	c #6C6B4D",
"^-	c #A6A380",
"/-	c #BDB997",
"(-	c #C1BB9D",
"_-	c #B1AE8A",
":-	c #888E60",
"<-	c #8B9964",
"[-	c #7F9256",
"}-	c #6A7740",
"|-	c #6D7E3E",
"1-	c #749647",
"2-	c #7BAA4D",
"3-	c #78A24D",
"4-	c #63873E",
"5-	c #465B27",
"6-	c #2A2811",
"7-	c #281611",
"8-	c #200908",
"9-	c #4A5E2A",
"0-	c #87B049",
"a-	c #88B742",
"b-	c #8AB63F",
"c-	c #92BC43",
"d-	c #7E9C42",
"e-	c #465227",
"f-	c #4C5C26",
"g-	c #7FA33E",
"h-	c #91B745",
"i-	c #99B94E",
"j-	c #778A41",
"k-	c #63722E",
"l-	c #8AAD47",
"m-	c #A3D05B",
"n-	c #A1D155",
"o-	c #9CC94D",
"p-	c #678A36",
"q-	c #384225",
"r-	c #2A2C1C",
"s-	c #280B0E",
"t-	c #220703",
"u-	c #5B742C",
"v-	c #5E8135",
"w-	c #587B33",
"x-	c #6C9C47",
"y-	c #679F3E",
"z-	c #6A983B",
"A-	c #577C2B",
"B-	c #81AA45",
"C-	c #86B641",
"D-	c #86B741",
"E-	c #85B741",
"F-	c #759243",
"G-	c #525023",
"H-	c #84A140",
"I-	c #8BB247",
"J-	c #8AB246",
"K-	c #87B041",
"L-	c #83A449",
"M-	c #668C47",
"N-	c #62894F",
"O-	c #2D2E23",
"P-	c #1B0409",
"Q-	c #57563D",
"R-	c #9C9C73",
"S-	c #AEA988",
"T-	c #BEB998",
"U-	c #BFB899",
"V-	c #BCB898",
"W-	c #9C9C75",
"X-	c #8D9663",
"Y-	c #8B9E67",
"Z-	c #798E53",
"`-	c #69753E",
" ;	c #5A672E",
".;	c #7F9E4D",
"+;	c #89BC53",
"@;	c #87BF51",
"#;	c #88BF4D",
"$;	c #85BA4D",
"%;	c #648844",
"&;	c #211E10",
"*;	c #1C0208",
"=;	c #749A40",
"-;	c #82B342",
";;	c #84B63B",
">;	c #90BB42",
",;	c #809F44",
"';	c #48582F",
");	c #434A2F",
"!;	c #4C5E28",
"~;	c #7A9C3D",
"{;	c #90B448",
"];	c #95BA47",
"^;	c #8CA44D",
"/;	c #3C3B19",
"(;	c #77853B",
"_;	c #97C056",
":;	c #A6CF56",
"<;	c #A9D14E",
"[;	c #94C24A",
"};	c #305021",
"|;	c #283926",
"1;	c #261111",
"2;	c #1F0703",
"3;	c #58732E",
"4;	c #577932",
"5;	c #719949",
"6;	c #699D43",
"7;	c #63993A",
"8;	c #6A943D",
"9;	c #485F24",
"0;	c #73953F",
"a;	c #88B944",
"b;	c #89B840",
"c;	c #8AB841",
"d;	c #7FA443",
"e;	c #453D1B",
"f;	c #5D652C",
"g;	c #708B42",
"h;	c #85AE48",
"i;	c #8AB33D",
"j;	c #8CAC46",
"k;	c #648C3F",
"l;	c #5A864B",
"m;	c #282C1E",
"n;	c #1F060C",
"o;	c #6B6A4D",
"p;	c #9F9E79",
"q;	c #B1AB8B",
"r;	c #BAB494",
"s;	c #BCB695",
"t;	c #A8A684",
"u;	c #898A63",
"v;	c #909966",
"w;	c #85935F",
"x;	c #708149",
"y;	c #67743D",
"z;	c #404223",
"A;	c #6A7A45",
"B;	c #7EA953",
"C;	c #8DBF5C",
"D;	c #93C454",
"E;	c #92C551",
"F;	c #88B957",
"G;	c #3D4E2A",
"H;	c #271A18",
"I;	c #74A63C",
"J;	c #7FB241",
"K;	c #88B942",
"L;	c #7DA041",
"M;	c #475A2D",
"N;	c #434930",
"O;	c #242617",
"P;	c #73943E",
"Q;	c #82A642",
"R;	c #87AC40",
"S;	c #85A74B",
"T;	c #333C1E",
"U;	c #47421F",
"V;	c #5B6F30",
"W;	c #84A849",
"X;	c #A2CD51",
"Y;	c #9EC955",
"Z;	c #3C6328",
"`;	c #213F28",
" >	c #1E1612",
".>	c #1D0406",
"+>	c #4D5C2B",
"@>	c #4E6530",
"#>	c #72974B",
"$>	c #679942",
"%>	c #67993F",
"&>	c #5D8339",
"*>	c #424D29",
"=>	c #566F32",
"->	c #7EAC44",
";>	c #8BB347",
">>	c #7DA443",
",>	c #3F401B",
"'>	c #372C1A",
")>	c #384322",
"!>	c #668942",
"~>	c #77A147",
"{>	c #779A47",
"]>	c #527D3E",
"^>	c #4A7545",
"/>	c #22251B",
"(>	c #20060B",
"_>	c #727054",
":>	c #A6A681",
"<>	c #AEA989",
"[>	c #ADA989",
"}>	c #A19E81",
"|>	c #857F68",
"1>	c #7D7A65",
"2>	c #808762",
"3>	c #7B885D",
"4>	c #758652",
"5>	c #67753B",
"6>	c #413F24",
"7>	c #403A23",
"8>	c #47522A",
"9>	c #5E7940",
"0>	c #6E9148",
"a>	c #82AC50",
"b>	c #83AD54",
"c>	c #51723D",
"d>	c #2F2F21",
"e>	c #6F9D3E",
"f>	c #7DAA48",
"g>	c #729646",
"h>	c #435A2C",
"i>	c #485337",
"j>	c #2A271A",
"k>	c #110207",
"l>	c #424821",
"m>	c #67893D",
"n>	c #6E9B40",
"o>	c #7FA546",
"p>	c #7E9F47",
"q>	c #2E3616",
"r>	c #190608",
"s>	c #413522",
"t>	c #415523",
"u>	c #4A6B28",
"v>	c #4C7534",
"w>	c #33642F",
"x>	c #2E472D",
"y>	c #210F0E",
"z>	c #1D0305",
"A>	c #454925",
"B>	c #42522A",
"C>	c #698D49",
"D>	c #648F47",
"E>	c #659447",
"F>	c #4F7237",
"G>	c #40432B",
"H>	c #424C2B",
"I>	c #445D27",
"J>	c #507332",
"K>	c #598541",
"L>	c #5C8246",
"M>	c #37371E",
"N>	c #342D1D",
"O>	c #324029",
"P>	c #314D30",
"Q>	c #365131",
"R>	c #325531",
"S>	c #315D38",
"T>	c #3A5A3E",
"U>	c #221918",
"V>	c #1F0405",
"W>	c #706B54",
"X>	c #A1A584",
"Y>	c #929078",
"Z>	c #807E6C",
"`>	c #767566",
" ,	c #736F63",
".,	c #6A665E",
"+,	c #616051",
"@,	c #63674D",
"#,	c #5F6742",
"$,	c #52612F",
"%,	c #4C5430",
"&,	c #3E3221",
"*,	c #342C19",
"=,	c #40482C",
"-,	c #42532E",
";,	c #486031",
">,	c #476332",
",,	c #3D592C",
"',	c #2A2B17",
"),	c #4E6533",
"!,	c #45622F",
"~,	c #405331",
"{,	c #404B2F",
"],	c #2B2317",
"^,	c #1C0205",
"/,	c #150207",
"(,	c #2E2A16",
"_,	c #5E713A",
":,	c #6F943F",
"<,	c #68853D",
"[,	c #32341F",
"},	c #180109",
"|,	c #301A17",
"1,	c #3F3D2A",
"2,	c #3F4C2B",
"3,	c #40522D",
"4,	c #384728",
"5,	c #2F2922",
"6,	c #220308",
"7,	c #200106",
"8,	c #231309",
"9,	c #312F1A",
"0,	c #374522",
"a,	c #364520",
"b,	c #31441C",
"c,	c #2F391A",
"d,	c #363423",
"e,	c #393826",
"f,	c #3A3D26",
"g,	c #3E4529",
"h,	c #3D4A2C",
"i,	c #3D4129",
"j,	c #2C1C16",
"k,	c #302017",
"l,	c #302B1E",
"m,	c #333223",
"n,	c #343323",
"o,	c #343524",
"p,	c #343824",
"q,	c #323024",
"r,	c #1D060D",
"s,	c #1E0206",
"t,	c #301E15",
"u,	c #70695B",
"v,	c #6C675E",
"w,	c #635D58",
"x,	c #565148",
"y,	c #554D44",
"z,	c #4B463C",
"A,	c #4C4737",
"B,	c #545037",
"C,	c #505032",
"D,	c #565D3A",
"E,	c #535C3A",
"F,	c #353223",
"G,	c #0E0206",
"H,	c #1E130E",
"I,	c #302D1E",
"J,	c #343A22",
"K,	c #353A21",
"L,	c #32351E",
"M,	c #271912",
"N,	c #2A1A16",
"O,	c #2E1C16",
"P,	c #291710",
"Q,	c #24070B",
"R,	c #260607",
"S,	c #280806",
"T,	c #210707",
"U,	c #180804",
"V,	c #373621",
"W,	c #4B552D",
"X,	c #525F30",
"Y,	c #4B4D32",
"Z,	c #1D0D0E",
"`,	c #1D0106",
" '	c #1D0206",
".'	c #230609",
"+'	c #250C0E",
"@'	c #290D0E",
"#'	c #2D0B0C",
"$'	c #28030B",
"%'	c #260105",
"&'	c #260007",
"*'	c #27050B",
"='	c #2B100D",
"-'	c #28140F",
";'	c #2A1410",
">'	c #29170F",
",'	c #2C160E",
"''	c #2C150E",
")'	c #2A140F",
"!'	c #29130F",
"~'	c #271008",
"{'	c #270E08",
"]'	c #250C07",
"^'	c #260D0A",
"/'	c #280E0A",
"('	c #2A0E0B",
"_'	c #2B0D0B",
":'	c #2D110B",
"<'	c #30140E",
"['	c #361310",
"}'	c #37050C",
"|'	c #25000B",
"1'	c #21010A",
"2'	c #250208",
"3'	c #321A19",
"4'	c #3B2423",
"5'	c #341C1B",
"6'	c #2D1713",
"7'	c #2B1412",
"8'	c #26100E",
"9'	c #3D231A",
"0'	c #3A2213",
"a'	c #372516",
"b'	c #3C2C1E",
"c'	c #402D21",
"d'	c #291612",
"e'	c #0D0302",
"f'	c #120602",
"g'	c #1D0C06",
"h'	c #221009",
"i'	c #25100B",
"j'	c #250E0A",
"k'	c #28090C",
"l'	c #20060D",
"m'	c #332813",
"n'	c #41421E",
"o'	c #44491E",
"p'	c #454E1F",
"q'	c #464F19",
"r'	c #485A1D",
"s'	c #7FA445",
"t'	c #729440",
"u'	c #464F1E",
"v'	c #321C13",
"w'	c #31250E",
"x'	c #3D451C",
"y'	c #404B1A",
"z'	c #424D1F",
"A'	c #465023",
"B'	c #435322",
"C'	c #465221",
"D'	c #3E3E18",
"E'	c #2B120C",
"F'	c #2B030A",
"G'	c #36090B",
"H'	c #53382F",
"I'	c #BCAEA1",
"J'	c #CAC0B2",
"K'	c #CCC0B1",
"L'	c #C9BDAC",
"M'	c #C9BEAB",
"N'	c #CCBFAE",
"O'	c #CCC0AE",
"P'	c #CCC1AE",
"Q'	c #CCC2AE",
"R'	c #CCC3B1",
"S'	c #CBC4B1",
"T'	c #CAC4B3",
"U'	c #CCC6B5",
"V'	c #D1CABA",
"W'	c #D3CBBB",
"X'	c #D8D1B8",
"Y'	c #DBD4B9",
"Z'	c #CABCA8",
"`'	c #5B3A37",
" )	c #3B1F21",
".)	c #22010B",
"+)	c #201507",
"@)	c #3F4525",
"#)	c #4B542D",
"$)	c #4A5529",
"%)	c #485526",
"&)	c #435026",
"*)	c #383E21",
"=)	c #464B23",
"-)	c #738E40",
";)	c #7D9A45",
">)	c #6A8039",
",)	c #424C1B",
"')	c #373317",
"))	c #465821",
"!)	c #4E6428",
"~)	c #56662B",
"{)	c #52612A",
"])	c #4D5C26",
"^)	c #44511E",
"/)	c #443D1F",
"()	c #3E4825",
"_)	c #577931",
":)	c #537C2B",
"<)	c #476B21",
"[)	c #354C17",
"})	c #495E20",
"|)	c #6A8F30",
"1)	c #9FD851",
"2)	c #98D547",
"3)	c #8DC34A",
"4)	c #506726",
"5)	c #4A5925",
"6)	c #466928",
"7)	c #4D702C",
"8)	c #547432",
"9)	c #547531",
"0)	c #51742D",
"a)	c #54732D",
"b)	c #556E2D",
"c)	c #545A34",
"d)	c #29110B",
"e)	c #493023",
"f)	c #CFC5A5",
"g)	c #F5F3DD",
"h)	c #F6F6E6",
"i)	c #F7F6E4",
"j)	c #F5F4E0",
"k)	c #F6F3DF",
"l)	c #F5F2DD",
"m)	c #F6F2DD",
"n)	c #F6F2DF",
"o)	c #F4F1DF",
"p)	c #F4F1E0",
"q)	c #F4F1DE",
"r)	c #F6F3DA",
"s)	c #F6F2D9",
"t)	c #F8F3D7",
"u)	c #F7F3D5",
"v)	c #F7F2D7",
"w)	c #E2D9C6",
"x)	c #665750",
"y)	c #26080A",
"z)	c #4E612C",
"A)	c #5D8139",
"B)	c #5A8035",
"C)	c #557D2D",
"D)	c #52792A",
"E)	c #4A7127",
"F)	c #425C27",
"G)	c #5B7334",
"H)	c #AADC65",
"I)	c #ACE360",
"J)	c #AEDF62",
"K)	c #ACD25B",
"L)	c #79933E",
"M)	c #516F1F",
"N)	c #5A7C2A",
"O)	c #5E7B2F",
"P)	c #5A782E",
"Q)	c #59772C",
"R)	c #547128",
"S)	c #535A29",
"T)	c #5D8241",
"U)	c #65943D",
"V)	c #64953B",
"W)	c #67963D",
"X)	c #5E7F34",
"Y)	c #4E6626",
"Z)	c #7FA53E",
"`)	c #9FD44C",
" !	c #9DD74C",
".!	c #9ED74C",
"+!	c #99CE56",
"@!	c #628333",
"#!	c #4B622D",
"$!	c #536A39",
"%!	c #577033",
"&!	c #56702F",
"*!	c #547034",
"=!	c #547033",
"-!	c #557131",
";!	c #536733",
">!	c #2A1C11",
",!	c #594234",
"'!	c #E0D8B8",
")!	c #E6E6CA",
"!!	c #EEEDD4",
"~!	c #EBE9CD",
"{!	c #E5E3C5",
"]!	c #E4E0C2",
"^!	c #E2DEBF",
"/!	c #E1DCBF",
"(!	c #DFDBBE",
"_!	c #DDDABE",
":!	c #DDDABF",
"<!	c #DDD9BF",
"[!	c #DED9BE",
"}!	c #DED9BD",
"|!	c #DFDBBD",
"1!	c #E2DBBE",
"2!	c #E2D9BC",
"3!	c #DBD1B5",
"4!	c #C8BFA1",
"5!	c #BFB59B",
"6!	c #715E57",
"7!	c #2C0D0A",
"8!	c #556A2C",
"9!	c #587E2E",
"0!	c #577C2E",
"a!	c #557B2D",
"b!	c #53782C",
"c!	c #4D712A",
"d!	c #445926",
"e!	c #627639",
"f!	c #ADD767",
"g!	c #B5E362",
"h!	c #B5E261",
"i!	c #B7E05E",
"j!	c #ACD157",
"k!	c #658329",
"l!	c #617E31",
"m!	c #617F32",
"n!	c #5E7C31",
"o!	c #5B792E",
"p!	c #59762D",
"q!	c #58612F",
"r!	c #5A8232",
"s!	c #67973A",
"t!	c #6B9D3B",
"u!	c #6C9F3C",
"v!	c #6A9C3A",
"w!	c #6C963B",
"x!	c #779B3B",
"y!	c #9FCC50",
"z!	c #9ED14E",
"A!	c #9BD34A",
"B!	c #9ED74B",
"C!	c #A1D054",
"D!	c #739241",
"E!	c #5E7335",
"F!	c #7A953D",
"G!	c #829F41",
"H!	c #6F8D39",
"I!	c #567332",
"J!	c #536635",
"K!	c #2D1F15",
"L!	c #5F463A",
"M!	c #DDD4B6",
"N!	c #DCDBBB",
"O!	c #D3CEAD",
"P!	c #D2CFA8",
"Q!	c #D8D4B2",
"R!	c #D5D2B1",
"S!	c #D4D0B1",
"T!	c #D3CFB1",
"U!	c #D5D0B3",
"V!	c #D5D0B2",
"W!	c #D6D1B4",
"X!	c #D7D2B4",
"Y!	c #D7D2B5",
"Z!	c #D7D2B6",
"`!	c #D7CFB8",
" ~	c #D2C8B2",
".~	c #C3B7A2",
"+~	c #BBB09A",
"@~	c #B6AB94",
"#~	c #705D53",
"$~	c #31110D",
"%~	c #596E30",
"&~	c #597E2E",
"*~	c #597E30",
"=~	c #597F30",
"-~	c #59802E",
";~	c #567C2F",
">~	c #586D32",
",~	c #6B743B",
"'~	c #79943E",
")~	c #9DC056",
"!~	c #AFD460",
"~~	c #B2D95F",
"{~	c #ABD257",
"]~	c #719331",
"^~	c #628130",
"/~	c #618331",
"(~	c #618031",
"_~	c #5F7D2E",
":~	c #5C7A2C",
"<~	c #5B732F",
"[~	c #5A7635",
"}~	c #6D9642",
"|~	c #72A040",
"1~	c #6C9C3D",
"2~	c #6C9E3B",
"3~	c #5E7D2E",
"4~	c #6E8B33",
"5~	c #96C24D",
"6~	c #A4D454",
"7~	c #A5D553",
"8~	c #A4D553",
"9~	c #82A847",
"0~	c #7A9B3E",
"a~	c #A1C64B",
"b~	c #A5CA49",
"c~	c #A8CA50",
"d~	c #708B37",
"e~	c #587035",
"f~	c #556739",
"g~	c #2F2418",
"h~	c #5D453A",
"i~	c #DACFB5",
"j~	c #E0D9BD",
"k~	c #D1C7AA",
"l~	c #C5BC9D",
"m~	c #D6D1B5",
"n~	c #D8D3B7",
"o~	c #D7D2B7",
"p~	c #D8D3B8",
"q~	c #D5CEB5",
"r~	c #C6BCA4",
"s~	c #C0B59E",
"t~	c #BDB29C",
"u~	c #B9AD9A",
"v~	c #715E55",
"w~	c #32160C",
"x~	c #596E2E",
"y~	c #5C8130",
"z~	c #5E8234",
"A~	c #5F8731",
"B~	c #719D38",
"C~	c #70A039",
"D~	c #618531",
"E~	c #6A822D",
"F~	c #76942B",
"G~	c #799E34",
"H~	c #82A73A",
"I~	c #95B841",
"J~	c #96B742",
"K~	c #708E2E",
"L~	c #63862F",
"M~	c #638832",
"N~	c #628332",
"O~	c #607F30",
"P~	c #5C7C2D",
"Q~	c #597631",
"R~	c #4E5930",
"S~	c #5F793B",
"T~	c #6C9142",
"U~	c #6C9738",
"V~	c #759D39",
"W~	c #7CA23E",
"X~	c #759A40",
"Y~	c #648331",
"Z~	c #6A922F",
"`~	c #86AD41",
" {	c #8CB447",
".{	c #84AD41",
"+{	c #6D9134",
"@{	c #93B64D",
"#{	c #A2C844",
"${	c #A6CC41",
"%{	c #ABCD4A",
"&{	c #86A045",
"*{	c #5A7037",
"={	c #54693A",
"-{	c #2D2618",
";{	c #D7CBB2",
">{	c #DED6BA",
",{	c #CEC3A7",
"'{	c #C7BDA1",
"){	c #CCC7AB",
"!{	c #D7D2B8",
"~{	c #D8D3B9",
"{{	c #D8D3BA",
"]{	c #D6D1B8",
"^{	c #CBC3AD",
"/{	c #C4BBA5",
"({	c #C2B6A2",
"_{	c #C2B6A1",
":{	c #BDB19F",
"<{	c #736057",
"[{	c #301709",
"}{	c #586D2D",
"|{	c #5E812F",
"1{	c #668C32",
"2{	c #90BF47",
"3{	c #90C53E",
"4{	c #84BB3A",
"5{	c #7BAF3F",
"6{	c #698731",
"7{	c #6A882D",
"8{	c #789B30",
"9{	c #7B9F30",
"0{	c #7DA22F",
"a{	c #7C9F30",
"b{	c #6D8D2F",
"c{	c #668931",
"d{	c #648A33",
"e{	c #628434",
"f{	c #5F8032",
"g{	c #5C7D2E",
"h{	c #597531",
"i{	c #403E2A",
"j{	c #484F2E",
"k{	c #596B36",
"l{	c #7E9D3E",
"m{	c #8EB93D",
"n{	c #8CBE3D",
"o{	c #87BD41",
"p{	c #749D37",
"q{	c #6D932F",
"r{	c #6F962E",
"s{	c #6D962F",
"t{	c #6E9732",
"u{	c #6C9135",
"v{	c #739437",
"w{	c #A7CB52",
"x{	c #ABD04E",
"y{	c #ACCC50",
"z{	c #859F47",
"A{	c #5B7239",
"B{	c #536A3A",
"C{	c #2B2718",
"D{	c #5C4539",
"E{	c #D4C8AE",
"F{	c #DAD2B6",
"G{	c #CDC4A7",
"H{	c #CBC3A6",
"I{	c #CAC4A8",
"J{	c #D0CBAF",
"K{	c #D8D2B6",
"L{	c #D4CFB8",
"M{	c #C9C2B0",
"N{	c #C5BCAB",
"O{	c #C4B9A6",
"P{	c #C3B7A3",
"Q{	c #C2B7A3",
"R{	c #BEB2A1",
"S{	c #726056",
"T{	c #331B0D",
"U{	c #596E2D",
"V{	c #60802E",
"W{	c #749938",
"X{	c #9FCF4D",
"Y{	c #97CB3F",
"Z{	c #8FC73A",
"`{	c #85BE3E",
" ]	c #7DA63A",
".]	c #64802C",
"+]	c #6D8933",
"@]	c #759334",
"#]	c #76992F",
"$]	c #769B32",
"%]	c #6A8B30",
"&]	c #678B32",
"*]	c #668B33",
"=]	c #638434",
"-]	c #5E7E32",
";]	c #5A7B2E",
">]	c #3C2C25",
",]	c #464D2C",
"']	c #4E6326",
")]	c #759B3B",
"!]	c #80B137",
"~]	c #84B638",
"{]	c #89BB3D",
"]]	c #83AE41",
"^]	c #6F9432",
"/]	c #6F9431",
"(]	c #6F9832",
"_]	c #749E33",
":]	c #597831",
"<]	c #6F8E3D",
"[]	c #7F9E43",
"}]	c #7C9541",
"|]	c #627835",
"1]	c #5D723C",
"2]	c #576B3B",
"3]	c #5D473B",
"4]	c #CFC2A9",
"5]	c #D1C9AE",
"6]	c #CDC4AA",
"7]	c #CDC4A9",
"8]	c #CCC5A9",
"9]	c #CDC6AB",
"0]	c #D2CBB0",
"a]	c #D9D3B7",
"b]	c #D4CEB7",
"c]	c #C9C2AF",
"d]	c #C8BFB0",
"e]	c #C4BBAA",
"f]	c #C3B9A6",
"g]	c #C3B8A5",
"h]	c #C2B8A5",
"i]	c #BCB3A1",
"j]	c #726157",
"k]	c #371E0F",
"l]	c #596F2C",
"m]	c #617F2E",
"n]	c #64852B",
"o]	c #8DB346",
"p]	c #9FCC4A",
"q]	c #99CC44",
"r]	c #92C141",
"s]	c #87B13B",
"t]	c #667D33",
"u]	c #658233",
"v]	c #6A8A32",
"w]	c #709037",
"x]	c #698832",
"y]	c #6D8D36",
"z]	c #719235",
"A]	c #6D8B32",
"B]	c #5F7A2F",
"C]	c #536C2D",
"D]	c #505B2E",
"E]	c #3F4718",
"F]	c #62882F",
"G]	c #749E38",
"H]	c #77A534",
"I]	c #77A830",
"J]	c #76A731",
"K]	c #77A734",
"L]	c #78A23B",
"M]	c #60822D",
"N]	c #6C8F34",
"O]	c #76A132",
"P]	c #77A533",
"Q]	c #739839",
"R]	c #648041",
"S]	c #678341",
"T]	c #587433",
"U]	c #556B32",
"V]	c #607539",
"W]	c #5F7639",
"X]	c #5B6D3C",
"Y]	c #2D2617",
"Z]	c #5F4A3D",
"`]	c #CBBEA4",
" ^	c #CEC5AB",
".^	c #CDC6AA",
"+^	c #D3CCB1",
"@^	c #D8D3BB",
"#^	c #D5D0B9",
"$^	c #CAC4B1",
"%^	c #C7C0B0",
"&^	c #C6BEAF",
"*^	c #C4BCAA",
"=^	c #C2B8A7",
"-^	c #C0B5A4",
";^	c #BEB4A2",
">^	c #BCB2A1",
",^	c #3B2313",
"'^	c #576C2A",
")^	c #5D7D2A",
"!^	c #5E7E2B",
"~^	c #5D7A27",
"{^	c #87A842",
"]^	c #9EC750",
"^^	c #8FB947",
"/^	c #85AD48",
"(^	c #73973B",
"_^	c #657B32",
":^	c #648033",
"<^	c #6B8B34",
"[^	c #6F8D36",
"}^	c #6B8A31",
"|^	c #789A32",
"1^	c #779731",
"2^	c #749232",
"3^	c #67822C",
"4^	c #4B5022",
"5^	c #678633",
"6^	c #74A634",
"7^	c #75A72F",
"8^	c #77A82D",
"9^	c #77A82F",
"0^	c #77A62F",
"a^	c #75A732",
"b^	c #77A632",
"c^	c #729838",
"d^	c #6A8F34",
"e^	c #7CA635",
"f^	c #79A635",
"g^	c #6E9338",
"h^	c #5C783A",
"i^	c #5D743C",
"j^	c #5C6D38",
"k^	c #5C743A",
"l^	c #5E773C",
"m^	c #5B7238",
"n^	c #596B38",
"o^	c #2B2415",
"p^	c #604D41",
"q^	c #C8BEA5",
"r^	c #CCC5AB",
"s^	c #CCC4AA",
"t^	c #CDC5AB",
"u^	c #CEC6AD",
"v^	c #D3CCB2",
"w^	c #D1CAB0",
"x^	c #D2CBB5",
"y^	c #CAC3B0",
"z^	c #C8C2B0",
"A^	c #C8C1B1",
"B^	c #C6C0B0",
"C^	c #C4BDAD",
"D^	c #C0B7A7",
"E^	c #B9B0A0",
"F^	c #B7AE9C",
"G^	c #BBB1A0",
"H^	c #736159",
"I^	c #3B2315",
"J^	c #566829",
"K^	c #5C7A28",
"L^	c #5E7C2C",
"M^	c #5B752B",
"N^	c #556927",
"O^	c #677836",
"P^	c #617433",
"Q^	c #536730",
"R^	c #6B823C",
"S^	c #688334",
"T^	c #63832C",
"U^	c #719332",
"V^	c #74972F",
"W^	c #779B32",
"X^	c #799C31",
"Y^	c #779B2F",
"Z^	c #769A2E",
"`^	c #72982D",
" /	c #6E922A",
"./	c #5E7B29",
"+/	c #668537",
"@/	c #769F3B",
"#/	c #77A433",
"$/	c #74A32C",
"%/	c #75A331",
"&/	c #73A038",
"*/	c #70973C",
"=/	c #6C9138",
"-/	c #668B32",
";/	c #729A35",
">/	c #7BA534",
",/	c #769F35",
"'/	c #749A39",
")/	c #80A240",
"!/	c #75943D",
"~/	c #586B2D",
"{/	c #576B38",
"]/	c #596D3C",
"^/	c #556735",
"//	c #556336",
"(/	c #271F13",
"_/	c #5D4D41",
":/	c #C4BDA4",
"</	c #CBC5AB",
"[/	c #CDC5AA",
"}/	c #CCC4AB",
"|/	c #CCC4AC",
"1/	c #CEC6AF",
"2/	c #D0C9B0",
"3/	c #C9C3AA",
"4/	c #C9C1AE",
"5/	c #C7C0AE",
"6/	c #C8C2B1",
"7/	c #C7C2B1",
"8/	c #C6BFAF",
"9/	c #C2BCAC",
"0/	c #BCB4A4",
"a/	c #B4AC9B",
"b/	c #BBB1A2",
"c/	c #74625B",
"d/	c #3B2316",
"e/	c #586729",
"f/	c #5E782A",
"g/	c #61772E",
"h/	c #586D2C",
"i/	c #55652E",
"j/	c #5A692C",
"k/	c #5F722D",
"l/	c #627B30",
"m/	c #6C8E2E",
"n/	c #6B8F2D",
"o/	c #6C912D",
"p/	c #72972C",
"q/	c #759832",
"r/	c #759833",
"s/	c #779833",
"t/	c #779732",
"u/	c #72952F",
"v/	c #6B912B",
"w/	c #5E842D",
"x/	c #4D6824",
"y/	c #5F7E31",
"z/	c #698D35",
"A/	c #6D9434",
"B/	c #6B9435",
"C/	c #5E853A",
"D/	c #506635",
"E/	c #4C642A",
"F/	c #6C8F35",
"G/	c #749E2F",
"H/	c #759E30",
"I/	c #7DA53A",
"J/	c #93BC47",
"K/	c #8FB73E",
"L/	c #8EB63F",
"M/	c #5B7030",
"N/	c #4F5B32",
"O/	c #515C31",
"P/	c #515B34",
"Q/	c #271E16",
"R/	c #5E4D43",
"S/	c #CBC5AA",
"T/	c #CCC5AA",
"U/	c #CCC5AE",
"V/	c #CFC8B2",
"W/	c #C8C3AB",
"X/	c #BBB79D",
"Y/	c #BEBAA5",
"Z/	c #C5BFAC",
"`/	c #C8C3B2",
" (	c #C7C3B2",
".(	c #C4BDAE",
"+(	c #BFB8A9",
"@(	c #B7AF9F",
"#(	c #BCB2A3",
"$(	c #6F5E58",
"%(	c #361D11",
"&(	c #556225",
"*(	c #596E27",
"=(	c #576927",
"-(	c #526821",
";(	c #688B2F",
">(	c #76A034",
",(	c #75A130",
"'(	c #749F33",
")(	c #719B34",
"!(	c #6A922D",
"~(	c #698E2E",
"{(	c #749834",
"](	c #607D31",
"^(	c #60752F",
"/(	c #617432",
"((	c #637B33",
"_(	c #60812C",
":(	c #5A7A2F",
"<(	c #506529",
"[(	c #51692B",
"}(	c #547230",
"|(	c #587C35",
"1(	c #517833",
"2(	c #4C6C33",
"3(	c #485730",
"4(	c #648534",
"5(	c #719A30",
"6(	c #739D31",
"7(	c #86AC43",
"8(	c #94C03F",
"9(	c #8FBB3A",
"0(	c #92BD42",
"a(	c #92BC42",
"b(	c #545D2B",
"c(	c #5E6537",
"d(	c #57623A",
"e(	c #291F19",
"f(	c #5F5046",
"g(	c #C3BCA5",
"h(	c #C9C4A9",
"i(	c #C9C4AA",
"j(	c #C9C2A9",
"k(	c #C8C1AA",
"l(	c #C9C2AB",
"m(	c #CBC5AE",
"n(	c #BAB59E",
"o(	c #B9B6A0",
"p(	c #BBB7A4",
"q(	c #BFBBA8",
"r(	c #C4C0AE",
"s(	c #C8C4B4",
"t(	c #C8C4B5",
"u(	c #C8BFB2",
"v(	c #C4BCAF",
"w(	c #BEB5A8",
"x(	c #B6AD9E",
"y(	c #B9AFA0",
"z(	c #6C5B53",
"A(	c #301712",
"B(	c #465021",
"C(	c #465920",
"D(	c #61782D",
"E(	c #799C34",
"F(	c #79A933",
"G(	c #77A630",
"H(	c #78A732",
"I(	c #78A532",
"J(	c #76A231",
"K(	c #6E9833",
"L(	c #62832E",
"M(	c #6B8D35",
"N(	c #739A35",
"O(	c #73993C",
"P(	c #698737",
"Q(	c #5A6A2D",
"R(	c #484220",
"S(	c #37321C",
"T(	c #37371B",
"U(	c #323016",
"V(	c #3F3921",
"W(	c #495127",
"X(	c #4F5F31",
"Y(	c #475C2F",
"Z(	c #41542C",
"`(	c #343A26",
" _	c #405627",
"._	c #769F31",
"+_	c #739C34",
"@_	c #638234",
"#_	c #607D30",
"$_	c #94BA4A",
"%_	c #98C241",
"&_	c #9AC545",
"*_	c #98C443",
"=_	c #86AF3F",
"-_	c #5D6E30",
";_	c #5B653A",
">_	c #58603B",
",_	c #62524A",
"'_	c #C3BBA6",
")_	c #C8C3A7",
"!_	c #C8C2A8",
"~_	c #C7C0A8",
"{_	c #C8C0AA",
"]_	c #C7BFA9",
"^_	c #C4BEA9",
"/_	c #BEB8A4",
"(_	c #BBB5A2",
"__	c #BAB6A5",
":_	c #BCB8A6",
"<_	c #BCB8A7",
"[_	c #BDB9A8",
"}_	c #C4C0B0",
"|_	c #C7C2B4",
"1_	c #C5BAAE",
"2_	c #C0B4A8",
"3_	c #BFB0A5",
"4_	c #B9ACA1",
"5_	c #B9AEA2",
"6_	c #6C5A53",
"7_	c #2E1414",
"8_	c #393F19",
"9_	c #5F7631",
"0_	c #799A37",
"a_	c #77A12E",
"b_	c #78A932",
"c_	c #7BAA33",
"d_	c #7DAB37",
"e_	c #79A534",
"f_	c #6C8C38",
"g_	c #6F903B",
"h_	c #80B545",
"i_	c #82B148",
"j_	c #7DAA45",
"k_	c #678739",
"l_	c #343114",
"m_	c #320A10",
"n_	c #2C090C",
"o_	c #423927",
"p_	c #3E3721",
"q_	c #423A24",
"r_	c #393320",
"s_	c #343221",
"t_	c #343723",
"u_	c #557530",
"v_	c #7AA736",
"w_	c #78A330",
"x_	c #729C32",
"y_	c #72963D",
"z_	c #526D30",
"A_	c #6D863F",
"B_	c #94BB54",
"C_	c #9BC24F",
"D_	c #90B745",
"E_	c #809E3F",
"F_	c #5C6F35",
"G_	c #58673B",
"H_	c #555F39",
"I_	c #281D18",
"J_	c #64534E",
"K_	c #C3BBA7",
"L_	c #C8C2A9",
"M_	c #C7BFA8",
"N_	c #C7BEA8",
"O_	c #C8BEAB",
"P_	c #C0B9A2",
"Q_	c #BDB5A1",
"R_	c #BCB5A5",
"S_	c #BBB6A8",
"T_	c #BBB6AA",
"U_	c #BCB5A7",
"V_	c #BEB7AA",
"W_	c #BFB4A8",
"X_	c #BEB1A6",
"Y_	c #BDAFA4",
"Z_	c #BBAEA4",
"`_	c #B9AEA3",
" :	c #695653",
".:	c #2C130F",
"+:	c #36381C",
"@:	c #607C31",
"#:	c #73A035",
"$:	c #78A430",
"%:	c #7EA834",
"&:	c #81AC35",
"*:	c #7DA735",
"=:	c #6E9635",
"-:	c #5B812A",
";:	c #709B3C",
">:	c #608333",
",:	c #4B581D",
"':	c #82A647",
"):	c #8BBE49",
"!:	c #8ABC44",
"~:	c #8ABD42",
"{:	c #81B53F",
"]:	c #6B8A3F",
"^:	c #362418",
"/:	c #310C11",
"(:	c #4E6531",
"_:	c #4B652E",
"::	c #48592B",
"<:	c #414825",
"[:	c #4A6033",
"}:	c #475E31",
"|:	c #56792D",
"1:	c #7AA733",
"2:	c #7AA633",
"3:	c #7AA439",
"4:	c #789F3B",
"5:	c #617D39",
"6:	c #3D4735",
"7:	c #677E48",
"8:	c #758F44",
"9:	c #6E893E",
"0:	c #6D8240",
"a:	c #4F6031",
"b:	c #556537",
"c:	c #565E3B",
"d:	c #261A16",
"e:	c #62514E",
"f:	c #C5BDAA",
"g:	c #C6BEA7",
"h:	c #C3B9A4",
"i:	c #BFB5A0",
"j:	c #BEB6A2",
"k:	c #BCB6A2",
"l:	c #BDB6A5",
"m:	c #BDB6AA",
"n:	c #BCB6AA",
"o:	c #BBB6AC",
"p:	c #BBB6AB",
"q:	c #BEB6AA",
"r:	c #BEB4A7",
"s:	c #C1B7AA",
"t:	c #C7BDB0",
"u:	c #C2B9AC",
"v:	c #665655",
"w:	c #2B1311",
"x:	c #373B1E",
"y:	c #5C7830",
"z:	c #6E9932",
"A:	c #70982F",
"B:	c #7BA137",
"C:	c #6C9033",
"D:	c #547328",
"E:	c #4D6E26",
"F:	c #75A043",
"G:	c #72A23E",
"H:	c #648C40",
"I:	c #3F4725",
"J:	c #5C6F32",
"K:	c #85AD4C",
"L:	c #8DBD4A",
"M:	c #8BBC42",
"N:	c #84B93E",
"O:	c #7BAE45",
"P:	c #476233",
"Q:	c #3C3629",
"R:	c #4F6C2E",
"S:	c #4D7430",
"T:	c #4F7231",
"U:	c #4E6E30",
"V:	c #48662F",
"W:	c #475E2E",
"X:	c #4E6D27",
"Y:	c #7CA83A",
"Z:	c #7AA534",
"`:	c #78A134",
" <	c #6A8939",
".<	c #292F1B",
"+<	c #3B4428",
"@<	c #45532D",
"#<	c #43512A",
"$<	c #415328",
"%<	c #4A5C33",
"&<	c #556638",
"*<	c #575E3C",
"=<	c #241715",
"-<	c #60524E",
";<	c #C9C5B2",
"><	c #CCC7AE",
",<	c #BFB59F",
"'<	c #BEB49E",
")<	c #BDB5A3",
"!<	c #BCB6A8",
"~<	c #BCB7AB",
"{<	c #BCB7AD",
"]<	c #BCB7AC",
"^<	c #BCB8AB",
"/<	c #BBB7AB",
"(<	c #BCB6A9",
"_<	c #BFB9AA",
":<	c #C9C3B1",
"<<	c #C2BEAC",
"[<	c #5E5251",
"}<	c #281311",
"|<	c #3F4B26",
"1<	c #3B541E",
"2<	c #3F5F1D",
"3<	c #3D591D",
"4<	c #3D511E",
"5<	c #3B4A1F",
"6<	c #4A6029",
"7<	c #7FA846",
"8<	c #7FB243",
"9<	c #79AD40",
"0<	c #72A142",
"a<	c #4D6331",
"b<	c #53572C",
"c<	c #677E32",
"d<	c #80AA4B",
"e<	c #80B23D",
"f<	c #7DAF42",
"g<	c #567D38",
"h<	c #3C462F",
"i<	c #4E6431",
"j<	c #506F34",
"k<	c #517034",
"l<	c #4E6D32",
"m<	c #4B6530",
"n<	c #44592F",
"o<	c #435828",
"p<	c #6D9442",
"q<	c #7FA53F",
"r<	c #7BA733",
"s<	c #7BA736",
"t<	c #6D8C39",
"u<	c #3A4229",
"v<	c #3F4B2E",
"w<	c #44552F",
"x<	c #485933",
"y<	c #4A5D2E",
"z<	c #4B5E2E",
"A<	c #586839",
"B<	c #5A6140",
"C<	c #241816",
"D<	c #5E514D",
"E<	c #B0AF9B",
"F<	c #BDB59E",
"G<	c #BDB49F",
"H<	c #BDB5A6",
"I<	c #BBB7AA",
"J<	c #BBB8AC",
"K<	c #BBB8AE",
"L<	c #BBB9AD",
"M<	c #BBB9AC",
"N<	c #BAB8AB",
"O<	c #BCB7A9",
"P<	c #C0BAAA",
"Q<	c #BAB8AA",
"R<	c #564C4D",
"S<	c #27100E",
"T<	c #3D4E27",
"U<	c #45662F",
"V<	c #405C2C",
"W<	c #3F5629",
"X<	c #3C4925",
"Y<	c #526833",
"Z<	c #82AD4A",
"`<	c #82B041",
" [	c #82B244",
".[	c #7CAA44",
"+[	c #62843C",
"@[	c #302A14",
"#[	c #514C27",
"$[	c #5F7843",
"%[	c #648E3D",
"&[	c #77A141",
"*[	c #759D41",
"=[	c #52743A",
"-[	c #394433",
";[	c #445126",
">[	c #4A602E",
",[	c #506A35",
"'[	c #4F6933",
")[	c #4B6531",
"![	c #3F5332",
"~[	c #303D21",
"{[	c #436136",
"][	c #567B3A",
"^[	c #6D9443",
"/[	c #749C46",
"([	c #677F3E",
"_[	c #3B442E",
":[	c #3B522D",
"<[	c #42582C",
"[[	c #43592C",
"}[	c #475C2C",
"|[	c #475B2B",
"1[	c #5B6041",
"2[	c #201112",
"3[	c #5B4E4B",
"4[	c #928778",
"5[	c #A69889",
"6[	c #BDB4A4",
"7[	c #B7AF9E",
"8[	c #B9B39F",
"9[	c #BBB7A7",
"0[	c #BAB8AC",
"a[	c #BAB7AE",
"b[	c #BAB7AF",
"c[	c #BAB7AD",
"d[	c #B9B6AC",
"e[	c #B8B5AB",
"f[	c #B8B4A8",
"g[	c #B6B1A9",
"h[	c #A29A97",
"i[	c #9D9898",
"j[	c #4E434A",
"k[	c #250F0E",
"l[	c #42532C",
"m[	c #3F632A",
"n[	c #44642F",
"o[	c #3F622C",
"p[	c #3E612A",
"q[	c #3D562E",
"r[	c #344621",
"s[	c #6F8F45",
"t[	c #769942",
"u[	c #79A344",
"v[	c #7EA74F",
"w[	c #658744",
"x[	c #1F200F",
"y[	c #382518",
"z[	c #3F472D",
"A[	c #384D2D",
"B[	c #435B31",
"C[	c #3F5635",
"D[	c #2E4532",
"E[	c #2B332B",
"F[	c #40461D",
"G[	c #435525",
"H[	c #425A2B",
"I[	c #455F2F",
"J[	c #475D30",
"K[	c #3C502A",
"L[	c #292517",
"M[	c #404D36",
"N[	c #3E5F37",
"O[	c #3F6139",
"P[	c #3D5E35",
"Q[	c #3E5334",
"R[	c #37482D",
"S[	c #3F532F",
"T[	c #43572E",
"U[	c #43562D",
"V[	c #47592E",
"W[	c #465A2F",
"X[	c #4B5E36",
"Y[	c #4E5238",
"Z[	c #1C040A",
"`[	c #311E21",
" }	c #85706F",
".}	c #836565",
"+}	c #8E807A",
"@}	c #8D847C",
"#}	c #978E87",
"$}	c #99928D",
"%}	c #918E89",
"&}	c #8A8885",
"*}	c #888684",
"=}	c #8B8888",
"-}	c #8C8A8B",
";}	c #8E8B8A",
">}	c #918D8C",
",}	c #908D8B",
"'}	c #908E8D",
")}	c #8F8E8C",
"!}	c #918E8D",
"~}	c #938F8F",
"{}	c #898488",
"]}	c #6F6B72",
"^}	c #3E3239",
"/}	c #1C0308",
"(}	c #303C1E",
"_}	c #456731",
":}	c #41622B",
"<}	c #3D602C",
"[}	c #3F622E",
"}}	c #3F542D",
"|}	c #394A25",
"1}	c #4D6436",
"2}	c #516937",
"3}	c #54743D",
"4}	c #577840",
"5}	c #506D41",
"6}	c #1F2213",
"7}	c #2D1312",
"8}	c #30261C",
"9}	c #293222",
"0}	c #293929",
"a}	c #273629",
"b}	c #212F25",
"c}	c #242520",
"d}	c #2D210F",
"e}	c #434220",
"f}	c #444925",
"g}	c #3E4722",
"h}	c #3F4726",
"i}	c #393C21",
"j}	c #24170F",
"k}	c #2F291D",
"l}	c #363C29",
"m}	c #35402B",
"n}	c #343F29",
"o}	c #323826",
"p}	c #2D3021",
"q}	c #313623",
"r}	c #343A20",
"s}	c #393F25",
"t}	c #3E4427",
"u}	c #404428",
"v}	c #43432C",
"w}	c #322319",
"x}	c #26020C",
"y}	c #2E010F",
"z}	c #421D23",
"A}	c #7E5B60",
"B}	c #7D6C6C",
"C}	c #7A6E6D",
"D}	c #78696B",
"E}	c #74686A",
"F}	c #706668",
"G}	c #6C6165",
"H}	c #6D6266",
"I}	c #6F646A",
"J}	c #71656B",
"K}	c #75676D",
"L}	c #776A6E",
"M}	c #7B6D71",
"N}	c #7A6B70",
"O}	c #7C6E72",
"P}	c #7D6C72",
"Q}	c #7E6D73",
"R}	c #74626B",
"S}	c #483841",
"T}	c #270D17",
"U}	c #1A0108",
"V}	c #1C0F0D",
"W}	c #323B20",
"X}	c #394422",
"Y}	c #3D4726",
"Z}	c #3C4524",
"`}	c #32361D",
" |	c #2B2F16",
".|	c #383F22",
"+|	c #41492B",
"@|	c #434D30",
"#|	c #3E4A2C",
"$|	c #333B27",
"%|	c #190D0D",
"&|	c #270B0F",
"*|	c #2E1412",
"=|	c #2D2019",
"-|	c #2C221C",
";|	c #2D231D",
">|	c #261C18",
",|	c #1D0C0B",
"'|	c #2C0F0D",
")|	c #260E08",
"!|	c #230D09",
"~|	c #210C08",
"{|	c #231207",
"]|	c #343319",
"^|	c #302F18",
"/|	c #2F1D12",
"(|	c #361D15",
"_|	c #331A13",
":|	c #29150A",
"<|	c #27120B",
"[|	c #260F0B",
"}|	c #28100C",
"||	c #270E0A",
"1|	c #280F0B",
"2|	c #2D100F",
"3|	c #310C12",
"4|	c #2E030D",
"5|	c #2F000D",
"6|	c #34000D",
"7|	c #3A010C",
"8|	c #3D1819",
"9|	c #3B2520",
"0|	c #39251F",
"a|	c #39211C",
"b|	c #3A231C",
"c|	c #3C271E",
"d|	c #3A251E",
"e|	c #3A2620",
"f|	c #3B2621",
"g|	c #3B2522",
"h|	c #3E2523",
"i|	c #3E2322",
"j|	c #3C2221",
"k|	c #402524",
"l|	c #432627",
"m|	c #452729",
"n|	c #46282A",
"o|	c #3C2124",
"p|	c #25020D",
"q|	c #28020E",
"r|	c #200108",
"s|	c #230A0B",
"t|	c #270E0E",
"u|	c #2D140E",
"v|	c #30150D",
"w|	c #27120F",
"x|	c #25120A",
"y|	c #3F4518",
"z|	c #4F6723",
"A|	c #4F6423",
"B|	c #3D4819",
"C|	c #231E08",
"D|	c #1F0A0B",
"E|	c #261309",
"F|	c #291306",
"G|	c #260E04",
"H|	c #260C03",
"I|	c #260605",
"J|	c #240307",
"K|	c #250205",
"L|	c #241111",
"M|	c #4F4831",
"N|	c #4B452A",
"O|	c #3D3521",
"P|	c #3F3723",
"Q|	c #697F40",
"R|	c #ACD870",
"S|	c #AED76C",
"T|	c #738B49",
"U|	c #352F13",
"V|	c #352A18",
"W|	c #92907D",
"X|	c #A3A190",
"Y|	c #A3A28F",
"Z|	c #A6A78E",
"`|	c #A5A58B",
" 1	c #A5A087",
".1	c #948978",
"+1	c #3E2223",
"@1	c #2E050E",
"#1	c #2D0407",
"$1	c #423D17",
"%1	c #61742E",
"&1	c #688437",
"*1	c #678336",
"=1	c #657F35",
"-1	c #607935",
";1	c #5E7833",
">1	c #65833D",
",1	c #63843F",
"'1	c #61803C",
")1	c #5E7C3A",
"!1	c #526E2D",
"~1	c #50702A",
"{1	c #56762E",
"]1	c #587831",
"^1	c #5C7937",
"/1	c #5D7838",
"(1	c #5B783A",
"_1	c #5A793A",
":1	c #576938",
"<1	c #38331E",
"[1	c #200409",
"}1	c #262408",
"|1	c #53622F",
"11	c #748545",
"21	c #626E36",
"31	c #382B13",
"41	c #361C13",
"51	c #36210C",
"61	c #7F963D",
"71	c #A1D554",
"81	c #A7DF5B",
"91	c #A8D65A",
"01	c #9FC157",
"a1	c #627833",
"b1	c #445817",
"c1	c #587B23",
"d1	c #608530",
"e1	c #729743",
"f1	c #66803E",
"g1	c #4C4C2B",
"h1	c #484D2C",
"i1	c #5A673D",
"j1	c #5C653D",
"k1	c #575E3D",
"l1	c #5B6243",
"m1	c #89AA5D",
"n1	c #C6F481",
"o1	c #D1F87F",
"p1	c #C5EF7E",
"q1	c #A5CC6E",
"r1	c #516A2F",
"s1	c #C2C5A8",
"t1	c #EBEDD2",
"u1	c #ECEED3",
"v1	c #EBEED1",
"w1	c #EAEED0",
"x1	c #EBEFCC",
"y1	c #EEEFC8",
"z1	c #E2DFBE",
"A1	c #897D70",
"B1	c #402A2B",
"C1	c #280C07",
"D1	c #5E7528",
"E1	c #6A932F",
"F1	c #719F36",
"G1	c #76A33A",
"H1	c #78A43D",
"I1	c #78A33C",
"J1	c #739F39",
"K1	c #72A23C",
"L1	c #72A540",
"M1	c #6DA33C",
"N1	c #689D38",
"O1	c #4F8123",
"P1	c #57892A",
"Q1	c #5C9030",
"R1	c #5F9133",
"S1	c #639238",
"T1	c #678F3A",
"U1	c #68923E",
"V1	c #68963F",
"W1	c #66953C",
"X1	c #465B29",
"Y1	c #220605",
"Z1	c #6C8A3A",
"`1	c #A9DD66",
" 2	c #C5F77B",
".2	c #C4F57B",
"+2	c #96BD5D",
"@2	c #4A4A22",
"#2	c #46361D",
"$2	c #90AC50",
"%2	c #A1D754",
"&2	c #A9DC54",
"*2	c #ADE057",
"=2	c #ACDE56",
"-2	c #A4CF56",
";2	c #526720",
">2	c #62862A",
",2	c #618F30",
"'2	c #87B648",
")2	c #91C552",
"!2	c #8EC452",
"~2	c #80A455",
"{2	c #5C6B39",
"]2	c #73884A",
"^2	c #788A4B",
"/2	c #66763D",
"(2	c #5E603E",
"_2	c #666E3E",
":2	c #B7DC7A",
"<2	c #D1F981",
"[2	c #D8FB89",
"}2	c #D1F87C",
"|2	c #9DC260",
"12	c #969677",
"22	c #DCD7C0",
"32	c #DBD7BE",
"42	c #D6D3B7",
"52	c #CECAAF",
"62	c #C5C0A6",
"72	c #C6C0A3",
"82	c #C3BEA5",
"92	c #817A71",
"02	c #433232",
"a2	c #2E180A",
"b2	c #658030",
"c2	c #648A2C",
"d2	c #74993A",
"e2	c #80A63F",
"f2	c #80A841",
"g2	c #80A840",
"h2	c #7FA841",
"i2	c #6E973B",
"j2	c #72A33B",
"k2	c #85B847",
"l2	c #76A83B",
"m2	c #669A2D",
"n2	c #6FA136",
"o2	c #699234",
"p2	c #658735",
"q2	c #638038",
"r2	c #5F7B36",
"s2	c #5D7B34",
"t2	c #608337",
"u2	c #475A2B",
"v2	c #250A06",
"w2	c #5F7F2D",
"x2	c #86BB40",
"y2	c #BAEB6D",
"z2	c #D3FD82",
"A2	c #CAFA7C",
"B2	c #A6C96C",
"C2	c #535626",
"D2	c #90A449",
"E2	c #A7D051",
"F2	c #AFD956",
"G2	c #ACDC57",
"H2	c #ACDD55",
"I2	c #A4D158",
"J2	c #5A712A",
"K2	c #627D2B",
"L2	c #8EB64A",
"M2	c #91C249",
"N2	c #91C34C",
"O2	c #91C253",
"P2	c #698A3F",
"Q2	c #5D6A38",
"R2	c #779A45",
"S2	c #81A842",
"T2	c #7EA341",
"U2	c #779042",
"V2	c #64703D",
"W2	c #839D50",
"X2	c #C0E673",
"Y2	c #C4EE71",
"Z2	c #C3EE72",
"`2	c #97C356",
" 3	c #7C8159",
".3	c #C4BCA6",
"+3	c #C8BFAB",
"@3	c #C8C0AC",
"#3	c #C3BAA6",
"$3	c #B4AB9A",
"%3	c #B6AD9B",
"&3	c #AAA392",
"*3	c #807870",
"=3	c #433131",
"-3	c #301C0C",
";3	c #688235",
">3	c #5D8028",
",3	c #74943B",
"'3	c #7FA13B",
")3	c #80A73F",
"!3	c #83AB43",
"~3	c #83AB42",
"{3	c #82A942",
"]3	c #6F953A",
"^3	c #8AB348",
"/3	c #ADDC5A",
"(3	c #ABDC56",
"_3	c #A2D54F",
":3	c #93C445",
"<3	c #719837",
"[3	c #6A8B36",
"}3	c #6A8638",
"|3	c #617B36",
"13	c #5B7534",
"23	c #577534",
"33	c #45532A",
"43	c #290C06",
"53	c #475920",
"63	c #688F2D",
"73	c #8AB544",
"83	c #B6E36C",
"93	c #CAF780",
"03	c #C9F881",
"a3	c #B3D774",
"b3	c #92A84F",
"c3	c #7E9337",
"d3	c #9CBB52",
"e3	c #ABD25D",
"f3	c #9DC850",
"g3	c #7D9D3E",
"h3	c #536C21",
"i3	c #87B044",
"j3	c #92BF43",
"k3	c #90C144",
"l3	c #8EBF49",
"m3	c #82AF4A",
"n3	c #566A36",
"o3	c #627339",
"p3	c #91B951",
"q3	c #94BE45",
"r3	c #88B23E",
"s3	c #7AA33B",
"t3	c #759B40",
"u3	c #68853B",
"v3	c #88A84F",
"w3	c #A3CC5B",
"x3	c #99C852",
"y3	c #7AA745",
"z3	c #878D63",
"A3	c #C1B9A3",
"B3	c #C7BBA8",
"C3	c #C9BCAB",
"D3	c #C1B4A4",
"E3	c #B6AC9B",
"F3	c #B0A895",
"G3	c #A9A191",
"H3	c #817872",
"I3	c #433031",
"J3	c #2F1D0C",
"K3	c #678133",
"L3	c #6C9333",
"M3	c #719835",
"N3	c #769D37",
"O3	c #7AA039",
"P3	c #7EA43E",
"Q3	c #80A740",
"R3	c #81A841",
"S3	c #6F973A",
"T3	c #80AD42",
"U3	c #A9D95A",
"V3	c #AFE059",
"W3	c #AFDE59",
"X3	c #89B43F",
"Y3	c #6A9037",
"Z3	c #6C8E3C",
"`3	c #6F8D3E",
" 4	c #5E7434",
".4	c #596D31",
"+4	c #567335",
"@4	c #45502D",
"#4	c #290E09",
"$4	c #3A3C17",
"%4	c #5D762C",
"&4	c #6B8E37",
"*4	c #86AF45",
"=4	c #A0CD54",
"-4	c #BDEA6D",
";4	c #C4F276",
">4	c #B5DF66",
",4	c #7D9640",
"'4	c #6E8039",
")4	c #7F9B42",
"!4	c #64812F",
"~4	c #536E22",
"{4	c #87AF3F",
"]4	c #8DBC43",
"^4	c #8CB946",
"/4	c #83AF46",
"(4	c #71983F",
"_4	c #566836",
":4	c #61833A",
"<4	c #81A747",
"[4	c #92BB48",
"}4	c #8FBA3F",
"|4	c #89B542",
"14	c #81AB41",
"24	c #769842",
"34	c #68853C",
"44	c #769549",
"54	c #87AE4E",
"64	c #87AE52",
"74	c #9AA076",
"84	c #C3BAA3",
"94	c #C8BAA8",
"04	c #C6B9A8",
"a4	c #BCB0A1",
"b4	c #B3AB9B",
"c4	c #ACA396",
"d4	c #837A75",
"e4	c #432F31",
"f4	c #2B1D0B",
"g4	c #698233",
"h4	c #719737",
"i4	c #739A37",
"j4	c #759C38",
"k4	c #779C37",
"l4	c #7A9F39",
"m4	c #7CA23D",
"n4	c #7DA53D",
"o4	c #739A3C",
"p4	c #769F3D",
"q4	c #9CC754",
"r4	c #AFDB5F",
"s4	c #9DC755",
"t4	c #769D3C",
"u4	c #6F943D",
"v4	c #73963F",
"w4	c #607A38",
"x4	c #59783C",
"y4	c #484F2F",
"z4	c #2A110B",
"A4	c #2A1B0C",
"B4	c #586634",
"C4	c #647B3C",
"D4	c #5F7E2D",
"E4	c #8BAF4A",
"F4	c #89AE47",
"G4	c #8CB246",
"H4	c #B4DC63",
"I4	c #B0D566",
"J4	c #809748",
"K4	c #5D7330",
"L4	c #5E782D",
"M4	c #80A53E",
"N4	c #8AB840",
"O4	c #85B33E",
"P4	c #88B448",
"Q4	c #77A146",
"R4	c #5F813C",
"S4	c #434B28",
"T4	c #659240",
"U4	c #65893D",
"V4	c #6C913B",
"W4	c #7FA63D",
"X4	c #88B33F",
"Y4	c #85B13E",
"Z4	c #7BA33B",
"`4	c #709039",
" 5	c #617A3A",
".5	c #5B7637",
"+5	c #758F53",
"@5	c #AAAA88",
"#5	c #C2B8A1",
"$5	c #C5B8A6",
"%5	c #BCAF9F",
"&5	c #B8AC9D",
"*5	c #B6AB9C",
"=5	c #B4AB9C",
"-5	c #ACA497",
";5	c #837B76",
">5	c #402D30",
",5	c #281F0C",
"'5	c #688133",
")5	c #6F9336",
"!5	c #709736",
"~5	c #749B37",
"{5	c #799E38",
"]5	c #7AA13B",
"^5	c #7DA43C",
"/5	c #789D3F",
"(5	c #75983E",
"_5	c #80A641",
":5	c #789F3F",
"<5	c #739B3B",
"[5	c #71963F",
"}5	c #749A41",
"|5	c #739B3D",
"15	c #71993C",
"25	c #5D823B",
"35	c #587A3D",
"45	c #474C2C",
"55	c #2B130A",
"65	c #2E160C",
"75	c #28260D",
"85	c #576731",
"95	c #6C893F",
"05	c #6E9138",
"a5	c #6B9032",
"b5	c #709534",
"c5	c #80A340",
"d5	c #839D4D",
"e5	c #425021",
"f5	c #73903E",
"g5	c #7BA13B",
"h5	c #7CA43D",
"i5	c #7DA542",
"j5	c #6C8F44",
"k5	c #4A6132",
"l5	c #372F1D",
"m5	c #608A3E",
"n5	c #628639",
"o5	c #5E8038",
"p5	c #5E803A",
"q5	c #658A35",
"r5	c #70953B",
"s5	c #769B3F",
"t5	c #74963E",
"u5	c #668536",
"v5	c #4F612B",
"w5	c #7F7F5F",
"x5	c #B7AF98",
"y5	c #BDB3A1",
"z5	c #B7AD9C",
"A5	c #B5AC9A",
"B5	c #B5AC9C",
"C5	c #B6AB9D",
"D5	c #AFA69A",
"E5	c #837E7A",
"F5	c #3C2B2F",
"G5	c #29210C",
"H5	c #657F34",
"I5	c #6B9035",
"J5	c #709435",
"K5	c #749836",
"L5	c #769B37",
"M5	c #799D3A",
"N5	c #7CA23A",
"O5	c #7DA13D",
"P5	c #71923E",
"Q5	c #5E8032",
"R5	c #6F9A3B",
"S5	c #76983D",
"T5	c #607F38",
"U5	c #55763C",
"V5	c #3F3E22",
"W5	c #29160A",
"X5	c #312E15",
"Y5	c #7F964C",
"Z5	c #82A149",
"`5	c #485B24",
" 6	c #5A6B31",
".6	c #617C37",
"+6	c #6D933E",
"@6	c #70913E",
"#6	c #6C8837",
"$6	c #56662C",
"%6	c #3A3F18",
"&6	c #667F35",
"*6	c #6A873B",
"=6	c #759443",
"-6	c #68873C",
";6	c #5A7535",
">6	c #526537",
",6	c #393F24",
"'6	c #200607",
")6	c #5D7444",
"!6	c #5A7A3E",
"~6	c #5C7D3F",
"{6	c #5F813E",
"]6	c #5A7C36",
"^6	c #557532",
"/6	c #597039",
"(6	c #5E723B",
"_6	c #5E7136",
":6	c #6D764C",
"<6	c #A59E86",
"[6	c #B9AE99",
"}6	c #B6AB99",
"|6	c #B5AB9B",
"16	c #B5AC9D",
"26	c #B6ACA0",
"36	c #B5AD9F",
"46	c #B6ADA1",
"56	c #AFA99C",
"66	c #85827F",
"76	c #3C2D31",
"86	c #2A220E",
"96	c #607C32",
"06	c #678C33",
"a6	c #6D9335",
"b6	c #6F9633",
"c6	c #6F9433",
"d6	c #729636",
"e6	c #789D36",
"f6	c #7DA23A",
"g6	c #7DA33C",
"h6	c #729737",
"i6	c #698E35",
"j6	c #6A9335",
"k6	c #6C9538",
"l6	c #6C9639",
"m6	c #648432",
"n6	c #6B8635",
"o6	c #75953C",
"p6	c #779A3E",
"q6	c #668939",
"r6	c #58743B",
"s6	c #39301A",
"t6	c #505E2A",
"u6	c #74973F",
"v6	c #91B94F",
"w6	c #9CC858",
"x6	c #83A14A",
"y6	c #3F4417",
"z6	c #4B4E24",
"A6	c #48591F",
"B6	c #53692C",
"C6	c #526C2C",
"D6	c #56742D",
"E6	c #5A712F",
"F6	c #5F7431",
"G6	c #607436",
"H6	c #5C6E36",
"I6	c #505F2D",
"J6	c #3E4A25",
"K6	c #303319",
"L6	c #2A2516",
"M6	c #1C0E0C",
"N6	c #1E020D",
"O6	c #313524",
"P6	c #415331",
"Q6	c #4E6236",
"R6	c #546736",
"S6	c #546734",
"T6	c #566A38",
"U6	c #5B6A3D",
"V6	c #5B663E",
"W6	c #5E6741",
"X6	c #848A67",
"Y6	c #9D977F",
"Z6	c #B0A690",
"`6	c #B3AA97",
" 7	c #B5AEA0",
".7	c #B7AFA2",
"+7	c #B7AFA4",
"@7	c #B7B0A4",
"#7	c #B0AC9F",
"$7	c #848380",
"%7	c #3D2E34",
"&7	c #29230D",
"*7	c #5A782D",
"=7	c #628632",
"-7	c #698F36",
";7	c #6D9535",
">7	c #6C9236",
",7	c #739734",
"'7	c #7A9B3C",
")7	c #769D3A",
"!7	c #689730",
"~7	c #669430",
"{7	c #679334",
"]7	c #699634",
"^7	c #6A9538",
"/7	c #668A37",
"(7	c #688134",
"_7	c #6B8135",
":7	c #71963E",
"<7	c #6B9040",
"[7	c #5C733F",
"}7	c #352416",
"|7	c #6F8F40",
"17	c #79AA3E",
"27	c #71A131",
"37	c #80AC42",
"47	c #6B9036",
"57	c #5E762E",
"67	c #586B2F",
"77	c #424A21",
"87	c #3E4421",
"97	c #495A2B",
"07	c #506D2A",
"a7	c #5A7730",
"b7	c #54672D",
"c7	c #4D5C2A",
"d7	c #475027",
"e7	c #537135",
"f7	c #597A39",
"g7	c #4F6736",
"h7	c #2E371C",
"i7	c #180309",
"j7	c #1B0C0C",
"k7	c #1C110E",
"l7	c #272211",
"m7	c #3F411F",
"n7	c #484B24",
"o7	c #4E4E2B",
"p7	c #5F6042",
"q7	c #5E5B42",
"r7	c #6C634C",
"s7	c #837963",
"t7	c #948C79",
"u7	c #B2AA9B",
"v7	c #B8B1A4",
"w7	c #B9B2A4",
"x7	c #B8B1A5",
"y7	c #B8B0A5",
"z7	c #B0ACA0",
"A7	c #828381",
"B7	c #3E2E36",
"C7	c #29230E",
"D7	c #537228",
"E7	c #5B7D2F",
"F7	c #658936",
"G7	c #6D9239",
"H7	c #688E36",
"I7	c #6E9238",
"J7	c #6C8C36",
"K7	c #6B9835",
"L7	c #659830",
"M7	c #659630",
"N7	c #649434",
"O7	c #679538",
"P7	c #699639",
"Q7	c #6C943B",
"R7	c #6A8B3A",
"S7	c #65843A",
"T7	c #65873E",
"U7	c #506534",
"V7	c #331D12",
"W7	c #6D833D",
"X7	c #72A03C",
"Y7	c #6A9C37",
"Z7	c #6E9D34",
"`7	c #74A237",
" 8	c #7DA53C",
".8	c #7CA24D",
"+8	c #3D3C22",
"@8	c #464A26",
"#8	c #4E5F2D",
"$8	c #465728",
"%8	c #4F592E",
"&8	c #474E27",
"*8	c #586432",
"=8	c #658D44",
"-8	c #669B46",
";8	c #66A048",
">8	c #679A4A",
",8	c #5C8345",
"'8	c #374726",
")8	c #14080A",
"!8	c #17090E",
"~8	c #3B471D",
"{8	c #76903C",
"]8	c #7A9A3B",
"^8	c #779738",
"/8	c #698B2D",
"(8	c #5D742B",
"_8	c #555A31",
":8	c #5D603D",
"<8	c #5B5938",
"[8	c #6B654A",
"}8	c #736D58",
"|8	c #8B8476",
"18	c #ADA89A",
"28	c #BAB2A5",
"38	c #B8B2A6",
"48	c #AEAB9F",
"58	c #808282",
"68	c #3B2D35",
"78	c #28220F",
"88	c #4D6D24",
"98	c #57782D",
"08	c #668B3B",
"a8	c #6A913B",
"b8	c #6C923B",
"c8	c #698E39",
"d8	c #66893A",
"e8	c #628534",
"f8	c #669634",
"g8	c #659731",
"h8	c #649235",
"i8	c #5C8534",
"j8	c #6C963D",
"k8	c #6D983D",
"l8	c #6A933A",
"m8	c #6A8C36",
"n8	c #58792F",
"o8	c #495E2B",
"p8	c #321C0F",
"q8	c #535E25",
"r8	c #709740",
"s8	c #6F9E41",
"t8	c #74A13F",
"u8	c #7C9E43",
"v8	c #5C7537",
"w8	c #3B491F",
"x8	c #4C632A",
"y8	c #475024",
"z8	c #4D552F",
"A8	c #485727",
"B8	c #53612C",
"C8	c #5E7332",
"D8	c #5F7833",
"E8	c #62893E",
"F8	c #649446",
"G8	c #67994A",
"H8	c #669A4A",
"I8	c #629548",
"J8	c #557D3F",
"K8	c #18080B",
"L8	c #201D11",
"M8	c #78904C",
"N8	c #8CAA4C",
"O8	c #8EB44C",
"P8	c #7CA33B",
"Q8	c #6D9330",
"R8	c #607A30",
"S8	c #484C29",
"T8	c #48462C",
"U8	c #413F26",
"V8	c #434227",
"W8	c #555E37",
"X8	c #626351",
"Y8	c #7A7768",
"Z8	c #AAA496",
"`8	c #B8B4A7",
" 9	c #B7B3A7",
".9	c #A7A59C",
"+9	c #7E7D80",
"@9	c #392B33",
"#9	c #261E11",
"$9	c #456222",
"%9	c #5E8239",
"&9	c #638B3B",
"*9	c #67903D",
"=9	c #69913E",
"-9	c #698D3C",
";9	c #627D3A",
">9	c #5C7A30",
",9	c #639336",
"'9	c #659535",
")9	c #66923A",
"!9	c #506C2F",
"~9	c #6A8C42",
"{9	c #6B9441",
"]9	c #689038",
"^9	c #689034",
"/9	c #618333",
"(9	c #52722E",
"_9	c #361C11",
":9	c #30210C",
"<9	c #47562A",
"[9	c #556A34",
"}9	c #668248",
"|9	c #5A7439",
"19	c #586F3B",
"29	c #526130",
"39	c #506424",
"49	c #608527",
"59	c #5B702C",
"69	c #484628",
"79	c #576932",
"89	c #628032",
"99	c #6C8D31",
"09	c #6E8D35",
"a9	c #657F37",
"b9	c #5E7C3B",
"c9	c #638943",
"d9	c #639148",
"e9	c #5C8E43",
"f9	c #55823D",
"g9	c #241A11",
"h9	c #536934",
"i9	c #769945",
"j9	c #72983D",
"k9	c #70953D",
"l9	c #6C8F38",
"m9	c #648130",
"n9	c #4E5E28",
"o9	c #394325",
"p9	c #435D2B",
"q9	c #34411C",
"r9	c #383D22",
"s9	c #506733",
"t9	c #485C39",
"u9	c #676455",
"v9	c #827C6E",
"w9	c #ABA89B",
"x9	c #B6B3A7",
"y9	c #969489",
"z9	c #797877",
"A9	c #35262A",
"B9	c #1F140A",
"C9	c #4A6727",
"D9	c #5E8539",
"E9	c #61893C",
"F9	c #678E41",
"G9	c #678942",
"H9	c #516A33",
"I9	c #577431",
"J9	c #629335",
"K9	c #65943B",
"L9	c #476430",
"M9	c #546E36",
"N9	c #6B8D42",
"O9	c #688C3B",
"P9	c #698E36",
"Q9	c #658733",
"R9	c #50692B",
"S9	c #475A2C",
"T9	c #321A13",
"U9	c #2D0909",
"V9	c #1E0C09",
"W9	c #444A32",
"X9	c #5B6B49",
"Y9	c #4B5B37",
"Z9	c #536D3B",
"`9	c #4B6226",
" 0	c #5F842D",
".0	c #69982D",
"+0	c #668D33",
"@0	c #434524",
"#0	c #515B2C",
"$0	c #698834",
"%0	c #749632",
"&0	c #719231",
"*0	c #729235",
"=0	c #688039",
"-0	c #516832",
";0	c #587640",
">0	c #51773C",
",0	c #4F723D",
"'0	c #31331E",
")0	c #6C9043",
"!0	c #6D963E",
"~0	c #729B41",
"{0	c #688F38",
"]0	c #658737",
"^0	c #5E7537",
"/0	c #31381A",
"(0	c #4E793C",
"_0	c #6DAC50",
":0	c #54853D",
"<0	c #273318",
"[0	c #516A3D",
"}0	c #4F733E",
"|0	c #536641",
"10	c #5D5B48",
"20	c #848578",
"30	c #A9AA9E",
"40	c #9C9C93",
"50	c #6A6B66",
"60	c #241313",
"70	c #19100A",
"80	c #4F6E2F",
"90	c #5E8639",
"00	c #63893C",
"a0	c #638940",
"b0	c #628844",
"c0	c #5B7D44",
"d0	c #444E2D",
"e0	c #4E622F",
"f0	c #628C3A",
"g0	c #629433",
"h0	c #629338",
"i0	c #456133",
"j0	c #465330",
"k0	c #647F40",
"l0	c #66863F",
"m0	c #648838",
"n0	c #648532",
"o0	c #52672E",
"p0	c #485831",
"q0	c #2F1411",
"r0	c #290407",
"s0	c #2B2821",
"t0	c #5E7252",
"u0	c #5F7755",
"v0	c #4A5E3C",
"w0	c #54703A",
"x0	c #64833B",
"y0	c #699C32",
"z0	c #6AA031",
"A0	c #689B31",
"B0	c #4F602B",
"C0	c #444D25",
"D0	c #759342",
"E0	c #7C9D3D",
"F0	c #7A9C35",
"G0	c #7A9A36",
"H0	c #79953C",
"I0	c #6D883E",
"J0	c #3B4B25",
"K0	c #2D351D",
"L0	c #2A2919",
"M0	c #394425",
"N0	c #6A9044",
"O0	c #628A38",
"P0	c #608834",
"Q0	c #638B38",
"R0	c #608034",
"S0	c #48582C",
"T0	c #324423",
"U0	c #68A453",
"V0	c #6BB149",
"W0	c #5C9442",
"X0	c #2A371F",
"Y0	c #445136",
"Z0	c #507845",
"`0	c #4F7745",
" a	c #536C46",
".a	c #535A48",
"+a	c #60635A",
"@a	c #62645E",
"#a	c #51534B",
"$a	c #1E090B",
"%a	c #19140B",
"&a	c #547239",
"*a	c #5B833B",
"=a	c #5F843E",
"-a	c #608441",
";a	c #5B8143",
">a	c #4A643A",
",a	c #2F2B1C",
"'a	c #465429",
")a	c #517B33",
"!a	c #5E8D39",
"~a	c #5E8F35",
"{a	c #5C8B39",
"]a	c #3D5531",
"^a	c #2F2E1C",
"/a	c #556939",
"(a	c #607E3F",
"_a	c #618036",
":a	c #637F33",
"<a	c #52672D",
"[a	c #3A4827",
"}a	c #290B0D",
"|a	c #240304",
"1a	c #3D4436",
"2a	c #556B4D",
"3a	c #587052",
"4a	c #485B3B",
"5a	c #546C3D",
"6a	c #66833E",
"7a	c #6EA435",
"8a	c #6BA230",
"9a	c #689F30",
"0a	c #627E3F",
"aa	c #292715",
"ba	c #62703E",
"ca	c #768D43",
"da	c #7C9B3E",
"ea	c #7E9C39",
"fa	c #7B9F37",
"ga	c #6B883D",
"ha	c #2E0E18",
"ia	c #4B5E33",
"ja	c #628A3E",
"ka	c #5C8336",
"la	c #5D8534",
"ma	c #648837",
"na	c #516934",
"oa	c #262A1A",
"pa	c #456633",
"qa	c #64AB4B",
"ra	c #66A948",
"sa	c #5B8F46",
"ta	c #232E1B",
"ua	c #282A20",
"va	c #547549",
"wa	c #527945",
"xa	c #517643",
"ya	c #516E42",
"za	c #475237",
"Aa	c #3F3932",
"Ba	c #45473F",
"Ca	c #1A0309",
"Da	c #1D1C0B",
"Ea	c #53713B",
"Fa	c #587D3E",
"Ga	c #597C40",
"Ha	c #597B43",
"Ia	c #547741",
"Ja	c #3D4C31",
"Ka	c #1A0E0D",
"La	c #404D25",
"Ma	c #457230",
"Na	c #4E7E35",
"Oa	c #548536",
"Pa	c #53813B",
"Qa	c #34452C",
"Ra	c #1C0C0B",
"Sa	c #46502F",
"Ta	c #59743B",
"Ua	c #5E7B35",
"Va	c #597232",
"Wa	c #546932",
"Xa	c #3C482D",
"Ya	c #21050A",
"Za	c #1E0304",
"`a	c #434D3C",
" b	c #4C634A",
".b	c #51644B",
"+b	c #47553D",
"@b	c #45583D",
"#b	c #415B28",
"$b	c #6CA337",
"%b	c #69A22F",
"&b	c #69A12F",
"*b	c #2D2E18",
"=b	c #272217",
"-b	c #505B37",
";b	c #637A3B",
">b	c #6D883A",
",b	c #759239",
"'b	c #799A34",
")b	c #566C32",
"!b	c #351E21",
"~b	c #4B6330",
"{b	c #5C8337",
"]b	c #567637",
"^b	c #455835",
"/b	c #2E312A",
"(b	c #110E0B",
"_b	c #567A40",
":b	c #68A548",
"<b	c #6DA955",
"[b	c #507D46",
"}b	c #1F2318",
"|b	c #201214",
"1b	c #566A4A",
"2b	c #517548",
"3b	c #477342",
"4b	c #487641",
"5b	c #4E6C45",
"6b	c #3C3E34",
"7b	c #464241",
"8b	c #140006",
"9b	c #212112",
"0b	c #4D673A",
"ab	c #4D6D3A",
"bb	c #4D6E3E",
"cb	c #4D6D41",
"db	c #49643D",
"eb	c #363729",
"fb	c #0D0204",
"gb	c #2C371B",
"hb	c #406932",
"ib	c #447638",
"jb	c #457936",
"kb	c #4A7740",
"lb	c #2B3524",
"mb	c #1C0206",
"nb	c #33301C",
"ob	c #526535",
"pb	c #577135",
"qb	c #506737",
"rb	c #4E5F35",
"sb	c #404730",
"tb	c #190407",
"ub	c #180304",
"vb	c #3C4A3C",
"wb	c #48634B",
"xb	c #536952",
"yb	c #404B3D",
"zb	c #3C4135",
"Ab	c #3D5029",
"Bb	c #6F9E3E",
"Cb	c #68A431",
"Db	c #6AA332",
"Eb	c #6B9C3D",
"Fb	c #354123",
"Gb	c #100108",
"Hb	c #352D23",
"Ib	c #4F583A",
"Jb	c #496135",
"Kb	c #536A34",
"Lb	c #667E36",
"Mb	c #698B35",
"Nb	c #557A3A",
"Ob	c #3A2725",
"Pb	c #425830",
"Qb	c #4C6C37",
"Rb	c #425837",
"Sb	c #2C3D33",
"Tb	c #2A2E38",
"Ub	c #1C151F",
"Vb	c #0C0602",
"Wb	c #5B7F4B",
"Xb	c #649E50",
"Yb	c #619155",
"Zb	c #3E5F42",
"`b	c #1C1B19",
" c	c #1D050D",
".c	c #37302A",
"+c	c #4C5C47",
"@c	c #486B45",
"#c	c #446E41",
"$c	c #416E42",
"%c	c #3D563F",
"&c	c #444341",
"*c	c #0F0004",
"=c	c #1A130C",
"-c	c #425138",
";c	c #3F5935",
">c	c #435E3C",
",c	c #425C3E",
"'c	c #43533C",
")c	c #241914",
"!c	c #0E0202",
"~c	c #202010",
"{c	c #406034",
"]c	c #3D6F37",
"^c	c #3A6C38",
"/c	c #38643B",
"(c	c #292E26",
"_c	c #1A0207",
":c	c #1D1009",
"<c	c #485435",
"[c	c #556A3B",
"}c	c #4E5E3A",
"|c	c #384331",
"1c	c #3A3C2F",
"2c	c #140105",
"3c	c #140104",
"4c	c #3A4439",
"5c	c #44624D",
"6c	c #4B6453",
"7c	c #3E4942",
"8c	c #2B2222",
"9c	c #1F2319",
"0c	c #57753D",
"ac	c #669C43",
"bc	c #65A435",
"cc	c #659D3D",
"dc	c #344627",
"ec	c #140109",
"fc	c #322A20",
"gc	c #49523C",
"hc	c #44553D",
"ic	c #425238",
"jc	c #3D5637",
"kc	c #39593B",
"lc	c #2F231F",
"mc	c #252B20",
"nc	c #293A2E",
"oc	c #2B3733",
"pc	c #252F2F",
"qc	c #1B1B1E",
"rc	c #0E0407",
"sc	c #0E0404",
"tc	c #49623D",
"uc	c #51834B",
"vc	c #3C6940",
"wc	c #2F4433",
"xc	c #140A0D",
"yc	c #1B0007",
"zc	c #2B030F",
"Ac	c #302220",
"Bc	c #445A40",
"Cc	c #406443",
"Dc	c #3F6544",
"Ec	c #3C553F",
"Fc	c #3E3838",
"Gc	c #100104",
"Hc	c #0F0204",
"Ic	c #30382D",
"Jc	c #3F5641",
"Kc	c #3F5540",
"Lc	c #415240",
"Mc	c #2B2A21",
"Nc	c #1A0103",
"Oc	c #170102",
"Pc	c #395034",
"Qc	c #335F36",
"Rc	c #2B5B36",
"Sc	c #30533D",
"Tc	c #221616",
"Uc	c #1D0105",
"Vc	c #1D0103",
"Wc	c #2C2B20",
"Xc	c #4C5B3D",
"Yc	c #364831",
"Zc	c #2F4036",
"`c	c #302E2A",
" d	c #100004",
".d	c #130004",
"+d	c #2F3630",
"@d	c #405B51",
"#d	c #405952",
"$d	c #3A3D3D",
"%d	c #14070C",
"&d	c #0B0305",
"*d	c #252719",
"=d	c #486E39",
"-d	c #53923C",
";d	c #558E44",
">d	c #323F27",
",d	c #190004",
"'d	c #230107",
")d	c #270108",
"!d	c #291315",
"~d	c #2F2B28",
"{d	c #30372C",
"]d	c #313A2E",
"^d	c #2F3629",
"/d	c #1C0F0F",
"(d	c #1D050B",
"_d	c #1C0F11",
":d	c #1E1114",
"<d	c #17080B",
"[d	c #150103",
"}d	c #1B0004",
"|d	c #190202",
"1d	c #3A3F32",
"2d	c #354B33",
"3d	c #303D2B",
"4d	c #29241E",
"5d	c #1D0007",
"6d	c #22000A",
"7d	c #27050E",
"8d	c #2F2720",
"9d	c #383E30",
"0d	c #3F4537",
"ad	c #35352B",
"bd	c #260F12",
"cd	c #160003",
"dd	c #170104",
"ed	c #211817",
"fd	c #353A33",
"gd	c #343730",
"hd	c #231C18",
"id	c #1C0001",
"jd	c #250000",
"kd	c #270403",
"ld	c #1D0102",
"md	c #2A2E24",
"nd	c #2B4D38",
"od	c #244E38",
"pd	c #283A2D",
"qd	c #1E0105",
"rd	c #200105",
"sd	c #260106",
"td	c #1F0104",
"ud	c #221F13",
"vd	c #293024",
"wd	c #252D26",
"xd	c #1B0E10",
"yd	c #130003",
"zd	c #170004",
"Ad	c #190A0C",
"Bd	c #313533",
"Cd	c #2E3433",
"Dd	c #190E11",
"Ed	c #150004",
"Fd	c #180105",
"Gd	c #3B472F",
"Hd	c #436F40",
"Id	c #476B46",
"Jd	c #222018",
"Kd	c #230209",
"Ld	c #2B010A",
"Md	c #2C0009",
"Nd	c #270008",
"Od	c #220007",
"Pd	c #200204",
"Qd	c #1E0103",
"Rd	c #1D070A",
"Sd	c #726661",
"Td	c #250408",
"Ud	c #200003",
"Vd	c #210104",
"Wd	c #260003",
"Xd	c #330107",
"Yd	c #411118",
"Zd	c #321019",
"`d	c #220F15",
" e	c #210B0E",
".e	c #23040A",
"+e	c #462B2C",
"@e	c #462F29",
"#e	c #200307",
"$e	c #1F0208",
"%e	c #220109",
"&e	c #260107",
"*e	c #260207",
"=e	c #280309",
"-e	c #2B0A10",
";e	c #675851",
">e	c #64524E",
",e	c #250309",
"'e	c #190207",
")e	c #1A0005",
"!e	c #1A0003",
"~e	c #260002",
"{e	c #50231C",
"]e	c #A58479",
"^e	c #5F4344",
"/e	c #1C1D1D",
"(e	c #1F2922",
"_e	c #230B0D",
":e	c #27020B",
"<e	c #4E3A32",
"[e	c #3B1E1A",
"}e	c #2C0109",
"|e	c #210308",
"1e	c #1E0106",
"2e	c #230B0E",
"3e	c #918880",
"4e	c #6E625F",
"5e	c #1D0104",
"6e	c #180003",
"7e	c #200004",
"8e	c #380F10",
"9e	c #6F4C4A",
"0e	c #4E3536",
"ae	c #260B0F",
"be	c #211D17",
"ce	c #211214",
"de	c #230411",
"ee	c #785F58",
"fe	c #846758",
"ge	c #3B100B",
"he	c #300105",
"ie	c #2D0306",
"je	c #2C0207",
"ke	c #2C0107",
"le	c #2E0C0C",
"me	c #BCB2A4",
"  . + @ # $ % & * = - ; > , ' ) ! ~ { ] ^ / ( _ : < [ } | 1 2 3 4 5 6 7 8 9 0 a b c d e f g h i j k l m n o p q r s t u v w x y ",
"z A B C D E F G H I J K L M N O P Q R S T U V W X Y Z `  ...+.@.#.$.%.&.*.=.-.;.>.,.'.).!.~.{.].^./.(._.:.<.[.}.|.1.2.3.4.5.6.7.",
"8.9.0.a.b.c.d.e.f.g.h.i.j.k.l.m.n.o.p.q.r.s.t.u.v.w.x.y.z.A.B.C.D.E.F.G.H.I.J.K.L.M.N.O.P.Q.R.S.T.U.V.W.X.Y.Z.`. +.+++@+#+$+%+&+",
"*+=+-+;+>+,+'+)+!+~+{+]+^+/+(+_+:+<+[+}+|+1+2+3+4+5+6+7+8+9+0+a+b+c+d+e+f+g+h+i+j+k+l+m+n+o+p+q+r+s+t+u+v+w+x+y+z+A+B+C+D+E+F+G+",
"H+I+J+K+L+M+N+O+P+Q+R+S+T+U+V+W+X+Y+Z+`+ @.@+@@@#@$@%@&@*@=@-@;@e+>@,@'@)@!@~@{@]@^@/@(@_@:@<@[@}@|@1@2@3@4@5@6@7@8@9@0@a@b@c@d@",
"e@f@g@h@i@j@k@l@m@n@o@p@q@r@s@t@u@v@w@x@y@z@A@B@C@D@E@F@G@H@I@J@K@L@M@N@O@P@Q@R@S@T@U@V@W@X@Y@Z@`@ #.#+#@###$#%#&#*#=#-#;#>#,#'#",
")#!#~#{#]#^#/#(#_#:#<#[#}#|#1#2#3#4#5#6#7#8#9#0#a#b#c#d#e#f#g#h#i#j#k#l#m#n#o#p#q#r#s#t#u#v#w#x#y#z#A#B#C#D#E#F#G#H#I#J#K#L#M#N#",
"O#P#Q#R#S#T#U#V#W#X#Y#Z#`# $.$+$@$#$$$%$&$*$=$-$;$>$,$'$)$!$~${$]$^$/$($_$:$<$[$}$|$1$2$3$4$5$6$7$8$9$0$a$b$c$d$e$f$g$h$i$j$k$l$",
"m$n$o$p$q$r$s$t$u$v$w$x$y$z$A$B$C$D$E$F$G$H$I$J$K$L$M$N$O$P$Q$L@R$S$T$U$V$W$X$Y$Z$`$ %.%+%@%#%$%%%&%*%=%-%;%>%,%'%)%!%~%{%]%^%/%",
"(%_%:%<%[%}%|%1%2%3%4%5%6%7%8%9%0%a%b%c%d%e%f%g%h%i%j%k%l%m%n%o%p%q%r%s%t%u%v%w%x%y%z%A%B%C%D%E%F%G%H%I%J%K%L%M%N%O%P%Q%R%S%T%U%",
"V%W%X%Y%Z%`% &.&+&@&#&$&%&&&*&=&-&;&>&,&'&)&!&~&{&]&^&/&(&_&:&<&[&}&|&1&2&3&4&5&6&7&8&9&0&a&b&c&d&e&f&g&h&i&j&k&l&m&n&o&p&q&r&s&",
"t&u&v&w&x&y&z&A&B&C&D&E&F&G&H&I&J&K&L&M&N&O&P&Q&R&S&T&U&V&W&X&Y&Z&`& *.*+*@*#*$*%*&***=*-*;*>*,*'*)*!*~*{*]*^*/*(*_*:*<*[*}*|*1*",
"2*3*4*5*6*7*8*9*0*a*b*c*d*e*f*g*h*i*j*k*l*m*n*o*p*q*r*s*t*u*v*w*x*y*z*A*B*C*D*E*F*G*H*I*J*K*L*M*N*O*P*Q*R*S*T*U*V*W*X*Y*Z*`* =.=",
"+=@=#=$=%=&=*===-=;=>=,='=)=!=~={=]=^=/=(=_=:=<=[=}=|=1=2=3=4=5=6=7=8=9=0=a=b=c=d=e=f=g=h=i=j=k=l=m=n=o=p=q=r=s=t=u=v=w=x=y=z=A=",
"B=C=D=E=F=G=H=I=J=K=L=M=N=O=P=Q=R=S=T=U=V=W=X=Y=Z=`= -.-+-@-#-$-%-&-*-=---;->-,-'-)-!-~-{-]-^-/-m=(-_-:-<-[-}-|-1-2-3-4-5-6-7-8-",
"9-0-a-b-c-d-e-f-g-h-i-j-k-l-m-n-o-p-q-r-s-t-u-v-w-x-y-z-A-B-C-D-E-F-G-H-I-J-K-L-M-N-O-P-Q-R-S-T-U-V-W-X-Y-Z-`- ;.;+;@;#;$;%;&;*;",
"=;-;;;>;,;';);!;~;{;];^;/;(;_;:;<;[;};|;1;2;3;4;5;6;7;8;9;0;a;b;c;d;e;f;g;h;i;j;k;l;m;n;o;p;q;r;s;t;u;v;w;x;y;z;A;B;C;D;E;F;G;H;",
"I;J;K;L;M;N;O;Q+P;Q;R;S;T;U;V;W;X;Y;Z;`; >.>+>@>#>$>%>&>*>=>->;>;>>>,>'>)>!>~>{>]>^>/>(>_>:><>[>}>|>1>2>3>4>5>6>7>8>9>0>a>b>c>d>",
"e>f>g>h>i>j>k>l>m>n>o>p>q>r>s>t>u>v>w>x>y>z>A>B>C>D>E>F>G>H>I>J>K>L>M>N>O>P>Q>R>S>T>U>V>W>X>Y>Z>`> ,.,+,@,#,$,%,&,*,=,-,;,>,,,',",
"),!,~,{,],^,/,(,_,[#:,<,[,},|,1,2,3,4,5,6,7,8,9,0,a,b,c,d,e,f,g,h,i,j,k,l,m,n,o,p,q,r,s,t,u,v,w,x,y,z,A,B,C,D,E,F,G,H,I,J,K,L,M,",
"N,O,P,Q,R,S,T,U,V,W,X,Y,Z,`, '.'+'@'#'$'%'&'*'='-';'>',''')'!'~'{']'^'/'('_':'<'['}'|'1'2'3'4'5'6'7'8'9'0'a'b'c'd'e'f'g'h'i'j'k'",
"l'm'n'o'p'q'r's't'u'v'w'x'y'z'A'B'C'D'E'F'G'H'I'J'K'L'M'N'O'P'Q'R'S'T'U'V'W'X'Y'Z'`' ).)+)@)#)$)%)&)*)=)-);)>),)')))!)~){)])^)/)",
"()_):)<)[)})|)1)2)3)4)5)6)7)8)9)0)a)b)c)d)e)f)g)h)i)j)k)l)m)m)m)n)o)p)q)r)s)t)u)v)w)x)y)z)A)B)C)D)E)F)G)H)I)J)K)L)M)N)O)P)Q)R)S)",
"T)U)V)W)X)Y)Z)`) !.!+!@!#!$!%!&!*!=!-!;!>!,!'!)!!!~!{!]!^!/!(!_!:!<![!}!|!1!2!3!4!5!6!7!8!9!0!a!b!c!d!e!f!g!h!i!j!k!l!m!n!o!p!q!",
"r!s!t!u!v!w!x!y!z!A!B!C!D!E!F!G!H!I!-!J!K!L!M!N!O!P!Q!R!S!T!U!V!W!X!Y!Z!Z!`! ~.~+~@~#~$~%~&~*~=~-~;~>~,~'~)~!~~~{~]~^~/~(~_~:~<~",
"[~}~|~1~2~S@3~4~5~6~7~8~9~0~a~b~c~d~e~f~g~h~i~j~k~l~m~n~Z!Z!Z!o~o~p~p~p~n~q~r~s~t~u~v~w~x~y~z~A~B~C~D~E~F~G~H~I~J~K~L~M~N~O~P~Q~",
"R~S~T~U~V~W~X~Y~Z~`~ {.{+{@{#{${%{&{*{={-{h~;{>{,{'{){Z!Z!Z!Z!!{!{~{{{{{]{^{/{({_{:{<{[{}{|{1{2{3{4{5{6{7{8{9{0{a{b{c{d{e{f{g{h{",
"i{j{k{l{m{n{o{p{q{r{s{t{u{v{w{x{y{z{A{B{C{D{E{F{G{H{I{J{K{Z!Z!!{~{~{{{L{M{N{O{P{Q{R{S{T{U{V{W{X{Y{Z{`{ ].]+]@]#]$]%]&]*]=]-];]&!",
">],]'])]!]~]{]]]^]/](]_]W%:]<][]}]|]1]2]-{3]4]5]6]7]8]9]0]a]n~~{~{{{b]c]d]e]f]g]h]i]j]k]l]m]n]o]p]q]r]s]g$t]u]v]w]x]y]z]A]B]C]D]",
"E]F]G]H]I]J]K]L]M]N]O]P]Q]R]S]T]U]V]W]X]Y]Z]`] ^.^.^.^8]6]+^Z!~{@^#^$^%^&^*^=^-^;^>^S{,^'^)^!^~^{^]^^^/^(^_^:^<^[^}^h@|^1^2^3^4^",
"5^6^7^8^9^0^a^b^c^d^e^f^g^h^i^j^k^l^m^n^o^p^q^r^.^.^s^s^t^u^v^w^x^y^z^A^B^C^D^E^F^G^H^I^J^K^L^M^N^O^P^Q^R^S^T^U^V^W^X^Y^Z^`^ /./",
"+/@/#/$/%/&/*/=/-/;/>/,/'/)/!/~/{/]/^///(/_/:/</9][/}/}/|/1/2/3/4/5/z^6/7/8/9/0/a/b/c/d/e/f/g/h/i/j/k/l]l/m/n/o/p/q/r/s/t/u/v/w/",
"x/y/z/A/B/C/D/E/F/G/H/I/J/K/L/k%M/N/O/P/Q/R/:/S/8]T/}/}/U/V/W/X/Y/Z/z^`/ (%^.(+(@(#($(%(&(*(=(-(;(>(,('()(!(;(~({(<^](^(/(((_(:(",
"<([(}(|(1(2(3(4(5(6(;*7(8(9(0(a(N$b(c(d(e(f(g(h(i(j(k(k(l(m(n(o(p(q(r(s(t(u(v(w(x(y(z(A(B(C(D(E(F(G(H(I(J(K(L(M(N(O(P(Q(R(S(T(U(",
"V(W(X(Y(Z(`( _}$._+_@_#_$_%_&_*_=_-_;_>_e(,_'_)_!_~_{_]_^_/_(___:_<_[_}_|_1_2_3_4_5_6_7_8_9_0_a_b_c_d_M@e_K(f_g_@-h_i_j_k_l_m_n_",
"o_p_q_r_s_t_u_v_w_x_y_z_A_B_C_D_E_F_G_H_I_J_K_L_M_N_O_]_P_Q_R_S_T_S_S_U_V_W_X_Y_Z_`_ :.:+:@:#:$:%:&:*:=:-:;:>:,:':):!:~:{:]:^:/:",
"(:_:::<:[:}:|:1:2:3:4:5:6:7:8:9:0:a:b:c:d:e:f:3/g:h:i:j:k:l:m:n:o:p:n:n:m:q:r:s:t:u:v:w:x:y:z:A:B:C:D:E:F:G:H:I:J:K:L:M:N:O:P:Q:",
"R:S:T:U:V:W:X:Y:e^Z:`: <.<+<@<#<$<%<&<*<=<-<;<><g:,<'<)<!<~<{<]<{<]<^<^<^</<(<_<:<<<[<}<|<1<2<3<4<5<6<7<8<9<0<a<b<c<d<e<e<f<g<h<",
"i<j<k<l<m<n<o<p<q<r<s<t<u<v<w<x<y<z<A<B<C<D<E<m(]_F<G<H<I<J<K<K<K<L<M<M<M<N<I<O<P<Q<R<S<T<U<>,V<W<X<Y<Z<`< [.[+[@[#[$[%[&[*[=[-[",
";[>[,['[)[![~[{[][^[/[([_[:[<[[[}[|[&<1[2[3[4[5[6[7[8[9[Q<0[a[a[b[a[a[c[d[e[f[g[h[i[j[k[l[m[n[o[p[q[r[s[t[u[v[w[x[y[z[A[B[C[D[E[",
"F[G[H[I[J[K[L[M[N[O[P[Q[R[S[T[U[V[W[X[Y[Z[`[ }.}+}@}#}$}%}&}*}=}-};}>},}'})}!}~}{}]}^}/}(}_}:}<}[}}}|}1}2}3}4}5}6}7}8}9}0}a}b}c}",
"d}e}f}g}h}i}j}k}l}m}n}o}p}q}r}s}t}u}v}w}x}y}z}A}B}C}D}E}F}G}H}I}J}K}L}M}N}O}P}Q}R}S}T}U}V}W}X}Y}Z}`} |.|+|@|#|$|%|&|*|=|-|;|>|,|",
" ''|)|!|~|{|]|^|/|(|_|:|<|[|}|||1|2|3|4|5|6|7|8|9|0|a|b|c|d|e|f|g|h|i|j|k|l|m|n|o|p|q|s,r|s|t|u|v|w|x|y|z|A|B|C|D|E|F|G|H|I|J|K|",
"L|M|N|O|P|Q|R|S|T|U|V|W|X|Y|Z|Z|`| 1.1+1@1#1$1%1&1*1=1-1;1>1,1'1)1!1~1{1]1^1/1(1_1:1<1[1}1|111213141516171819101a1b1c1d1r#e1f1g1",
"h1i1j1k1l1m1n1o1p1q1r1s1t1u1v1w1x1y1z1A1B1C1D1E1F1G1H1I1J1K1L1M1N1O1P1Q1R1S1T1U1V1W1X1Y1Z1`1 2.2+2@2#2$2%2&2*2=2-2;2>2,2'2)2!2~2",
"{2]2^2/2(2_2:2<2[2}2|212223242526272829202a2b2c2d2e2f2g2g2h2i2j2k2l2m2n2o2p2q2r2s2t2u2v2w2x2y2z2A2B2C2D2E2F2G2H2I2J2K2L2M2N2O2P2",
"Q2R2S2T2U2V2W2X2Y2Z2`2 3.3+3@3#3$3%3&3*3=3-3;3>3,3'3)3!3~3{3]3^3/3(3_3:3<3[3}3|313233343536373839303a3b3c3d3e3f3g3h3i3j3k3l3m3n3",
"o3p3q3r3s3t3u3v3w3x3y3z3A3B3C3D3E3F3G3H3I3J3K3L3M3N3O3P3Q3R3S3T3U3V3W3X3Y3Z3`3 4.4+4@4#4$4%4&4*4=4-4;4>4,4'4)4!4~4{4]4&=^4/4(4_4",
":4<4[4}4|414243444546474849404a4E3b4c4d4e4f4g4h4i4j4k4l4m4n4o4p4q4r4s4t4u4v4X~<]w4x4y4z4A4B4C4D4E4F4G4H4I4J4K4L4M4N4O4D%P4Q4R4S4",
"T4U4V4W4X4Y4Z4`4 5.5+5@5#5$5%5&5*5=5-5;5>5,5'5)5!5~5k4{5]5^5/5(5W{_5:5<5[5}5|5152535455565758595}#05a5b5c5d5e5f5{5g5h5f2i5j5k5l5",
"m5n5o5p5q5r5s5t5u5v5w5x5y5z5A5B5*5C5D5E5F5G5H5I5J5K5L5M5l4N5O5P5Q5=/15R5Y3t5)]S5T5U5V5W5X5Y5Z5`5 6.6+6@6#6$6%6&6P(*6=6-6;6>6,6'6",
")6!6~6{6]6^6/6(6_6:6<6[6}6|616263646566676869606a6b6c6d6e6f6g6h6i6j6k6l6m6n6o6p6q6r6s6t6u6v6w6x6y6z6A6B6C6D6E6F6G6H6I6J6K6L6M6N6",
"O6P6Q6R6S6T6U6V6W6X6Y6Z6`6=5 7.7+7@7#7$7%7&7*7=7-7;7>7d^,7'7)7!7~7{7]7^7/7(7_7:7<7[7}7|717273747576777879707a7b7c7d7|[e7f7g7h7i7",
"j7k7l7m7t t n7o7p7q7r7s7t7u7v7w7x7y7z7A7B7C7D7E7F7r#G7H7I7J7K7L7M7N7O7P7Q7R7#&S7T7U7V7W7X7Y7Z7`7 8.8}=+8@8#8$8%8&8*8=8-8;8>8,8'8",
")8!8~8{8]8^8/8(8_8:8<8[8}8|81828383848586878889808a8b8c8d8e8f8g8M7h8i8j8k8l8m896n8o8p8q8r8s8t8J1u8v8w8x8y8z8A8B8C8D8E8F8G8H8I8J8",
"K8L8M8N8O8P8Q8R8S8T8U8V8W8X8Y8Z8`8 9.9+9@9#9$9%9&9*9=9-9;9>9,9'9'9)9!9~9{9]9^9/9(9o8_9:9<9[9}9|919293949596979899909a9b9c9d9e9f9",
"g9h9i9j9k9l9m9n9o9p9q9r9s9t9u9v9w9x9y9z9A9B9C9D9E9H:F9G9H9I9J9'9'9K9L9M9N9O9P9Q9R9S9T9U9V9W9X9Y9Z9`9 0.0+0@0#0$0%0&0*0=0-0;0>0,0",
"'0)0!0~0{0]0^0/0(0_0:0<0[0}0|010203040506070809000a0b0c0d0e0f0,9g0h0i0j0k0l0m0n0o0p0q0r0s0t0u0v0w0x0y0z0A0B0C0D0E0F0G0H0I0J0K0L0",
"M0N0O0P0Q0R0S0T0U0V0W0X0Y0Z0`0 a.a+a@a#a$a%a&a*a=a-a;a>a,a'a)a!a~a{a]a^a/a(a_a:a<a[a}a|a1a2a3a4a5a6a7a8a9a0aaabacadaeaeafagao^ha",
"iajakalamanaoapaqarasatauavawaxayazaAaBaCaDaEaFaGaHaIaJaKaLaMaNaOaPaQaRaSaTaUaVaWaXaYaZa`a b.b+b@b#b$b%b&b2=*b=b-b;b>b,b'bO#)b!b",
"~b{b+[]b^b/b(b_b:b<b[b}b|b1b2b3b4b5b6b7b8b9b0babbbcbdbebfbgbhbibjbkblbmbnbobpbqbrbsbtbubvbwbxbybzbAbBbCbDbEbFbGbHbIbJbKbLbMbNbOb",
"PbQbRbSbTbUbVbWbXbYbZb`b c.c+c@c#c$c%c&c*c=c-c;c>c,c'c)c!c~c{c]c^c/c(c_c:c<c[c}c|c1c2c3c4c5c6c7c8c9c0cacbcccdcec`,fcgchcicjckclc",
"mcncocpcqcrcsctcucvcwcxcyczcAcBcCcDcEcFcGcHcIcJcKcLcMcNcOcV@PcQcRcScTcUcVcWcXcYcZc`c d.d+d@d#d$d%d&d*d=d-d;d>d,d'd)d!d~d{d]d^d/d",
"(d_d:d<d[d}d|d1d2d3d4d/%5d6d7d8d9d0dadbdcdddedfdgdhdidjdkdldmdndodpdqdrdsdtdudvdwdxdydzdAdBdCdDdEdFdl$GdHdIdJdKdLdMdNdOdPdPdQdRd",
"SdTdUdVdWdXdYdZd`d e.e+e@e#e$e%e&e*e=e-e;e>e,e'e)e!e~e{e]e^e#e/e(e_e:e<e[e}e|es,1e2e3e4e&e5e6e7e8e9e0eaebecedeeefegeheiejekeleme"};
